; G-Code originally generated by Simplify3D(R) Version 4.1.2
; This calibration test gcode modified by the Teaching Tech Calibration website: https://teachingtechyt.github.io/calibration.html
;M80 ; power supply on
;This G-Code has been generated specifically for the {machine_name}

;SETTINGS
;Nozzle diameter = {machine_nozzle_size}mm
;Filament name = {material_brand} {material_name}
;Filament type = {material_type} {material_diameter}
;Filament weight = {filament_weight}
;Extruder temp = M109 S{material_print_temperature}
;Bed temp = M190 S{material_bed_temperature}

;The following lines can be uncommented for printer specific fine tuning
;More information can be found at https://marlinfw.org/meta/gcode/
;
;M92 E420                                   ;Set Axis Steps-per-unit
;M301 P21.0 I1.78 D61.93                    ;Set Hotend PID
;M906 E160                                  ;Digipot Motor Current ((875mA-750)/5+135) = 160
;M206 Y0                                    ;Set Home Offsets (default:0)
;
M73 P0                                      ; clear GLCD progress bar
M75                                         ; start GLCD timer
M107                                        ; disable fans
M420 S0                                     ; disable leveling matrix
G90                                         ; absolute positioning
M82                                         ; set extruder to absolute mode
G92 E0                                      ; set extruder position to 0
M140 S60    ; start bed heating up
G28 XY                                      ; home X and Y
;G1 X-19 Y258 F1000                          ; move to safe homing position
M109 R180         ; soften filament before homing Z
G28 Z                                       ; home Z
G1 E-15 F100                                ; retract filament
M109 R180           ; wait for extruder to reach wiping temp
;M206 X0 Y0 Z0                               ; uncomment to adjust wipe position (+X ~ nozzle moves left)(+Y ~ nozzle moves forward)(+Z ~ nozzle moves down)
G12                                         ; wiping sequence
M206 X0 Y0 Z0                               ; reseting stock nozzle position ### CAUTION: changing this line can affect print quality ###
G1 Z10 F5000                                ; raise nozzle after wipe
M109 R180          ; wait for extruder to reach probe temp
G1 X-10 Y293 F4000                          ; move above first probe point
M204 S100                                   ; set probing acceleration
G29                                         ; start auto-leveling sequence
M420 S1                                     ; enable leveling matrix
M204 S500                                   ; restore standard acceleration
G1 X0 Y0 Z15 F5000                          ; move up off last probe point
G4 S1                                       ; pause
M400                                        ; wait for moves to finish
M117 Heating...                             ; progress indicator message on LCD
M109 R205  ; wait for extruder to reach printing temp
M190 R60    ; wait for bed to reach printing temp
G1 Z2 E0 F75                                ; prime tiny bit of filament into the nozzle
M117 TAZ 6 Printing...                      ; progress indicator message on LCD
;Start G-Code End

; custom start gcode

G0 Z3; fix for delta printers that home at max
;process Process-1
;layer 1, Z = 0.200
T0
G92 E0.0000
G1 E-2 F2400 ; custom retraction
;fan1;
G1 Z0.200 F1200
G1 X111.2550 Y132.3890 F2000 ; custom feedrate
G1 E0 F2400 ; custom un-retraction/prime
G92 E0.0000
G1 X112.3870 Y131.9200 E0.0660 F600 ; custom feedrate
G1 X167.6130 Y131.9200 E3.0416
G1 X168.7450 Y132.3890 E3.1077
G1 X172.6110 Y136.2550 E3.4023
G1 X173.0800 Y137.3870 E3.4683
G1 X173.0800 Y142.6130 E3.7498
G1 X172.6110 Y143.7450 E3.8159
G1 X168.7450 Y147.6110 E4.1105
G1 X167.6130 Y148.0800 E4.1765
G1 X112.3870 Y148.0800 E7.1521
G1 X111.2550 Y147.6110 E7.2181
G1 X107.3890 Y143.7450 E7.5128
G1 X106.9200 Y142.6130 E7.5788
G1 X106.9200 Y137.3870 E7.8603
G1 X107.3890 Y136.2550 E7.9264
G1 X111.2550 Y132.3890 E8.2210
G92 E0.0000
G1 E-2 F2400 ; custom retraction
;zhop1
G1 X111.6630 Y132.9990 F2000 ; custom feedrate
G1 Z0.200 F1200
G1 E0 F2400 ; custom un-retraction/prime
G92 E0.0000
G1 X112.5310 Y132.6400 E0.0506 F600 ; custom feedrate
G1 X167.4690 Y132.6400 E3.0108
G1 X168.3370 Y132.9990 E3.0614
G1 X172.0010 Y136.6630 E3.3405
G1 X172.3600 Y137.5310 E3.3911
G1 X172.3600 Y142.4690 E3.6572
G1 X172.0010 Y143.3370 E3.7078
G1 X168.3370 Y147.0010 E3.9870
G1 X167.4690 Y147.3600 E4.0376
G1 X112.5310 Y147.3600 E6.9978
G1 X111.6630 Y147.0010 E7.0484
G1 X107.9990 Y143.3370 E7.3276
G1 X107.6400 Y142.4690 E7.3782
G1 X107.6400 Y137.5310 E7.6443
G1 X107.9990 Y136.6630 E7.6949
G1 X111.6630 Y132.9990 E7.9740
G92 E0.0000
G1 E-2 F2400 ; custom retraction
;zhop1
G1 X113.1490 Y135.3600 F2000 ; custom feedrate
G1 X113.0250 Y135.4840
G1 X113.7460 Y136.8000
G1 Z0.200 F1200
G1 E0 F2400 ; custom un-retraction/prime
G92 E0.0000
G1 X166.2540 Y136.8000 E2.8292 F480 ; custom feedrate
G1 X168.2000 Y138.7460 E2.9775
G1 X168.2000 Y141.2540 E3.1127
G1 X166.2540 Y143.2000 E3.2609
G1 X113.7460 Y143.2000 E6.0902
G1 X111.8000 Y141.2540 E6.2384
G1 X111.8000 Y138.7460 E6.3736
G1 X113.7460 Y136.8000 E6.5219
G1 X113.4470 Y136.0800 F2000 ; custom feedrate
G92 E0.0000
G1 X166.5530 Y136.0800 E2.8614 F480 ; custom feedrate
G1 X168.9200 Y138.4470 E3.0418
G1 X168.9200 Y141.5530 E3.2091
G1 X166.5530 Y143.9200 E3.3895
G1 X113.4470 Y143.9200 E6.2509
G1 X111.0800 Y141.5530 E6.4313
G1 X111.0800 Y138.4470 E6.5986
G1 X113.4470 Y136.0800 E6.7790
G1 X113.1490 Y135.3600 F2000 ; custom feedrate
G92 E0.0000
G1 X166.8510 Y135.3600 E2.8935 F360 ; custom feedrate
G1 X169.6400 Y138.1490 E3.1061
G1 X169.6400 Y141.8510 E3.3055
G1 X166.8510 Y144.6400 E3.5180
G1 X113.1490 Y144.6400 E6.4116
G1 X110.3600 Y141.8510 E6.6241
G1 X110.3600 Y138.1490 E6.8236
G1 X113.1490 Y135.3600 E7.0361
G1 X114.2570 Y142.7680 F2000 ; custom feedrate
G92 E0.0000
G1 X112.2320 Y140.7430 E0.1543 F480 ; custom feedrate
G1 X112.2320 Y139.7240 E0.2092
G1 X115.2760 Y142.7680 E0.4411
G1 X116.2940 Y142.7680 E0.4960
G1 X112.3410 Y138.8150 E0.7972
G1 X112.8500 Y138.3060 E0.8360
G1 X117.3120 Y142.7680 E1.1760
G1 X118.3300 Y142.7680 E1.2308
G1 X113.3590 Y137.7970 E1.6096
G1 X113.8690 Y137.2880 E1.6484
G1 X119.3490 Y142.7680 E2.0660
G1 X120.3670 Y142.7680 E2.1209
G1 X114.8310 Y137.2320 E2.5427
G1 X115.8490 Y137.2320 E2.5976
G1 X121.3850 Y142.7680 E3.0194
G1 X122.4030 Y142.7680 E3.0743
G1 X116.8670 Y137.2320 E3.4961
G1 X117.8860 Y137.2320 E3.5510
G1 X123.4220 Y142.7680 E3.9728
G1 X124.4400 Y142.7680 E4.0277
G1 X118.9040 Y137.2320 E4.4495
G1 X119.9220 Y137.2320 E4.5044
G1 X125.4580 Y142.7680 E4.9262
G1 X126.4760 Y142.7680 E4.9811
G1 X120.9400 Y137.2320 E5.4029
G1 X121.9590 Y137.2320 E5.4578
G1 X127.4950 Y142.7680 E5.8797
G1 X128.5130 Y142.7680 E5.9345
G1 X122.9770 Y137.2320 E6.3564
G1 X123.9950 Y137.2320 E6.4112
G1 X129.5310 Y142.7680 E6.8331
G1 X130.5490 Y142.7680 E6.8879
G1 X125.0130 Y137.2320 E7.3098
G1 X126.0310 Y137.2320 E7.3646
G1 X131.5670 Y142.7680 E7.7865
G1 X132.5860 Y142.7680 E7.8413
G1 X127.0500 Y137.2320 E8.2632
G1 X128.0680 Y137.2320 E8.3180
G1 X133.6040 Y142.7680 E8.7399
G1 X134.6220 Y142.7680 E8.7948
G1 X129.0860 Y137.2320 E9.2166
G1 X130.1040 Y137.2320 E9.2715
G1 X135.6400 Y142.7680 E9.6933
G1 X136.6590 Y142.7680 E9.7482
G1 X131.1230 Y137.2320 E10.1700
G1 X132.1410 Y137.2320 E10.2249
G1 X137.6770 Y142.7680 E10.6467
G1 X138.6950 Y142.7680 E10.7016
G1 X133.1590 Y137.2320 E11.1234
G1 X134.1770 Y137.2320 E11.1783
G1 X139.7130 Y142.7680 E11.6001
G1 X140.7320 Y142.7680 E11.6550
G1 X135.1960 Y137.2320 E12.0768
G1 X136.2140 Y137.2320 E12.1317
G1 X141.7500 Y142.7680 E12.5535
G1 X142.7680 Y142.7680 E12.6084
G1 X137.2320 Y137.2320 E13.0302
G1 X138.2500 Y137.2320 E13.0851
G1 X143.7860 Y142.7680 E13.5069
G1 X144.8040 Y142.7680 E13.5618
G1 X139.2680 Y137.2320 E13.9837
G1 X140.2870 Y137.2320 E14.0385
G1 X145.8230 Y142.7680 E14.4604
G1 X146.8410 Y142.7680 E14.5152
G1 X141.3050 Y137.2320 E14.9371
G1 X142.3230 Y137.2320 E14.9919
G1 X147.8590 Y142.7680 E15.4138
G1 X148.8770 Y142.7680 E15.4686
G1 X143.3410 Y137.2320 E15.8905
G1 X144.3600 Y137.2320 E15.9453
G1 X149.8960 Y142.7680 E16.3672
G1 X150.9140 Y142.7680 E16.4220
G1 X145.3780 Y137.2320 E16.8439
G1 X146.3960 Y137.2320 E16.8988
G1 X151.9320 Y142.7680 E17.3206
G1 X152.9500 Y142.7680 E17.3755
G1 X147.4140 Y137.2320 E17.7973
G1 X148.4330 Y137.2320 E17.8522
G1 X153.9690 Y142.7680 E18.2740
G1 X154.9870 Y142.7680 E18.3289
G1 X149.4510 Y137.2320 E18.7507
G1 X150.4690 Y137.2320 E18.8056
G1 X156.0050 Y142.7680 E19.2274
G1 X157.0230 Y142.7680 E19.2823
G1 X151.4870 Y137.2320 E19.7041
G1 X152.5060 Y137.2320 E19.7590
G1 X158.0420 Y142.7680 E20.1808
G1 X159.0600 Y142.7680 E20.2357
G1 X153.5240 Y137.2320 E20.6575
G1 X154.5420 Y137.2320 E20.7124
G1 X160.0780 Y142.7680 E21.1342
G1 X161.0960 Y142.7680 E21.1891
G1 X155.5600 Y137.2320 E21.6110
G1 X156.5780 Y137.2320 E21.6658
G1 X162.1140 Y142.7680 E22.0877
G1 X163.1330 Y142.7680 E22.1425
G1 X157.5970 Y137.2320 E22.5644
G1 X158.6150 Y137.2320 E22.6192
G1 X164.1510 Y142.7680 E23.0411
G1 X165.1690 Y142.7680 E23.0959
G1 X159.6330 Y137.2320 E23.5178
G1 X160.6510 Y137.2320 E23.5726
G1 X166.1310 Y142.7120 E23.9902
G1 X166.6410 Y142.2030 E24.0290
G1 X161.6700 Y137.2320 E24.4078
G1 X162.6880 Y137.2320 E24.4627
G1 X167.1500 Y141.6940 E24.8027
G1 X167.6590 Y141.1850 E24.8414
G1 X163.7060 Y137.2320 E25.1426
G1 X164.7240 Y137.2320 E25.1975
G1 X167.7680 Y140.2760 E25.4294
G1 X167.7680 Y139.2570 E25.4843
G1 X165.7430 Y137.2320 E25.6386
G92 E0.0000
G1 E-2 F2400 ; custom retraction
M104 S200 T0 ; custom hot end temp - A
M106 S255; custom fan 100% from layer 2
G1 Z0.400 F1200
G1 X166.3790 Y136.5000 F2000 ; custom feedrate
G1 E0 F2400 ; custom un-retraction/prime
G92 E0.0000
G1 X168.5000 Y138.6210 E0.1347 F960 ; custom feedrate
G1 X168.5000 Y141.3790 E0.2585
G1 X166.3790 Y143.5000 E0.3932
G1 X113.6210 Y143.5000 E2.7621
G1 X111.5000 Y141.3790 E2.8968
G1 X111.5000 Y138.6210 E3.0206
G1 X113.6210 Y136.5000 E3.1553
G1 X166.3790 Y136.5000 E5.5242
G1 X166.6270 Y135.9000 F2000 ; custom feedrate
G92 E0.0000
G1 X169.1000 Y138.3730 E0.1570 F960 ; custom feedrate
G1 X169.1000 Y141.6270 E0.3031
G1 X166.6270 Y144.1000 E0.4602
G1 X113.3730 Y144.1000 E2.8514
G1 X110.9000 Y141.6270 E3.0084
G1 X110.9000 Y138.3730 E3.1545
G1 X113.3730 Y135.9000 E3.3115
G1 X166.6270 Y135.9000 E5.7027
G1 X166.8760 Y135.3000 F2000 ; custom feedrate
G92 E0.0000
G1 X169.7000 Y138.1240 E0.1793 F720 ; custom feedrate
G1 X169.7000 Y141.8760 E0.3478
G1 X166.8760 Y144.7000 E0.5271
G1 X113.1240 Y144.7000 E2.9406
G1 X110.3000 Y141.8760 E3.1200
G1 X110.3000 Y138.1240 E3.2884
G1 X113.1240 Y135.3000 E3.4678
G1 X166.8760 Y135.3000 E5.8813
G1 X168.1400 Y140.7100 F2000 ; custom feedrate
G92 E0.0000
G1 X165.7100 Y143.1400 E0.1543 F960 ; custom feedrate
G1 X164.8610 Y143.1400 E0.1924
G1 X168.1400 Y139.8610 E0.4006
G1 X168.1400 Y139.0130 E0.4387
G1 X164.0130 Y143.1400 E0.7008
G1 X163.1640 Y143.1400 E0.7389
G1 X167.8370 Y138.4670 E1.0356
G1 X167.4130 Y138.0430 E1.0625
G1 X162.3160 Y143.1400 E1.3862
G1 X161.4670 Y143.1400 E1.4243
G1 X166.9880 Y137.6190 E1.7748
G1 X166.5640 Y137.1950 E1.8018
G1 X160.6190 Y143.1400 E2.1793
G1 X159.7700 Y143.1400 E2.2174
G1 X166.0500 Y136.8600 E2.6162
G1 X165.2020 Y136.8600 E2.6543
G1 X158.9220 Y143.1400 E3.0531
G1 X158.0730 Y143.1400 E3.0912
G1 X164.3530 Y136.8600 E3.4900
G1 X163.5050 Y136.8600 E3.5281
G1 X157.2250 Y143.1400 E3.9268
G1 X156.3760 Y143.1400 E3.9649
G1 X162.6560 Y136.8600 E4.3637
G1 X161.8080 Y136.8600 E4.4018
G1 X155.5280 Y143.1400 E4.8006
G1 X154.6790 Y143.1400 E4.8387
G1 X160.9590 Y136.8600 E5.2375
G1 X160.1110 Y136.8600 E5.2756
G1 X153.8310 Y143.1400 E5.6743
G1 X152.9820 Y143.1400 E5.7124
G1 X159.2620 Y136.8600 E6.1112
G1 X158.4140 Y136.8600 E6.1493
G1 X152.1340 Y143.1400 E6.5481
G1 X151.2850 Y143.1400 E6.5862
G1 X157.5650 Y136.8600 E6.9850
G1 X156.7160 Y136.8600 E7.0231
G1 X150.4360 Y143.1400 E7.4219
G1 X149.5880 Y143.1400 E7.4600
G1 X155.8680 Y136.8600 E7.8587
G1 X155.0190 Y136.8600 E7.8968
G1 X148.7390 Y143.1400 E8.2956
G1 X147.8910 Y143.1400 E8.3337
G1 X154.1710 Y136.8600 E8.7325
G1 X153.3220 Y136.8600 E8.7706
G1 X147.0420 Y143.1400 E9.1694
G1 X146.1940 Y143.1400 E9.2075
G1 X152.4740 Y136.8600 E9.6063
G1 X151.6250 Y136.8600 E9.6444
G1 X145.3450 Y143.1400 E10.0431
G1 X144.4970 Y143.1400 E10.0812
G1 X150.7770 Y136.8600 E10.4800
G1 X149.9280 Y136.8600 E10.5181
G1 X143.6480 Y143.1400 E10.9169
G1 X142.8000 Y143.1400 E10.9550
G1 X149.0800 Y136.8600 E11.3538
G1 X148.2310 Y136.8600 E11.3919
G1 X141.9510 Y143.1400 E11.7907
G1 X141.1030 Y143.1400 E11.8288
G1 X147.3830 Y136.8600 E12.2275
G1 X146.5340 Y136.8600 E12.2656
G1 X140.2540 Y143.1400 E12.6644
G1 X139.4060 Y143.1400 E12.7025
G1 X145.6860 Y136.8600 E13.1013
G1 X144.8370 Y136.8600 E13.1394
G1 X138.5570 Y143.1400 E13.5382
G1 X137.7090 Y143.1400 E13.5763
G1 X143.9890 Y136.8600 E13.9751
G1 X143.1400 Y136.8600 E14.0132
G1 X136.8600 Y143.1400 E14.4119
G1 X136.0120 Y143.1400 E14.4500
G1 X142.2920 Y136.8600 E14.8488
G1 X141.4430 Y136.8600 E14.8869
G1 X135.1630 Y143.1400 E15.2857
G1 X134.3140 Y143.1400 E15.3238
G1 X140.5940 Y136.8600 E15.7226
G1 X139.7460 Y136.8600 E15.7607
G1 X133.4660 Y143.1400 E16.1594
G1 X132.6170 Y143.1400 E16.1975
G1 X138.8970 Y136.8600 E16.5963
G1 X138.0490 Y136.8600 E16.6344
G1 X131.7690 Y143.1400 E17.0332
G1 X130.9200 Y143.1400 E17.0713
G1 X137.2000 Y136.8600 E17.4701
G1 X136.3520 Y136.8600 E17.5082
G1 X130.0720 Y143.1400 E17.9070
G1 X129.2230 Y143.1400 E17.9451
G1 X135.5030 Y136.8600 E18.3438
G1 X134.6550 Y136.8600 E18.3819
G1 X128.3750 Y143.1400 E18.7807
G1 X127.5260 Y143.1400 E18.8188
G1 X133.8060 Y136.8600 E19.2176
G1 X132.9580 Y136.8600 E19.2557
G1 X126.6780 Y143.1400 E19.6545
G1 X125.8290 Y143.1400 E19.6926
G1 X132.1090 Y136.8600 E20.0914
G1 X131.2610 Y136.8600 E20.1295
G1 X124.9810 Y143.1400 E20.5282
G1 X124.1320 Y143.1400 E20.5663
G1 X130.4120 Y136.8600 E20.9651
G1 X129.5640 Y136.8600 E21.0032
G1 X123.2840 Y143.1400 E21.4020
G1 X122.4350 Y143.1400 E21.4401
G1 X128.7150 Y136.8600 E21.8389
G1 X127.8670 Y136.8600 E21.8770
G1 X121.5870 Y143.1400 E22.2758
G1 X120.7380 Y143.1400 E22.3139
G1 X127.0180 Y136.8600 E22.7126
G1 X126.1690 Y136.8600 E22.7507
G1 X119.8890 Y143.1400 E23.1495
G1 X119.0410 Y143.1400 E23.1876
G1 X125.3210 Y136.8600 E23.5864
G1 X124.4720 Y136.8600 E23.6245
G1 X118.1920 Y143.1400 E24.0233
G1 X117.3440 Y143.1400 E24.0614
G1 X123.6240 Y136.8600 E24.4601
G1 X122.7750 Y136.8600 E24.4982
G1 X116.4950 Y143.1400 E24.8970
G1 X115.6470 Y143.1400 E24.9351
G1 X121.9270 Y136.8600 E25.3339
G1 X121.0780 Y136.8600 E25.3720
G1 X114.7980 Y143.1400 E25.7708
G1 X113.9500 Y143.1400 E25.8089
G1 X120.2300 Y136.8600 E26.2077
G1 X119.3810 Y136.8600 E26.2458
G1 X113.4360 Y142.8050 E26.6233
G1 X113.0120 Y142.3810 E26.6502
G1 X118.5330 Y136.8600 E27.0008
G1 X117.6840 Y136.8600 E27.0389
G1 X112.5870 Y141.9570 E27.3626
G1 X112.1630 Y141.5330 E27.3895
G1 X116.8360 Y136.8600 E27.6862
G1 X115.9870 Y136.8600 E27.7243
G1 X111.8600 Y140.9870 E27.9864
G1 X111.8600 Y140.1390 E28.0245
G1 X115.1390 Y136.8600 E28.2327
G1 X114.2900 Y136.8600 E28.2708
G1 X111.8600 Y139.2900 E28.4251
G92 E0.0000
G1 E-2 F2400 ; custom retraction
;layer 3, Z = 0.600
;fan3;
G1 Z0.600 F1200
G1 X111.5000 Y138.6210 F2000 ; custom feedrate
G1 E0 F2400 ; custom un-retraction/prime
G92 E0.0000
G1 X113.6210 Y136.5000 E0.1347 F960 ; custom feedrate
G1 X166.3790 Y136.5000 E2.5036
G1 X168.5000 Y138.6210 E2.6383
G1 X168.5000 Y141.3790 E2.7621
G1 X166.3790 Y143.5000 E2.8968
G1 X113.6210 Y143.5000 E5.2657
G1 X111.5000 Y141.3790 E5.4004
G1 X111.5000 Y138.6210 E5.5242
G1 X110.9000 Y138.3730 F2000 ; custom feedrate
G92 E0.0000
G1 X113.3730 Y135.9000 E0.1570 F960 ; custom feedrate
G1 X166.6270 Y135.9000 E2.5482
G1 X169.1000 Y138.3730 E2.7052
G1 X169.1000 Y141.6270 E2.8514
G1 X166.6270 Y144.1000 E3.0084
G1 X113.3730 Y144.1000 E5.3996
G1 X110.9000 Y141.6270 E5.5566
G1 X110.9000 Y138.3730 E5.7027
G1 X110.3000 Y138.1240 F2000 ; custom feedrate
G92 E0.0000
G1 X113.1240 Y135.3000 E0.1793 F720 ; custom feedrate
G1 X166.8760 Y135.3000 E2.5928
G1 X169.7000 Y138.1240 E2.7722
G1 X169.7000 Y141.8760 E2.9406
G1 X166.8760 Y144.7000 E3.1200
G1 X113.1240 Y144.7000 E5.5335
G1 X110.3000 Y141.8760 E5.7128
G1 X110.3000 Y138.1240 E5.8813
G1 X114.2900 Y143.1400 F2000 ; custom feedrate
G92 E0.0000
G1 X111.8600 Y140.7100 E0.1543 F960 ; custom feedrate
G1 X111.8600 Y139.8610 E0.1924
G1 X115.1390 Y143.1400 E0.4006
G1 X115.9870 Y143.1400 E0.4387
G1 X111.8600 Y139.0130 E0.7008
G1 X111.8600 Y138.7700 E0.7117
G1 X112.1630 Y138.4670 E0.7309
G1 X116.8360 Y143.1400 E1.0276
G1 X117.6840 Y143.1400 E1.0657
G1 X112.5870 Y138.0430 E1.3894
G1 X113.0120 Y137.6190 E1.4163
G1 X118.5330 Y143.1400 E1.7669
G1 X119.3810 Y143.1400 E1.8050
G1 X113.4360 Y137.1950 E2.1825
G1 X113.7700 Y136.8600 E2.2038
G1 X113.9500 Y136.8600 E2.2118
G1 X120.2300 Y143.1400 E2.6106
G1 X121.0780 Y143.1400 E2.6487
G1 X114.7980 Y136.8600 E3.0475
G1 X115.6470 Y136.8600 E3.0856
G1 X121.9270 Y143.1400 E3.4844
G1 X122.7750 Y143.1400 E3.5225
G1 X116.4950 Y136.8600 E3.9212
G1 X117.3440 Y136.8600 E3.9593
G1 X123.6240 Y143.1400 E4.3581
G1 X124.4720 Y143.1400 E4.3962
G1 X118.1920 Y136.8600 E4.7950
G1 X119.0410 Y136.8600 E4.8331
G1 X125.3210 Y143.1400 E5.2319
G1 X126.1690 Y143.1400 E5.2700
G1 X119.8890 Y136.8600 E5.6688
G1 X120.7380 Y136.8600 E5.7069
G1 X127.0180 Y143.1400 E6.1056
G1 X127.8670 Y143.1400 E6.1437
G1 X121.5870 Y136.8600 E6.5425
G1 X122.4350 Y136.8600 E6.5806
G1 X128.7150 Y143.1400 E6.9794
G1 X129.5640 Y143.1400 E7.0175
G1 X123.2840 Y136.8600 E7.4163
G1 X124.1320 Y136.8600 E7.4544
G1 X130.4120 Y143.1400 E7.8531
G1 X131.2610 Y143.1400 E7.8912
G1 X124.9810 Y136.8600 E8.2900
G1 X125.8290 Y136.8600 E8.3281
G1 X132.1090 Y143.1400 E8.7269
G1 X132.9580 Y143.1400 E8.7650
G1 X126.6780 Y136.8600 E9.1638
G1 X127.5260 Y136.8600 E9.2019
G1 X133.8060 Y143.1400 E9.6007
G1 X134.6550 Y143.1400 E9.6388
G1 X128.3750 Y136.8600 E10.0375
G1 X129.2230 Y136.8600 E10.0756
G1 X135.5030 Y143.1400 E10.4744
G1 X136.3520 Y143.1400 E10.5125
G1 X130.0720 Y136.8600 E10.9113
G1 X130.9200 Y136.8600 E10.9494
G1 X137.2000 Y143.1400 E11.3482
G1 X138.0490 Y143.1400 E11.3863
G1 X131.7690 Y136.8600 E11.7851
G1 X132.6170 Y136.8600 E11.8232
G1 X138.8970 Y143.1400 E12.2219
G1 X139.7460 Y143.1400 E12.2600
G1 X133.4660 Y136.8600 E12.6588
G1 X134.3140 Y136.8600 E12.6969
G1 X140.5940 Y143.1400 E13.0957
G1 X141.4430 Y143.1400 E13.1338
G1 X135.1630 Y136.8600 E13.5326
G1 X136.0110 Y136.8600 E13.5707
G1 X142.2910 Y143.1400 E13.9695
G1 X143.1400 Y143.1400 E14.0076
G1 X136.8600 Y136.8600 E14.4063
G1 X137.7090 Y136.8600 E14.4444
G1 X143.9890 Y143.1400 E14.8432
G1 X144.8370 Y143.1400 E14.8813
G1 X138.5570 Y136.8600 E15.2801
G1 X139.4060 Y136.8600 E15.3182
G1 X145.6860 Y143.1400 E15.7170
G1 X146.5340 Y143.1400 E15.7551
G1 X140.2540 Y136.8600 E16.1538
G1 X141.1030 Y136.8600 E16.1919
G1 X147.3830 Y143.1400 E16.5907
G1 X148.2310 Y143.1400 E16.6288
G1 X141.9510 Y136.8600 E17.0276
G1 X142.8000 Y136.8600 E17.0657
G1 X149.0800 Y143.1400 E17.4645
G1 X149.9280 Y143.1400 E17.5026
G1 X143.6480 Y136.8600 E17.9014
G1 X144.4970 Y136.8600 E17.9395
G1 X150.7770 Y143.1400 E18.3382
G1 X151.6250 Y143.1400 E18.3763
G1 X145.3450 Y136.8600 E18.7751
G1 X146.1940 Y136.8600 E18.8132
G1 X152.4740 Y143.1400 E19.2120
G1 X153.3220 Y143.1400 E19.2501
G1 X147.0420 Y136.8600 E19.6489
G1 X147.8910 Y136.8600 E19.6870
G1 X154.1710 Y143.1400 E20.0858
G1 X155.0190 Y143.1400 E20.1239
G1 X148.7390 Y136.8600 E20.5226
G1 X149.5880 Y136.8600 E20.5607
G1 X155.8680 Y143.1400 E20.9595
G1 X156.7160 Y143.1400 E20.9976
G1 X150.4360 Y136.8600 E21.3964
G1 X151.2850 Y136.8600 E21.4345
G1 X157.5650 Y143.1400 E21.8333
G1 X158.4140 Y143.1400 E21.8714
G1 X152.1340 Y136.8600 E22.2702
G1 X152.9820 Y136.8600 E22.3083
G1 X159.2620 Y143.1400 E22.7070
G1 X160.1110 Y143.1400 E22.7451
G1 X153.8310 Y136.8600 E23.1439
G1 X154.6790 Y136.8600 E23.1820
G1 X160.9590 Y143.1400 E23.5808
G1 X161.8080 Y143.1400 E23.6189
G1 X155.5280 Y136.8600 E24.0177
G1 X156.3760 Y136.8600 E24.0558
G1 X162.6560 Y143.1400 E24.4546
G1 X163.5050 Y143.1400 E24.4927
G1 X157.2250 Y136.8600 E24.8914
G1 X158.0730 Y136.8600 E24.9295
G1 X164.3530 Y143.1400 E25.3283
G1 X165.2020 Y143.1400 E25.3664
G1 X158.9220 Y136.8600 E25.7652
G1 X159.7700 Y136.8600 E25.8033
G1 X166.0500 Y143.1400 E26.2021
G1 X166.2300 Y143.1400 E26.2101
G1 X166.5640 Y142.8050 E26.2314
G1 X160.6190 Y136.8600 E26.6089
G1 X161.4670 Y136.8600 E26.6470
G1 X166.9880 Y142.3810 E26.9976
G1 X167.4130 Y141.9570 E27.0245
G1 X162.3160 Y136.8600 E27.3482
G1 X163.1640 Y136.8600 E27.3863
G1 X167.8370 Y141.5330 E27.6830
G1 X168.1400 Y141.2300 E27.7022
G1 X168.1400 Y140.9870 E27.7131
G1 X164.0130 Y136.8600 E27.9752
G1 X164.8610 Y136.8600 E28.0133
G1 X168.1400 Y140.1390 E28.2215
G1 X168.1400 Y139.2900 E28.2596
G1 X165.7100 Y136.8600 E28.4139
G92 E0.0000
G1 E-2 F2400 ; custom retraction
;layer 4, Z = 0.800
;fan4;
G1 Z0.800 F1200
G1 X166.3790 Y136.5000 F2000 ; custom feedrate
G1 E0 F2400 ; custom un-retraction/prime
G92 E0.0000
G1 X168.5000 Y138.6210 E0.1347 F960 ; custom feedrate
G1 X168.5000 Y141.3790 E0.2585
G1 X166.3790 Y143.5000 E0.3932
G1 X113.6210 Y143.5000 E2.7621
G1 X111.5000 Y141.3790 E2.8968
G1 X111.5000 Y138.6210 E3.0206
G1 X113.6210 Y136.5000 E3.1553
G1 X166.3790 Y136.5000 E5.5242
G1 X166.6270 Y135.9000 F2000 ; custom feedrate
G92 E0.0000
G1 X169.1000 Y138.3730 E0.1570 F960 ; custom feedrate
G1 X169.1000 Y141.6270 E0.3031
G1 X166.6270 Y144.1000 E0.4602
G1 X113.3730 Y144.1000 E2.8514
G1 X110.9000 Y141.6270 E3.0084
G1 X110.9000 Y138.3730 E3.1545
G1 X113.3730 Y135.9000 E3.3115
G1 X166.6270 Y135.9000 E5.7027
G1 X166.8760 Y135.3000 F2000 ; custom feedrate
G92 E0.0000
G1 X169.7000 Y138.1240 E0.1793 F720 ; custom feedrate
G1 X169.7000 Y141.8760 E0.3478
G1 X166.8760 Y144.7000 E0.5271
G1 X113.1240 Y144.7000 E2.9406
G1 X110.3000 Y141.8760 E3.1200
G1 X110.3000 Y138.1240 E3.2884
G1 X113.1240 Y135.3000 E3.4678
G1 X166.8760 Y135.3000 E5.8813
G1 X166.3400 Y139.9640 F2000 ; custom feedrate
G92 E0.0000
G1 X167.8370 Y138.4670 E0.0951 F960 ; custom feedrate
G1 X167.4130 Y138.0430 E0.1220
G1 X166.3400 Y139.1160 E0.1901
G1 X166.3400 Y138.6600 E0.2106
G1 X165.9470 Y138.6600 E0.2282
G1 X166.9880 Y137.6190 E0.2943
G1 X166.5640 Y137.1950 E0.3213
G1 X165.0990 Y138.6600 E0.4143
G1 X164.2500 Y138.6600 E0.4524
G1 X166.0500 Y136.8600 E0.5667
G1 X165.2020 Y136.8600 E0.6048
G1 X163.4020 Y138.6600 E0.7191
G1 X162.5530 Y138.6600 E0.7572
G1 X164.3530 Y136.8600 E0.8715
G1 X163.5050 Y136.8600 E0.9096
G1 X161.7050 Y138.6600 E1.0239
G1 X160.8560 Y138.6600 E1.0620
G1 X162.6560 Y136.8600 E1.1763
G1 X161.8080 Y136.8600 E1.2144
G1 X160.0080 Y138.6600 E1.3287
G1 X168.1400 Y140.7100 F2000 ; custom feedrate
G92 E0.0000
G1 X165.7100 Y143.1400 E0.1543 F960 ; custom feedrate
G1 X164.8610 Y143.1400 E0.1924
G1 X168.1400 Y139.8610 E0.4006
G1 X168.1400 Y139.0130 E0.4387
G1 X166.3400 Y140.8130 E0.5530
G1 X166.3400 Y141.3400 E0.5767
G1 X165.8130 Y141.3400 E0.6003
G1 X164.0130 Y143.1400 E0.7146
G1 X163.1640 Y143.1400 E0.7527
G1 X164.9640 Y141.3400 E0.8670
G1 X164.1160 Y141.3400 E0.9051
G1 X162.3160 Y143.1400 E1.0194
G1 X161.4670 Y143.1400 E1.0575
G1 X163.2670 Y141.3400 E1.1718
G1 X162.4190 Y141.3400 E1.2099
G1 X160.6190 Y143.1400 E1.3242
G1 X159.7700 Y143.1400 E1.3623
G1 X161.5700 Y141.3400 E1.4766
G1 X160.7220 Y141.3400 E1.5147
G1 X158.9220 Y143.1400 E1.6290
G1 X158.0730 Y143.1400 E1.6671
G1 X159.8730 Y141.3400 E1.7814
G1 X159.6380 Y141.3400 E1.7920
G1 X159.6380 Y140.7260 E1.8195
G1 X157.2250 Y143.1400 E1.9728
G1 X156.3760 Y143.1400 E2.0109
G1 X159.6380 Y139.8780 E2.2180
G1 X159.6380 Y139.0290 E2.2561
G1 X155.5280 Y143.1400 E2.5171
G1 X154.6790 Y143.1400 E2.5552
G1 X160.9590 Y136.8600 E2.9540
G1 X160.1110 Y136.8600 E2.9921
G1 X153.8310 Y143.1400 E3.3909
G1 X152.9820 Y143.1400 E3.4290
G1 X159.2620 Y136.8600 E3.8278
G1 X158.4140 Y136.8600 E3.8659
G1 X152.1340 Y143.1400 E4.2647
G1 X151.2850 Y143.1400 E4.3028
G1 X157.5650 Y136.8600 E4.7015
G1 X156.7160 Y136.8600 E4.7396
G1 X150.4360 Y143.1400 E5.1384
G1 X149.5880 Y143.1400 E5.1765
G1 X155.8680 Y136.8600 E5.5753
G1 X155.0190 Y136.8600 E5.6134
G1 X148.7390 Y143.1400 E6.0122
G1 X147.8910 Y143.1400 E6.0503
G1 X154.1710 Y136.8600 E6.4490
G1 X153.3220 Y136.8600 E6.4871
G1 X147.0420 Y143.1400 E6.8859
G1 X146.1940 Y143.1400 E6.9240
G1 X152.4740 Y136.8600 E7.3228
G1 X151.6250 Y136.8600 E7.3609
G1 X145.3450 Y143.1400 E7.7597
G1 X144.4970 Y143.1400 E7.7978
G1 X150.7770 Y136.8600 E8.1966
G1 X149.9280 Y136.8600 E8.2347
G1 X143.6480 Y143.1400 E8.6334
G1 X142.8000 Y143.1400 E8.6715
G1 X149.0800 Y136.8600 E9.0703
G1 X148.2310 Y136.8600 E9.1084
G1 X141.9510 Y143.1400 E9.5072
G1 X141.1030 Y143.1400 E9.5453
G1 X147.3830 Y136.8600 E9.9441
G1 X146.5340 Y136.8600 E9.9822
G1 X140.2540 Y143.1400 E10.3810
G1 X139.4060 Y143.1400 E10.4191
G1 X145.6860 Y136.8600 E10.8178
G1 X144.8370 Y136.8600 E10.8559
G1 X138.5570 Y143.1400 E11.2547
G1 X137.7090 Y143.1400 E11.2928
G1 X143.9890 Y136.8600 E11.6916
G1 X143.1400 Y136.8600 E11.7297
G1 X136.8600 Y143.1400 E12.1285
G1 X136.0120 Y143.1400 E12.1666
G1 X142.2920 Y136.8600 E12.5654
G1 X141.4430 Y136.8600 E12.6035
G1 X135.1630 Y143.1400 E13.0022
G1 X134.3140 Y143.1400 E13.0403
G1 X140.5940 Y136.8600 E13.4391
G1 X139.7460 Y136.8600 E13.4772
G1 X133.4660 Y143.1400 E13.8760
G1 X132.6170 Y143.1400 E13.9141
G1 X138.8970 Y136.8600 E14.3129
G1 X138.0490 Y136.8600 E14.3510
G1 X131.7690 Y143.1400 E14.7498
G1 X130.9200 Y143.1400 E14.7879
G1 X137.2000 Y136.8600 E15.1866
G1 X136.3520 Y136.8600 E15.2247
G1 X130.0720 Y143.1400 E15.6235
G1 X129.2230 Y143.1400 E15.6616
G1 X135.5030 Y136.8600 E16.0604
G1 X134.6550 Y136.8600 E16.0985
G1 X128.3750 Y143.1400 E16.4973
G1 X127.5260 Y143.1400 E16.5354
G1 X133.8060 Y136.8600 E16.9341
G1 X132.9580 Y136.8600 E16.9722
G1 X126.6780 Y143.1400 E17.3710
G1 X125.8290 Y143.1400 E17.4091
G1 X132.1090 Y136.8600 E17.8079
G1 X131.2610 Y136.8600 E17.8460
G1 X124.9810 Y143.1400 E18.2448
G1 X124.1320 Y143.1400 E18.2829
G1 X130.4120 Y136.8600 E18.6817
G1 X129.5640 Y136.8600 E18.7198
G1 X123.2840 Y143.1400 E19.1185
G1 X122.4350 Y143.1400 E19.1566
G1 X128.7150 Y136.8600 E19.5554
G1 X127.8670 Y136.8600 E19.5935
G1 X121.5870 Y143.1400 E19.9923
G1 X120.7380 Y143.1400 E20.0304
G1 X127.0180 Y136.8600 E20.4292
G1 X126.1690 Y136.8600 E20.4673
G1 X119.8890 Y143.1400 E20.8661
G1 X119.0410 Y143.1400 E20.9042
G1 X125.3210 Y136.8600 E21.3029
G1 X124.4720 Y136.8600 E21.3410
G1 X118.1920 Y143.1400 E21.7398
G1 X117.3440 Y143.1400 E21.7779
G1 X123.6240 Y136.8600 E22.1767
G1 X122.7750 Y136.8600 E22.2148
G1 X118.3620 Y141.2740 E22.4951
G1 X118.3620 Y141.3400 E22.4980
G1 X118.2950 Y141.3400 E22.5010
G1 X116.4950 Y143.1400 E22.6153
G1 X115.6470 Y143.1400 E22.6534
G1 X117.4470 Y141.3400 E22.7677
G1 X116.6600 Y141.3400 E22.8031
G1 X116.6600 Y141.2780 E22.8058
G1 X114.7980 Y143.1400 E22.9240
G1 X113.9500 Y143.1400 E22.9621
G1 X116.6600 Y140.4300 E23.1342
G1 X116.6600 Y139.5810 E23.1723
G1 X113.4360 Y142.8050 E23.3771
G1 X113.0120 Y142.3810 E23.4040
G1 X116.6600 Y138.7330 E23.6357
G1 X116.6600 Y138.6600 E23.6389
G1 X116.7330 Y138.6600 E23.6422
G1 X118.5330 Y136.8600 E23.7565
G1 X117.6840 Y136.8600 E23.7946
G1 X112.5870 Y141.9570 E24.1183
G1 X112.1630 Y141.5330 E24.1452
G1 X116.8360 Y136.8600 E24.4419
G1 X115.9870 Y136.8600 E24.4800
G1 X111.8600 Y140.9870 E24.7421
G1 X111.8600 Y140.1390 E24.7802
G1 X115.1390 Y136.8600 E24.9884
G1 X114.2900 Y136.8600 E25.0265
G1 X111.8600 Y139.2900 E25.1808
G1 X117.5810 Y138.6600 F2000 ; custom feedrate
G92 E0.0000
G1 X119.3810 Y136.8600 E0.1143 F960 ; custom feedrate
G1 X120.2300 Y136.8600 E0.1524
G1 X118.3620 Y138.7280 E0.2710
G1 X118.3620 Y139.5770 E0.3091
G1 X121.0780 Y136.8600 E0.4816
G1 X121.9270 Y136.8600 E0.5197
G1 X118.3620 Y140.4250 E0.7461
G92 E0.0000
G1 E-2 F2400 ; custom retraction
;layer 5, Z = 1.000
;fan5;
;
G1 Z1.000 F1200
G1 X113.6210 Y143.5000 F2000 ; custom feedrate
G1 E0 F2400 ; custom un-retraction/prime
G92 E0.0000
G1 X111.5000 Y141.3790 E0.1347 F960 ; custom feedrate
G1 X111.5000 Y138.6210 E0.2585
G1 X113.6210 Y136.5000 E0.3932
G1 X166.3790 Y136.5000 E2.7621
G1 X168.5000 Y138.6210 E2.8968
G1 X168.5000 Y141.3790 E3.0206
G1 X166.3790 Y143.5000 E3.1553
G1 X113.6210 Y143.5000 E5.5242
G1 X113.3730 Y144.1000 F2000 ; custom feedrate
G92 E0.0000
G1 X110.9000 Y141.6270 E0.1570 F960 ; custom feedrate
G1 X110.9000 Y138.3730 E0.3031
G1 X113.3730 Y135.9000 E0.4602
G1 X166.6270 Y135.9000 E2.8514
G1 X169.1000 Y138.3730 E3.0084
G1 X169.1000 Y141.6270 E3.1545
G1 X166.6270 Y144.1000 E3.3115
G1 X113.3730 Y144.1000 E5.7027
G1 X113.1240 Y144.7000 F2000 ; custom feedrate
G92 E0.0000
G1 X110.3000 Y141.8760 E0.1793 F720 ; custom feedrate
G1 X110.3000 Y138.1240 E0.3478
G1 X113.1240 Y135.3000 E0.5271
G1 X166.8760 Y135.3000 E2.9406
G1 X169.7000 Y138.1240 E3.1200
G1 X169.7000 Y141.8760 E3.2884
G1 X166.8760 Y144.7000 E3.4678
G1 X113.1240 Y144.7000 E5.8813
G1 X114.2900 Y143.1400 F2000 ; custom feedrate
G92 E0.0000
G1 X111.8600 Y140.7100 E0.1543 F960 ; custom feedrate
G1 X111.8600 Y139.8610 E0.1924
G1 X115.1390 Y143.1400 E0.4006
G1 X115.9870 Y143.1400 E0.4387
G1 X111.8600 Y139.0130 E0.7008
G1 X111.8600 Y138.7700 E0.7117
G1 X112.1630 Y138.4670 E0.7309
G1 X116.8360 Y143.1400 E1.0276
G1 X117.6840 Y143.1400 E1.0657
G1 X112.5870 Y138.0430 E1.3894
G1 X113.0120 Y137.6190 E1.4163
G1 X116.6600 Y141.2670 E1.6480
G1 X116.6600 Y140.4190 E1.6861
G1 X113.4360 Y137.1950 E1.8908
G1 X113.7700 Y136.8600 E1.9121
G1 X113.9500 Y136.8600 E1.9201
G1 X116.6600 Y139.5700 E2.0922
G1 X116.6600 Y138.7220 E2.1303
G1 X114.7980 Y136.8600 E2.2485
G1 X115.6470 Y136.8600 E2.2866
G1 X117.4470 Y138.6600 E2.4009
G1 X118.2950 Y138.6600 E2.4390
G1 X116.4950 Y136.8600 E2.5533
G1 X117.3440 Y136.8600 E2.5914
G1 X123.6240 Y143.1400 E2.9902
G1 X124.4720 Y143.1400 E3.0283
G1 X118.1920 Y136.8600 E3.4271
G1 X119.0410 Y136.8600 E3.4652
G1 X125.3210 Y143.1400 E3.8640
G1 X126.1690 Y143.1400 E3.9021
G1 X119.8890 Y136.8600 E4.3008
G1 X120.7380 Y136.8600 E4.3389
G1 X127.0180 Y143.1400 E4.7377
G1 X127.8670 Y143.1400 E4.7758
G1 X121.5870 Y136.8600 E5.1746
G1 X122.4350 Y136.8600 E5.2127
G1 X128.7150 Y143.1400 E5.6115
G1 X129.5640 Y143.1400 E5.6496
G1 X123.2840 Y136.8600 E6.0484
G1 X124.1320 Y136.8600 E6.0865
G1 X130.4120 Y143.1400 E6.4852
G1 X131.2610 Y143.1400 E6.5233
G1 X124.9810 Y136.8600 E6.9221
G1 X125.8290 Y136.8600 E6.9602
G1 X132.1090 Y143.1400 E7.3590
G1 X132.9580 Y143.1400 E7.3971
G1 X126.6780 Y136.8600 E7.7959
G1 X127.5260 Y136.8600 E7.8340
G1 X133.8060 Y143.1400 E8.2327
G1 X134.6550 Y143.1400 E8.2708
G1 X128.3750 Y136.8600 E8.6696
G1 X129.2230 Y136.8600 E8.7077
G1 X135.5030 Y143.1400 E9.1065
G1 X136.3520 Y143.1400 E9.1446
G1 X130.0720 Y136.8600 E9.5434
G1 X130.9200 Y136.8600 E9.5815
G1 X137.2000 Y143.1400 E9.9803
G1 X138.0490 Y143.1400 E10.0184
G1 X131.7690 Y136.8600 E10.4171
G1 X132.6170 Y136.8600 E10.4552
G1 X138.8970 Y143.1400 E10.8540
G1 X139.7460 Y143.1400 E10.8921
G1 X133.4660 Y136.8600 E11.2909
G1 X134.3140 Y136.8600 E11.3290
G1 X140.5940 Y143.1400 E11.7278
G1 X141.4430 Y143.1400 E11.7659
G1 X135.1630 Y136.8600 E12.1647
G1 X136.0110 Y136.8600 E12.2028
G1 X142.2910 Y143.1400 E12.6015
G1 X143.1400 Y143.1400 E12.6396
G1 X136.8600 Y136.8600 E13.0384
G1 X137.7090 Y136.8600 E13.0765
G1 X143.9890 Y143.1400 E13.4753
G1 X144.8370 Y143.1400 E13.5134
G1 X138.5570 Y136.8600 E13.9122
G1 X139.4060 Y136.8600 E13.9503
G1 X145.6860 Y143.1400 E14.3491
G1 X146.5340 Y143.1400 E14.3872
G1 X140.2540 Y136.8600 E14.7859
G1 X141.1030 Y136.8600 E14.8240
G1 X147.3830 Y143.1400 E15.2228
G1 X148.2310 Y143.1400 E15.2609
G1 X141.9510 Y136.8600 E15.6597
G1 X142.8000 Y136.8600 E15.6978
G1 X149.0800 Y143.1400 E16.0966
G1 X149.9280 Y143.1400 E16.1347
G1 X143.6480 Y136.8600 E16.5335
G1 X144.4970 Y136.8600 E16.5716
G1 X150.7770 Y143.1400 E16.9703
G1 X151.6250 Y143.1400 E17.0084
G1 X145.3450 Y136.8600 E17.4072
G1 X146.1940 Y136.8600 E17.4453
G1 X152.4740 Y143.1400 E17.8441
G1 X153.3220 Y143.1400 E17.8822
G1 X147.0420 Y136.8600 E18.2810
G1 X147.8910 Y136.8600 E18.3191
G1 X154.1710 Y143.1400 E18.7178
G1 X155.0190 Y143.1400 E18.7559
G1 X148.7390 Y136.8600 E19.1547
G1 X149.5880 Y136.8600 E19.1928
G1 X155.8680 Y143.1400 E19.5916
G1 X156.7160 Y143.1400 E19.6297
G1 X150.4360 Y136.8600 E20.0285
G1 X151.2850 Y136.8600 E20.0666
G1 X157.5650 Y143.1400 E20.4654
G1 X158.4140 Y143.1400 E20.5035
G1 X152.1340 Y136.8600 E20.9022
G1 X152.9820 Y136.8600 E20.9403
G1 X159.2620 Y143.1400 E21.3391
G1 X160.1110 Y143.1400 E21.3772
G1 X153.8310 Y136.8600 E21.7760
G1 X154.6790 Y136.8600 E21.8141
G1 X160.9590 Y143.1400 E22.2129
G1 X161.8080 Y143.1400 E22.2510
G1 X160.0080 Y141.3400 E22.3653
G1 X159.6380 Y141.3400 E22.3819
G1 X159.6380 Y140.9710 E22.3985
G1 X155.5280 Y136.8600 E22.6595
G1 X156.3760 Y136.8600 E22.6976
G1 X159.6380 Y140.1220 E22.9047
G1 X159.6380 Y139.2740 E22.9428
G1 X157.2250 Y136.8600 E23.0961
G1 X158.0730 Y136.8600 E23.1342
G1 X159.8730 Y138.6600 E23.2485
G1 X160.7220 Y138.6600 E23.2866
G1 X158.9220 Y136.8600 E23.4009
G1 X159.7700 Y136.8600 E23.4390
G1 X161.5700 Y138.6600 E23.5533
G1 X162.4190 Y138.6600 E23.5914
G1 X160.6190 Y136.8600 E23.7057
G1 X161.4670 Y136.8600 E23.7438
G1 X163.2670 Y138.6600 E23.8581
G1 X164.1160 Y138.6600 E23.8962
G1 X162.3160 Y136.8600 E24.0105
G1 X163.1640 Y136.8600 E24.0486
G1 X164.9640 Y138.6600 E24.1629
G1 X165.8130 Y138.6600 E24.2010
G1 X164.0130 Y136.8600 E24.3153
G1 X164.8610 Y136.8600 E24.3534
G1 X168.1400 Y140.1390 E24.5616
G1 X168.1400 Y139.2900 E24.5997
G1 X165.7100 Y136.8600 E24.7540
G1 X166.3400 Y139.1870 F2000 ; custom feedrate
G92 E0.0000
G1 X168.1400 Y140.9870 E0.1143 F960 ; custom feedrate
G1 X168.1400 Y141.2300 E0.1252
G1 X167.8370 Y141.5330 E0.1444
G1 X166.3400 Y140.0360 E0.2395
G1 X166.3400 Y140.8840 E0.2776
G1 X167.4130 Y141.9570 E0.3457
G1 X166.9880 Y142.3810 E0.3726
G1 X165.9470 Y141.3400 E0.4388
G1 X165.0990 Y141.3400 E0.4769
G1 X166.5640 Y142.8050 E0.5699
G1 X166.2300 Y143.1400 E0.5912
G1 X166.0500 Y143.1400 E0.5992
G1 X164.2500 Y141.3400 E0.7135
G1 X163.4020 Y141.3400 E0.7516
G1 X165.2020 Y143.1400 E0.8659
G1 X164.3530 Y143.1400 E0.9040
G1 X162.5530 Y141.3400 E1.0183
G1 X161.7050 Y141.3400 E1.0564
G1 X163.5050 Y143.1400 E1.1707
G1 X162.6560 Y143.1400 E1.2088
G1 X160.8560 Y141.3400 E1.3231
G1 X118.3620 Y138.7260 F2000 ; custom feedrate
G92 E0.0000
G1 X122.7750 Y143.1400 E0.2803 F960 ; custom feedrate
G1 X121.9270 Y143.1400 E0.3184
G1 X118.3620 Y139.5750 E0.5447
G1 X118.3620 Y140.4230 E0.5828
G1 X121.0780 Y143.1400 E0.7553
G1 X120.2300 Y143.1400 E0.7934
G1 X118.3620 Y141.2720 E0.9121
G1 X118.3620 Y141.3400 E0.9151
G1 X117.5810 Y141.3400 E0.9502
G1 X119.3810 Y143.1400 E1.0645
G1 X118.5330 Y143.1400 E1.1026
G1 X116.7330 Y141.3400 E1.2169
G92 E0.0000
G1 E-2 F2400 ; custom retraction
;layer 6, Z = 1.200
;fan6;
G1 Z1.200 F1200
G1 X116.9000 Y141.1000 F2000 ; custom feedrate
G1 E0 F2400 ; custom un-retraction/prime
G92 E0.0000
G1 X116.9000 Y138.9000 E0.0988 F960 ; custom feedrate
G1 X118.1220 Y138.9000 E0.1536
G1 X118.1220 Y141.1000 E0.2524
G1 X116.9000 Y141.1000 E0.3073
G1 X116.3000 Y141.7000 F2000 ; custom feedrate
G92 E0.0000
G1 X116.3000 Y138.3000 E0.1527 F960 ; custom feedrate
G1 X118.7220 Y138.3000 E0.2614
G1 X118.7220 Y141.7000 E0.4141
G1 X116.3000 Y141.7000 E0.5228
G1 X115.7000 Y142.3000 F2000 ; custom feedrate
G92 E0.0000
G1 X115.7000 Y137.7000 E0.2065 F720 ; custom feedrate
G1 X119.3220 Y137.7000 E0.3692
G1 X119.3220 Y142.3000 E0.5757
G1 X115.7000 Y142.3000 E0.7383
G92 E0.0000
G1 E-2 F2400 ; custom retraction
;zhop1
G1 X112.1840 Y140.6840 F2000 ; custom feedrate
G1 Z1.200 F1200
G1 E0 F2400 ; custom un-retraction/prime
G92 E0.0000
G1 X110.8160 Y140.6840 E0.0614 F720 ; custom feedrate
G1 X110.8160 Y139.3160 E0.1229
G1 X112.1840 Y139.3160 E0.1843
G1 X112.1840 Y140.6840 E0.2458
G1 X111.6740 Y140.3240 F2000 ; custom feedrate
G92 E0.0000
G1 X111.8240 Y140.1740 E0.0095 F1200 ; custom feedrate
G1 X111.8240 Y139.6760 E0.0319
G1 X111.4740 Y139.6760 E0.0476
G1 X111.1760 Y139.9740 E0.0666
G92 E0.0000
G1 E-2 F2400 ; custom retraction
;zhop1
G1 X159.8780 Y138.9000 F2000 ; custom feedrate
G1 Z1.200 F1200
G1 E0 F2400 ; custom un-retraction/prime
G92 E0.0000
G1 X166.1000 Y138.9000 E0.2794 F960 ; custom feedrate
G1 X166.1000 Y141.1000 E0.3781
G1 X159.8780 Y141.1000 E0.6575
G1 X159.8780 Y138.9000 E0.7563
G1 X159.2780 Y138.3000 F2000 ; custom feedrate
G92 E0.0000
G1 X166.7000 Y138.3000 E0.3332 F960 ; custom feedrate
G1 X166.7000 Y141.7000 E0.4859
G1 X159.2780 Y141.7000 E0.8192
G1 X159.2780 Y138.3000 E0.9718
G1 X158.6780 Y137.7000 F2000 ; custom feedrate
G92 E0.0000
G1 X167.3000 Y137.7000 E0.3871 F720 ; custom feedrate
G1 X167.3000 Y142.3000 E0.5937
G1 X158.6780 Y142.3000 E0.9808
G1 X158.6780 Y137.7000 E1.1873
G92 E0.0000
G1 E-2 F2400 ; custom retraction
;layer 7, Z = 1.400
;fan7;
G1 Z1.400 F1200
G1 X159.6650 Y138.7000 F2000 ; custom feedrate
G1 E0 F2400 ; custom un-retraction/prime
G92 E0.0000
G1 X166.3000 Y138.7000 E0.2979 F960 ; custom feedrate
G1 X166.3000 Y141.3000 E0.4146
G1 X159.6650 Y141.3000 E0.7125
G1 X159.6650 Y138.7000 E0.8293
G1 X159.0650 Y138.1000 F2000 ; custom feedrate
G92 E0.0000
G1 X166.9000 Y138.1000 E0.3518 F960 ; custom feedrate
G1 X166.9000 Y141.9000 E0.5224
G1 X159.0650 Y141.9000 E0.8742
G1 X159.0650 Y138.1000 E1.0448
G1 X158.4650 Y137.5000 F2000 ; custom feedrate
G92 E0.0000
G1 X167.5000 Y137.5000 E0.4057 F720 ; custom feedrate
G1 X167.5000 Y142.5000 E0.6302
G1 X158.4650 Y142.5000 E1.0358
G1 X158.4650 Y137.5000 E1.2603
G1 X160.3480 Y139.1350 F2000 ; custom feedrate
G92 E0.0000
G1 X162.0780 Y140.8650 E0.1373 F1200 ; custom feedrate
G1 X165.8650 Y140.8650 E0.3499
G1 X165.8650 Y139.3480 E0.4350
G1 X165.6520 Y139.1350 E0.4519
G92 E0.0000
G1 E-2 F2400 ; custom retraction
;zhop1
G1 X118.3340 Y138.7000 F2000 ; custom feedrate
G1 Z1.400 F1200
G1 E0 F2400 ; custom un-retraction/prime
G92 E0.0000
G1 X118.3340 Y141.3000 E0.1167 F960 ; custom feedrate
G1 X116.7000 Y141.3000 E0.1901
G1 X116.7000 Y138.7000 E0.3069
G1 X118.3340 Y138.7000 E0.3803
G1 X118.9340 Y138.1000 F2000 ; custom feedrate
G92 E0.0000
G1 X118.9340 Y141.9000 E0.1706 F960 ; custom feedrate
G1 X116.1000 Y141.9000 E0.2979
G1 X116.1000 Y138.1000 E0.4685
G1 X118.9340 Y138.1000 E0.5958
G1 X119.5350 Y137.5000 F2000 ; custom feedrate
G92 E0.0000
G1 X119.5350 Y142.5000 E0.2245 F720 ; custom feedrate
G1 X115.5000 Y142.5000 E0.4057
G1 X115.5000 Y137.5000 E0.6302
G1 X119.5350 Y137.5000 E0.8113
G92 E0.0000
G1 E-2 F2400 ; custom retraction
;zhop1
G1 X115.5000 Y138.5100 F2000 ; custom feedrate
G1 X112.1520 Y139.3480
G1 Z1.400 F1200
G1 E0 F2400 ; custom un-retraction/prime
G92 E0.0000
G1 X112.1520 Y140.6520 E0.0586 F720 ; custom feedrate
G1 X110.8480 Y140.6520 E0.1172
G1 X110.8480 Y139.3480 E0.1758
G1 X112.1520 Y139.3480 E0.2344
G1 X111.7060 Y139.7080 F2000 ; custom feedrate
G92 E0.0000
G1 X111.7920 Y139.7940 E0.0055 F1200 ; custom feedrate
G1 X111.7920 Y140.2920 E0.0279
G1 X111.4430 Y140.2920 E0.0436
G1 X111.2080 Y140.0570 E0.0585
G92 E0.0000
G1 E-2 F2400 ; custom retraction
;layer 8, Z = 1.600
;fan8;
G1 Z1.600 F1200
G1 X110.8790 Y140.6210 F2000 ; custom feedrate
G1 E0 F2400 ; custom un-retraction/prime
G92 E0.0000
G1 X110.8790 Y139.3790 E0.0557 F720 ; custom feedrate
G1 X112.1210 Y139.3790 E0.1115
G1 X112.1210 Y140.6210 E0.1672
G1 X110.8790 Y140.6210 E0.2230
G1 X111.2390 Y139.9110 F2000 ; custom feedrate
G92 E0.0000
G1 X111.4110 Y139.7390 E0.0109 F1200 ; custom feedrate
G1 X111.7610 Y139.7390 E0.0266
G1 X111.7610 Y140.2380 E0.0490
G1 X111.7380 Y140.2610 E0.0505
G92 E0.0000
G1 E-2 F2400 ; custom retraction
;zhop1
G1 X112.1210 Y140.3600 F2000 ; custom feedrate
G1 X112.1210 Y140.6210
G1 X115.3000 Y141.1880
G1 X116.5000 Y141.5000
G1 Z1.600 F1200
G1 E0 F2400 ; custom un-retraction/prime
G92 E0.0000
G1 X116.5000 Y138.5000 E0.1347 F960 ; custom feedrate
G1 X118.5160 Y138.5000 E0.2252
G1 X118.5160 Y141.5000 E0.3599
G1 X116.5000 Y141.5000 E0.4505
G1 X115.9000 Y142.1000 F2000 ; custom feedrate
G92 E0.0000
G1 X115.9000 Y137.9000 E0.1886 F960 ; custom feedrate
G1 X119.1160 Y137.9000 E0.3330
G1 X119.1160 Y142.1000 E0.5216
G1 X115.9000 Y142.1000 E0.6660
G1 X115.3000 Y142.7000 F2000 ; custom feedrate
G92 E0.0000
G1 X115.3000 Y137.3000 E0.2425 F720 ; custom feedrate
G1 X119.7160 Y137.3000 E0.4408
G1 X119.7160 Y142.7000 E0.6832
G1 X115.3000 Y142.7000 E0.8815
G92 E0.0000
G1 E-2 F2400 ; custom retraction
;zhop1
G1 X119.7160 Y142.5800 F2000 ; custom feedrate
G1 X158.2840 Y142.7000
G1 X158.2840 Y141.5330
G1 X159.4840 Y141.5000
G1 Z1.600 F1200
G1 E0 F2400 ; custom un-retraction/prime
G92 E0.0000
G1 X159.4840 Y138.5000 E0.1347 F960 ; custom feedrate
G1 X166.5000 Y138.5000 E0.4497
G1 X166.5000 Y141.5000 E0.5845
G1 X159.4840 Y141.5000 E0.8995
G1 X158.8840 Y142.1000 F2000 ; custom feedrate
G92 E0.0000
G1 X158.8840 Y137.9000 E0.1886 F960 ; custom feedrate
G1 X167.1000 Y137.9000 E0.5575
G1 X167.1000 Y142.1000 E0.7461
G1 X158.8840 Y142.1000 E1.1150
G1 X158.2840 Y142.7000 F2000 ; custom feedrate
G92 E0.0000
G1 X158.2840 Y137.3000 E0.2425 F720 ; custom feedrate
G1 X167.7000 Y137.3000 E0.6653
G1 X167.7000 Y142.7000 E0.9077
G1 X158.2840 Y142.7000 E1.3305
G1 X160.1480 Y141.0650 F2000 ; custom feedrate
G92 E0.0000
G1 X162.2780 Y138.9350 E0.1691 F1200 ; custom feedrate
G1 X166.0650 Y138.9350 E0.3816
G1 X166.0650 Y140.4520 E0.4667
G1 X165.4520 Y141.0650 E0.5154
G92 E0.0000
G1 E-2 F2400 ; custom retraction
;layer 9, Z = 1.800
;fan9;
G1 Z1.800 F1200
G1 X166.5000 Y141.5000 F2000 ; custom feedrate
G1 E0 F2400 ; custom un-retraction/prime
G92 E0.0000
G1 X159.4660 Y141.5000 E0.3158 F960 ; custom feedrate
G1 X159.4660 Y138.5000 E0.4505
G1 X166.5000 Y138.5000 E0.7663
G1 X166.5000 Y141.5000 E0.9010
G1 X167.1000 Y142.1000 F2000 ; custom feedrate
G92 E0.0000
G1 X158.8660 Y142.1000 E0.3697 F960 ; custom feedrate
G1 X158.8660 Y137.9000 E0.5583
G1 X167.1000 Y137.9000 E0.9280
G1 X167.1000 Y142.1000 E1.1166
G1 X167.7000 Y142.7000 F2000 ; custom feedrate
G92 E0.0000
G1 X158.2660 Y142.7000 E0.4236 F720 ; custom feedrate
G1 X158.2660 Y137.3000 E0.6660
G1 X167.7000 Y137.3000 E1.0896
G1 X167.7000 Y142.7000 E1.3321
G1 X165.4520 Y138.9350 F2000 ; custom feedrate
G92 E0.0000
G1 X166.0650 Y139.5480 E0.0487 F1200 ; custom feedrate
G1 X166.0650 Y141.0650 E0.1338
G1 X162.2780 Y141.0650 E0.3464
G1 X160.1480 Y138.9350 E0.5154
G92 E0.0000
G1 E-2 F2400 ; custom retraction
;zhop1
G1 X118.5340 Y138.5000 F2000 ; custom feedrate
G1 Z1.800 F1200
G1 E0 F2400 ; custom un-retraction/prime
G92 E0.0000
G1 X118.5340 Y141.5000 E0.1347 F960 ; custom feedrate
G1 X116.5000 Y141.5000 E0.2260
G1 X116.5000 Y138.5000 E0.3607
G1 X118.5340 Y138.5000 E0.4520
G1 X119.1340 Y137.9000 F2000 ; custom feedrate
G92 E0.0000
G1 X119.1340 Y142.1000 E0.1886 F960 ; custom feedrate
G1 X115.9000 Y142.1000 E0.3338
G1 X115.9000 Y137.9000 E0.5224
G1 X119.1340 Y137.9000 E0.6675
G1 X119.7340 Y137.3000 F2000 ; custom feedrate
G92 E0.0000
G1 X119.7340 Y142.7000 E0.2425 F720 ; custom feedrate
G1 X115.3000 Y142.7000 E0.4415
G1 X115.3000 Y137.3000 E0.6840
G1 X119.7340 Y137.3000 E0.8831
G92 E0.0000
G1 E-2 F2400 ; custom retraction
;zhop1
G1 X115.3000 Y138.5240 F2000 ; custom feedrate
G1 X112.0890 Y139.4110
G1 Z1.800 F1200
G1 E0 F2400 ; custom un-retraction/prime
G92 E0.0000
G1 X112.0890 Y140.5890 E0.0529 F720 ; custom feedrate
G1 X110.9110 Y140.5890 E0.1058
G1 X110.9110 Y139.4110 E0.1587
G1 X112.0890 Y139.4110 E0.2116
G1 X111.2710 Y140.1210 F2000 ; custom feedrate
G92 E0.0000
G1 X111.3790 Y140.2290 E0.0069 F1200 ; custom feedrate
G92 E0.0000
G1 E-2 F2400 ; custom retraction
;layer 10, Z = 2.000
;fan10;
G1 Z2.000 F1200
G1 X110.9430 Y140.5570 F2000 ; custom feedrate
G1 E0 F2400 ; custom un-retraction/prime
G92 E0.0000
G1 X110.9430 Y139.4430 E0.0501 F720 ; custom feedrate
G1 X112.0570 Y139.4430 E0.1001
G1 X112.0570 Y140.5570 E0.1502
G1 X110.9430 Y140.5570 E0.2002
G1 X111.3030 Y139.8480 F2000 ; custom feedrate
G92 E0.0000
G1 X111.3480 Y139.8030 E0.0029 F1200 ; custom feedrate
G92 E0.0000
G1 E-2 F2400 ; custom retraction
;zhop1
G1 X112.0570 Y139.6230 F2000 ; custom feedrate
G1 X112.0570 Y139.4430
G1 X115.3000 Y138.8030
G1 X116.5000 Y138.5000
G1 Z2.000 F1200
G1 E0 F2400 ; custom un-retraction/prime
G92 E0.0000
G1 X118.5550 Y138.5000 E0.0923 F960 ; custom feedrate
G1 X118.5550 Y141.5000 E0.2270
G1 X116.5000 Y141.5000 E0.3192
G1 X116.5000 Y138.5000 E0.4539
G1 X115.9000 Y137.9000 F2000 ; custom feedrate
G92 E0.0000
G1 X119.1550 Y137.9000 E0.1461 F960 ; custom feedrate
G1 X119.1550 Y142.1000 E0.3347
G1 X115.9000 Y142.1000 E0.4809
G1 X115.9000 Y137.9000 E0.6695
G1 X115.3000 Y137.3000 F2000 ; custom feedrate
G92 E0.0000
G1 X119.7550 Y137.3000 E0.2000 F720 ; custom feedrate
G1 X119.7550 Y142.7000 E0.4425
G1 X115.3000 Y142.7000 E0.6425
G1 X115.3000 Y137.3000 E0.8850
G92 E0.0000
G1 E-2 F2400 ; custom retraction
;zhop1
G1 X119.7550 Y137.4210 F2000 ; custom feedrate
G1 X158.2450 Y137.3000
G1 X158.2450 Y138.4670
G1 X159.4450 Y138.5000
G1 Z2.000 F1200
G1 E0 F2400 ; custom un-retraction/prime
G92 E0.0000
G1 X166.5000 Y138.5000 E0.3168 F960 ; custom feedrate
G1 X166.5000 Y141.5000 E0.4515
G1 X159.4450 Y141.5000 E0.7683
G1 X159.4450 Y138.5000 E0.9030
G1 X158.8450 Y137.9000 F2000 ; custom feedrate
G92 E0.0000
G1 X167.1000 Y137.9000 E0.3707 F960 ; custom feedrate
G1 X167.1000 Y142.1000 E0.5592
G1 X158.8450 Y142.1000 E0.9299
G1 X158.8450 Y137.9000 E1.1185
G1 X158.2450 Y137.3000 F2000 ; custom feedrate
G92 E0.0000
G1 X167.7000 Y137.3000 E0.4245 F720 ; custom feedrate
G1 X167.7000 Y142.7000 E0.6670
G1 X158.2450 Y142.7000 E1.0915
G1 X158.2450 Y137.3000 E1.3340
G1 X160.1480 Y141.0650 F2000 ; custom feedrate
G92 E0.0000
G1 X162.2780 Y138.9350 E0.1691 F1200 ; custom feedrate
G1 X166.0650 Y138.9350 E0.3816
G1 X166.0650 Y140.4520 E0.4667
G1 X165.4520 Y141.0650 E0.5154
G92 E0.0000
G1 E-2 F2400 ; custom retraction
;layer 11, Z = 2.200
;fan11;
G1 Z2.200 F1200
G1 X166.5000 Y141.5000 F2000 ; custom feedrate
G1 E0 F2400 ; custom un-retraction/prime
G92 E0.0000
G1 X159.4200 Y141.5000 E0.3179 F960 ; custom feedrate
G1 X159.4200 Y138.5000 E0.4526
G1 X166.5000 Y138.5000 E0.7705
G1 X166.5000 Y141.5000 E0.9052
G1 X167.1000 Y142.1000 F2000 ; custom feedrate
G92 E0.0000
G1 X158.8200 Y142.1000 E0.3718 F960 ; custom feedrate
G1 X158.8200 Y137.9000 E0.5604
G1 X167.1000 Y137.9000 E0.9322
G1 X167.1000 Y142.1000 E1.1208
G1 X167.7000 Y142.7000 F2000 ; custom feedrate
G92 E0.0000
G1 X158.2200 Y142.7000 E0.4257 F720 ; custom feedrate
G1 X158.2200 Y137.3000 E0.6681
G1 X167.7000 Y137.3000 E1.0938
G1 X167.7000 Y142.7000 E1.3363
G1 X165.4520 Y138.9350 F2000 ; custom feedrate
G92 E0.0000
G1 X166.0650 Y139.5480 E0.0487 F1200 ; custom feedrate
G1 X166.0650 Y141.0650 E0.1338
G1 X162.2780 Y141.0650 E0.3464
G1 X160.1480 Y138.9350 E0.5154
G92 E0.0000
G1 E-2 F2400 ; custom retraction
;zhop1
G1 X118.5800 Y138.5000 F2000 ; custom feedrate
G1 Z2.200 F1200
G1 E0 F2400 ; custom un-retraction/prime
G92 E0.0000
G1 X118.5800 Y141.5000 E0.1347 F960 ; custom feedrate
G1 X116.5000 Y141.5000 E0.2281
G1 X116.5000 Y138.5000 E0.3628
G1 X118.5800 Y138.5000 E0.4562
G1 X119.1800 Y137.9000 F2000 ; custom feedrate
G92 E0.0000
G1 X119.1800 Y142.1000 E0.1886 F960 ; custom feedrate
G1 X115.9000 Y142.1000 E0.3359
G1 X115.9000 Y137.9000 E0.5245
G1 X119.1800 Y137.9000 E0.6717
G1 X119.7800 Y137.3000 F2000 ; custom feedrate
G92 E0.0000
G1 X119.7800 Y142.7000 E0.2425 F720 ; custom feedrate
G1 X115.3000 Y142.7000 E0.4436
G1 X115.3000 Y137.3000 E0.6861
G1 X119.7800 Y137.3000 E0.8873
G92 E0.0000
G1 E-2 F2400 ; custom retraction
;zhop1
G1 X115.3000 Y138.5560 F2000 ; custom feedrate
G1 X112.0260 Y139.4740
G1 Z2.200 F1200
G1 E0 F2400 ; custom un-retraction/prime
G92 E0.0000
G1 X112.0260 Y140.5260 E0.0472 F720 ; custom feedrate
G1 X110.9740 Y140.5260 E0.0944
G1 X110.9740 Y139.4740 E0.1416
G1 X112.0260 Y139.4740 E0.1889
G92 E0.0000
G1 E-2 F2400 ; custom retraction
;layer 12, Z = 2.400
;fan12;
G1 Z2.400 F1200
G1 X111.9940 Y139.5060 F2000 ; custom feedrate
G1 E0 F2400 ; custom un-retraction/prime
G92 E0.0000
G1 X111.9940 Y140.4940 E0.0444 F720 ; custom feedrate
G1 X111.0060 Y140.4940 E0.0887
G1 X111.0060 Y139.5060 E0.1331
G1 X111.9940 Y139.5060 E0.1775
G92 E0.0000
G1 E-2 F2400 ; custom retraction
;zhop1
G1 X116.5000 Y138.5000 F2000 ; custom feedrate
G1 Z2.400 F1200
G1 E0 F2400 ; custom un-retraction/prime
G92 E0.0000
G1 X118.6140 Y138.5000 E0.0949 F960 ; custom feedrate
G1 X118.6140 Y141.5000 E0.2296
G1 X116.5000 Y141.5000 E0.3245
G1 X116.5000 Y138.5000 E0.4592
G1 X115.9000 Y137.9000 F2000 ; custom feedrate
G92 E0.0000
G1 X119.2140 Y137.9000 E0.1488 F960 ; custom feedrate
G1 X119.2140 Y142.1000 E0.3374
G1 X115.9000 Y142.1000 E0.4861
G1 X115.9000 Y137.9000 E0.6747
G1 X115.3000 Y137.3000 F2000 ; custom feedrate
G92 E0.0000
G1 X119.8140 Y137.3000 E0.2027 F720 ; custom feedrate
G1 X119.8140 Y142.7000 E0.4451
G1 X115.3000 Y142.7000 E0.6478
G1 X115.3000 Y137.3000 E0.8903
G92 E0.0000
G1 E-2 F2400 ; custom retraction
;zhop1
G1 X119.8140 Y137.4230 F2000 ; custom feedrate
G1 X158.1860 Y137.3000
G1 X158.1860 Y138.4670
G1 X159.3860 Y138.5000
G1 Z2.400 F1200
G1 E0 F2400 ; custom un-retraction/prime
G92 E0.0000
G1 X166.5000 Y138.5000 E0.3194 F960 ; custom feedrate
G1 X166.5000 Y141.5000 E0.4541
G1 X159.3860 Y141.5000 E0.7735
G1 X159.3860 Y138.5000 E0.9082
G1 X158.7860 Y137.9000 F2000 ; custom feedrate
G92 E0.0000
G1 X167.1000 Y137.9000 E0.3733 F960 ; custom feedrate
G1 X167.1000 Y142.1000 E0.5619
G1 X158.7860 Y142.1000 E0.9352
G1 X158.7860 Y137.9000 E1.1237
G1 X158.1860 Y137.3000 F2000 ; custom feedrate
G92 E0.0000
G1 X167.7000 Y137.3000 E0.4272 F720 ; custom feedrate
G1 X167.7000 Y142.7000 E0.6696
G1 X158.1860 Y142.7000 E1.0968
G1 X158.1860 Y137.3000 E1.3393
G1 X160.1480 Y141.0650 F2000 ; custom feedrate
G92 E0.0000
G1 X162.2780 Y138.9350 E0.1691 F1200 ; custom feedrate
G1 X166.0650 Y138.9350 E0.3816
G1 X166.0650 Y140.4520 E0.4667
G1 X165.4520 Y141.0650 E0.5154
G92 E0.0000
G1 E-2 F2400 ; custom retraction
;layer 13, Z = 2.600
;fan13;
G1 Z2.600 F1200
G1 X166.5000 Y141.5000 F2000 ; custom feedrate
G1 E0 F2400 ; custom un-retraction/prime
G92 E0.0000
G1 X159.3500 Y141.5000 E0.3211 F960 ; custom feedrate
G1 X159.3500 Y138.5000 E0.4558
G1 X166.5000 Y138.5000 E0.7768
G1 X166.5000 Y141.5000 E0.9115
G1 X167.1000 Y142.1000 F2000 ; custom feedrate
G92 E0.0000
G1 X158.7500 Y142.1000 E0.3749 F960 ; custom feedrate
G1 X158.7500 Y137.9000 E0.5635
G1 X167.1000 Y137.9000 E0.9385
G1 X167.1000 Y142.1000 E1.1270
G1 X167.7000 Y142.7000 F2000 ; custom feedrate
G92 E0.0000
G1 X158.1500 Y142.7000 E0.4288 F720 ; custom feedrate
G1 X158.1500 Y137.3000 E0.6713
G1 X167.7000 Y137.3000 E1.1001
G1 X167.7000 Y142.7000 E1.3426
G1 X165.4520 Y138.9350 F2000 ; custom feedrate
G92 E0.0000
G1 X166.0650 Y139.5480 E0.0487 F1200 ; custom feedrate
G1 X166.0650 Y141.0650 E0.1338
G1 X162.2780 Y141.0650 E0.3464
G1 X160.1480 Y138.9350 E0.5154
G92 E0.0000
G1 E-2 F2400 ; custom retraction
;zhop1
G1 X118.6500 Y138.5000 F2000 ; custom feedrate
G1 Z2.600 F1200
G1 E0 F2400 ; custom un-retraction/prime
G92 E0.0000
G1 X118.6500 Y141.5000 E0.1347 F960 ; custom feedrate
G1 X116.5000 Y141.5000 E0.2313
G1 X116.5000 Y138.5000 E0.3660
G1 X118.6500 Y138.5000 E0.4625
G1 X119.2500 Y137.9000 F2000 ; custom feedrate
G92 E0.0000
G1 X119.2500 Y142.1000 E0.1886 F960 ; custom feedrate
G1 X115.9000 Y142.1000 E0.3390
G1 X115.9000 Y137.9000 E0.5276
G1 X119.2500 Y137.9000 E0.6780
G1 X119.8500 Y137.3000 F2000 ; custom feedrate
G92 E0.0000
G1 X119.8500 Y142.7000 E0.2425 F720 ; custom feedrate
G1 X115.3000 Y142.7000 E0.4468
G1 X115.3000 Y137.3000 E0.6892
G1 X119.8500 Y137.3000 E0.8936
G92 E0.0000
G1 E-2 F2400 ; custom retraction
;zhop1
G1 X115.3000 Y138.5910 F2000 ; custom feedrate
G1 X111.9620 Y139.5380
G1 Z2.600 F1200
G1 E0 F2400 ; custom un-retraction/prime
G92 E0.0000
G1 X111.9620 Y140.4620 E0.0415 F720 ; custom feedrate
G1 X111.0380 Y140.4620 E0.0831
G1 X111.0380 Y139.5380 E0.1246
G1 X111.9620 Y139.5380 E0.1661
G92 E0.0000
G1 E-2 F2400 ; custom retraction
;layer 14, Z = 2.800
;fan14;
G1 Z2.800 F1200
G1 X111.9310 Y139.5690 F2000 ; custom feedrate
G1 E0 F2400 ; custom un-retraction/prime
G92 E0.0000
G1 X111.9310 Y140.4310 E0.0387 F720 ; custom feedrate
G1 X111.0690 Y140.4310 E0.0774
G1 X111.0690 Y139.5690 E0.1160
G1 X111.9310 Y139.5690 E0.1547
G92 E0.0000
G1 E-2 F2400 ; custom retraction
;zhop1
G1 X116.5000 Y138.5000 F2000 ; custom feedrate
G1 Z2.800 F1200
G1 E0 F2400 ; custom un-retraction/prime
G92 E0.0000
G1 X118.6930 Y138.5000 E0.0985 F960 ; custom feedrate
G1 X118.6930 Y141.5000 E0.2332
G1 X116.5000 Y141.5000 E0.3317
G1 X116.5000 Y138.5000 E0.4664
G1 X115.9000 Y137.9000 F2000 ; custom feedrate
G92 E0.0000
G1 X119.2930 Y137.9000 E0.1524 F960 ; custom feedrate
G1 X119.2930 Y142.1000 E0.3409
G1 X115.9000 Y142.1000 E0.4933
G1 X115.9000 Y137.9000 E0.6819
G1 X115.3000 Y137.3000 F2000 ; custom feedrate
G92 E0.0000
G1 X119.8930 Y137.3000 E0.2062 F720 ; custom feedrate
G1 X119.8930 Y142.7000 E0.4487
G1 X115.3000 Y142.7000 E0.6550
G1 X115.3000 Y137.3000 E0.8974
G92 E0.0000
G1 E-2 F2400 ; custom retraction
;zhop1
G1 X119.8930 Y137.4250 F2000 ; custom feedrate
G1 X158.1070 Y137.3000
G1 X158.1070 Y138.4670
G1 X159.3070 Y138.5000
G1 Z2.800 F1200
G1 E0 F2400 ; custom un-retraction/prime
G92 E0.0000
G1 X166.5000 Y138.5000 E0.3230 F960 ; custom feedrate
G1 X166.5000 Y141.5000 E0.4577
G1 X159.3070 Y141.5000 E0.7807
G1 X159.3070 Y138.5000 E0.9154
G1 X158.7070 Y137.9000 F2000 ; custom feedrate
G92 E0.0000
G1 X167.1000 Y137.9000 E0.3769 F960 ; custom feedrate
G1 X167.1000 Y142.1000 E0.5655
G1 X158.7070 Y142.1000 E0.9423
G1 X158.7070 Y137.9000 E1.1309
G1 X158.1070 Y137.3000 F2000 ; custom feedrate
G92 E0.0000
G1 X167.7000 Y137.3000 E0.4308 F720 ; custom feedrate
G1 X167.7000 Y142.7000 E0.6732
G1 X158.1070 Y142.7000 E1.1040
G1 X158.1070 Y137.3000 E1.3464
G1 X160.1480 Y141.0650 F2000 ; custom feedrate
G92 E0.0000
G1 X162.2780 Y138.9350 E0.1691 F1200 ; custom feedrate
G1 X166.0650 Y138.9350 E0.3816
G1 X166.0650 Y140.4520 E0.4667
G1 X165.4520 Y141.0650 E0.5154
G92 E0.0000
G1 E-2 F2400 ; custom retraction
;layer 15, Z = 3.000
;fan15;
G1 Z3.000 F1200
G1 X166.5000 Y141.5000 F2000 ; custom feedrate
G1 E0 F2400 ; custom un-retraction/prime
G92 E0.0000
G1 X159.2570 Y141.5000 E0.3252 F960 ; custom feedrate
G1 X159.2570 Y138.5000 E0.4599
G1 X166.5000 Y138.5000 E0.7851
G1 X166.5000 Y141.5000 E0.9198
G1 X167.1000 Y142.1000 F2000 ; custom feedrate
G92 E0.0000
G1 X158.6570 Y142.1000 E0.3791 F960 ; custom feedrate
G1 X158.6570 Y137.9000 E0.5677
G1 X167.1000 Y137.9000 E0.9468
G1 X167.1000 Y142.1000 E1.1353
G1 X167.7000 Y142.7000 F2000 ; custom feedrate
G92 E0.0000
G1 X158.0570 Y142.7000 E0.4330 F720 ; custom feedrate
G1 X158.0570 Y137.3000 E0.6754
G1 X167.7000 Y137.3000 E1.1084
G1 X167.7000 Y142.7000 E1.3509
G1 X165.4520 Y138.9350 F2000 ; custom feedrate
G92 E0.0000
G1 X166.0650 Y139.5480 E0.0487 F1200 ; custom feedrate
G1 X166.0650 Y141.0650 E0.1338
G1 X162.2780 Y141.0650 E0.3464
G1 X160.1480 Y138.9350 E0.5154
G92 E0.0000
G1 E-2 F2400 ; custom retraction
;zhop1
G1 X118.7430 Y138.5000 F2000 ; custom feedrate
G1 Z3.000 F1200
G1 E0 F2400 ; custom un-retraction/prime
G92 E0.0000
G1 X118.7430 Y141.5000 E0.1347 F960 ; custom feedrate
G1 X116.5000 Y141.5000 E0.2354
G1 X116.5000 Y138.5000 E0.3701
G1 X118.7430 Y138.5000 E0.4708
G1 X119.3430 Y137.9000 F2000 ; custom feedrate
G92 E0.0000
G1 X119.3430 Y142.1000 E0.1886 F960 ; custom feedrate
G1 X115.9000 Y142.1000 E0.3432
G1 X115.9000 Y137.9000 E0.5317
G1 X119.3430 Y137.9000 E0.6863
G1 X119.9430 Y137.3000 F2000 ; custom feedrate
G92 E0.0000
G1 X119.9430 Y142.7000 E0.2425 F720 ; custom feedrate
G1 X115.3000 Y142.7000 E0.4509
G1 X115.3000 Y137.3000 E0.6934
G1 X119.9430 Y137.3000 E0.9018
G92 E0.0000
G1 E-2 F2400 ; custom retraction
;zhop1
G1 X111.8990 Y139.6010 F2000 ; custom feedrate
G1 Z3.000 F1200
G1 E0 F2400 ; custom un-retraction/prime
G92 E0.0000
G1 X111.8990 Y140.3990 E0.0358 F720 ; custom feedrate
G1 X111.1010 Y140.3990 E0.0717
G1 X111.1010 Y139.6010 E0.1075
G1 X111.8990 Y139.6010 E0.1433
G92 E0.0000
G1 E-2 F2400 ; custom retraction
;layer 16, Z = 3.200
;fan16;
G1 Z3.200 F1200
G1 X111.8670 Y139.6330 F2000 ; custom feedrate
G1 E0 F2400 ; custom un-retraction/prime
G92 E0.0000
G1 X111.8670 Y140.3670 E0.0330 F720 ; custom feedrate
G1 X111.1330 Y140.3670 E0.0660
G1 X111.1330 Y139.6330 E0.0990
G1 X111.8670 Y139.6330 E0.1320
G92 E0.0000
G1 E-2 F2400 ; custom retraction
;zhop1
G1 X116.5000 Y138.5000 F2000 ; custom feedrate
G1 Z3.200 F1200
G1 E0 F2400 ; custom un-retraction/prime
G92 E0.0000
G1 X118.7960 Y138.5000 E0.1031 F960 ; custom feedrate
G1 X118.7960 Y141.5000 E0.2378
G1 X116.5000 Y141.5000 E0.3409
G1 X116.5000 Y138.5000 E0.4756
G1 X115.9000 Y137.9000 F2000 ; custom feedrate
G92 E0.0000
G1 X119.3960 Y137.9000 E0.1570 F960 ; custom feedrate
G1 X119.3960 Y142.1000 E0.3455
G1 X115.9000 Y142.1000 E0.5025
G1 X115.9000 Y137.9000 E0.6911
G1 X115.3000 Y137.3000 F2000 ; custom feedrate
G92 E0.0000
G1 X119.9960 Y137.3000 E0.2108 F720 ; custom feedrate
G1 X119.9960 Y142.7000 E0.4533
G1 X115.3000 Y142.7000 E0.6641
G1 X115.3000 Y137.3000 E0.9066
G92 E0.0000
G1 E-2 F2400 ; custom retraction
;zhop1
G1 X119.9960 Y137.4280 F2000 ; custom feedrate
G1 X158.0040 Y137.3000
G1 X158.0040 Y138.4670
G1 X159.2040 Y138.5000
G1 Z3.200 F1200
G1 E0 F2400 ; custom un-retraction/prime
G92 E0.0000
G1 X166.5000 Y138.5000 E0.3276 F960 ; custom feedrate
G1 X166.5000 Y141.5000 E0.4623
G1 X159.2040 Y141.5000 E0.7899
G1 X159.2040 Y138.5000 E0.9246
G1 X158.6040 Y137.9000 F2000 ; custom feedrate
G92 E0.0000
G1 X167.1000 Y137.9000 E0.3815 F960 ; custom feedrate
G1 X167.1000 Y142.1000 E0.5701
G1 X158.6040 Y142.1000 E0.9515
G1 X158.6040 Y137.9000 E1.1401
G1 X158.0040 Y137.3000 F2000 ; custom feedrate
G92 E0.0000
G1 X167.7000 Y137.3000 E0.4353 F720 ; custom feedrate
G1 X167.7000 Y142.7000 E0.6778
G1 X158.0040 Y142.7000 E1.1132
G1 X158.0040 Y137.3000 E1.3556
G1 X160.1480 Y141.0650 F2000 ; custom feedrate
G92 E0.0000
G1 X162.2780 Y138.9350 E0.1691 F1200 ; custom feedrate
G1 X166.0650 Y138.9350 E0.3816
G1 X166.0650 Y140.4520 E0.4667
G1 X165.4520 Y141.0650 E0.5154
G92 E0.0000
G1 E-2 F2400 ; custom retraction
;layer 17, Z = 3.400
;fan17;
G1 Z3.400 F1200
G1 X166.5000 Y141.5000 F2000 ; custom feedrate
G1 E0 F2400 ; custom un-retraction/prime
G92 E0.0000
G1 X159.1430 Y141.5000 E0.3303 F960 ; custom feedrate
G1 X159.1430 Y138.5000 E0.4650
G1 X166.5000 Y138.5000 E0.7954
G1 X166.5000 Y141.5000 E0.9301
G1 X167.1000 Y142.1000 F2000 ; custom feedrate
G92 E0.0000
G1 X158.5430 Y142.1000 E0.3842 F960 ; custom feedrate
G1 X158.5430 Y137.9000 E0.5728
G1 X167.1000 Y137.9000 E0.9570
G1 X167.1000 Y142.1000 E1.1456
G1 X167.7000 Y142.7000 F2000 ; custom feedrate
G92 E0.0000
G1 X157.9430 Y142.7000 E0.4381 F720 ; custom feedrate
G1 X157.9430 Y137.3000 E0.6806
G1 X167.7000 Y137.3000 E1.1187
G1 X167.7000 Y142.7000 E1.3612
G1 X165.4520 Y138.9350 F2000 ; custom feedrate
G92 E0.0000
G1 X166.0650 Y139.5480 E0.0487 F1200 ; custom feedrate
G1 X166.0650 Y141.0650 E0.1338
G1 X162.2780 Y141.0650 E0.3464
G1 X160.1480 Y138.9350 E0.5154
G92 E0.0000
G1 E-2 F2400 ; custom retraction
;zhop1
G1 X118.8570 Y138.5000 F2000 ; custom feedrate
G1 Z3.400 F1200
G1 E0 F2400 ; custom un-retraction/prime
G92 E0.0000
G1 X118.8570 Y141.5000 E0.1347 F960 ; custom feedrate
G1 X116.5000 Y141.5000 E0.2405
G1 X116.5000 Y138.5000 E0.3752
G1 X118.8570 Y138.5000 E0.4811
G1 X119.4570 Y137.9000 F2000 ; custom feedrate
G92 E0.0000
G1 X119.4570 Y142.1000 E0.1886 F960 ; custom feedrate
G1 X115.9000 Y142.1000 E0.3483
G1 X115.9000 Y137.9000 E0.5369
G1 X119.4570 Y137.9000 E0.6966
G1 X120.0570 Y137.3000 F2000 ; custom feedrate
G92 E0.0000
G1 X120.0570 Y142.7000 E0.2425 F720 ; custom feedrate
G1 X115.3000 Y142.7000 E0.4561
G1 X115.3000 Y137.3000 E0.6985
G1 X120.0570 Y137.3000 E0.9121
G92 E0.0000
G1 E-2 F2400 ; custom retraction
;zhop1
G1 X115.3000 Y138.6680 F2000 ; custom feedrate
G1 X111.8360 Y139.6640
G1 Z3.400 F1200
G1 E0 F2400 ; custom un-retraction/prime
G92 E0.0000
G1 X111.8360 Y140.3360 E0.0301 F720 ; custom feedrate
G1 X111.1640 Y140.3360 E0.0603
G1 X111.1640 Y139.6640 E0.0904
G1 X111.8360 Y139.6640 E0.1206
G92 E0.0000
G1 E-2 F2400 ; custom retraction
;layer 18, Z = 3.600
;fan18;
G1 Z3.600 F1200
G1 X111.8040 Y139.6960 F2000 ; custom feedrate
G1 E0 F2400 ; custom un-retraction/prime
G92 E0.0000
G1 X111.8040 Y140.3040 E0.0273 F720 ; custom feedrate
G1 X111.1960 Y140.3040 E0.0546
G1 X111.1960 Y139.6960 E0.0819
G1 X111.8040 Y139.6960 E0.1092
G92 E0.0000
G1 E-2 F2400 ; custom retraction
;zhop1
G1 X116.5000 Y138.5000 F2000 ; custom feedrate
G1 Z3.600 F1200
G1 E0 F2400 ; custom un-retraction/prime
G92 E0.0000
G1 X118.9240 Y138.5000 E0.1088 F960 ; custom feedrate
G1 X118.9240 Y141.5000 E0.2435
G1 X116.5000 Y141.5000 E0.3524
G1 X116.5000 Y138.5000 E0.4871
G1 X115.9000 Y137.9000 F2000 ; custom feedrate
G92 E0.0000
G1 X119.5240 Y137.9000 E0.1627 F960 ; custom feedrate
G1 X119.5240 Y142.1000 E0.3513
G1 X115.9000 Y142.1000 E0.5140
G1 X115.9000 Y137.9000 E0.7026
G1 X115.3000 Y137.3000 F2000 ; custom feedrate
G92 E0.0000
G1 X120.1240 Y137.3000 E0.2166 F720 ; custom feedrate
G1 X120.1240 Y142.7000 E0.4591
G1 X115.3000 Y142.7000 E0.6756
G1 X115.3000 Y137.3000 E0.9181
G92 E0.0000
G1 E-2 F2400 ; custom retraction
;zhop1
G1 X120.1240 Y137.4320 F2000 ; custom feedrate
G1 X157.8760 Y137.3000
G1 X157.8760 Y138.4670
G1 X159.0760 Y138.5000
G1 Z3.600 F1200
G1 E0 F2400 ; custom un-retraction/prime
G92 E0.0000
G1 X166.5000 Y138.5000 E0.3333 F960 ; custom feedrate
G1 X166.5000 Y141.5000 E0.4680
G1 X159.0760 Y141.5000 E0.8014
G1 X159.0760 Y138.5000 E0.9361
G1 X158.4760 Y137.9000 F2000 ; custom feedrate
G92 E0.0000
G1 X167.1000 Y137.9000 E0.3872 F960 ; custom feedrate
G1 X167.1000 Y142.1000 E0.5758
G1 X158.4760 Y142.1000 E0.9630
G1 X158.4760 Y137.9000 E1.1516
G1 X157.8760 Y137.3000 F2000 ; custom feedrate
G92 E0.0000
G1 X167.7000 Y137.3000 E0.4411 F720 ; custom feedrate
G1 X167.7000 Y142.7000 E0.6836
G1 X157.8760 Y142.7000 E1.1247
G1 X157.8760 Y137.3000 E1.3671
G1 X160.1480 Y141.0650 F2000 ; custom feedrate
G92 E0.0000
G1 X162.2780 Y138.9350 E0.1691 F1200 ; custom feedrate
G1 X166.0650 Y138.9350 E0.3816
G1 X166.0650 Y140.4520 E0.4667
G1 X165.4520 Y141.0650 E0.5154
G92 E0.0000
G1 E-2 F2400 ; custom retraction
;layer 19, Z = 3.800
;fan19;
G1 Z3.800 F1200
G1 X166.5000 Y141.5000 F2000 ; custom feedrate
G1 E0 F2400 ; custom un-retraction/prime
G92 E0.0000
G1 X159.0050 Y141.5000 E0.3365 F960 ; custom feedrate
G1 X159.0050 Y138.5000 E0.4712
G1 X166.5000 Y138.5000 E0.8078
G1 X166.5000 Y141.5000 E0.9425
G1 X167.1000 Y142.1000 F2000 ; custom feedrate
G92 E0.0000
G1 X158.4050 Y142.1000 E0.3904 F960 ; custom feedrate
G1 X158.4050 Y137.9000 E0.5790
G1 X167.1000 Y137.9000 E0.9694
G1 X167.1000 Y142.1000 E1.1580
G1 X167.7000 Y142.7000 F2000 ; custom feedrate
G92 E0.0000
G1 X157.8050 Y142.7000 E0.4443 F720 ; custom feedrate
G1 X157.8050 Y137.3000 E0.6868
G1 X167.7000 Y137.3000 E1.1310
G1 X167.7000 Y142.7000 E1.3735
G1 X165.4520 Y138.9350 F2000 ; custom feedrate
G92 E0.0000
G1 X166.0650 Y139.5480 E0.0487 F1200 ; custom feedrate
G1 X166.0650 Y141.0650 E0.1338
G1 X162.2780 Y141.0650 E0.3464
G1 X160.1480 Y138.9350 E0.5154
G92 E0.0000
G1 E-2 F2400 ; custom retraction
;zhop1
G1 X118.9950 Y138.5000 F2000 ; custom feedrate
G1 Z3.800 F1200
G1 E0 F2400 ; custom un-retraction/prime
G92 E0.0000
G1 X118.9950 Y141.5000 E0.1347 F960 ; custom feedrate
G1 X116.5000 Y141.5000 E0.2467
G1 X116.5000 Y138.5000 E0.3814
G1 X118.9950 Y138.5000 E0.4934
G1 X119.5950 Y137.9000 F2000 ; custom feedrate
G92 E0.0000
G1 X119.5950 Y142.1000 E0.1886 F960 ; custom feedrate
G1 X115.9000 Y142.1000 E0.3545
G1 X115.9000 Y137.9000 E0.5431
G1 X119.5950 Y137.9000 E0.7090
G1 X120.1950 Y137.3000 F2000 ; custom feedrate
G92 E0.0000
G1 X120.1950 Y142.7000 E0.2425 F720 ; custom feedrate
G1 X115.3000 Y142.7000 E0.4622
G1 X115.3000 Y137.3000 E0.7047
G1 X120.1950 Y137.3000 E0.9245
G92 E0.0000
G1 E-2 F2400 ; custom retraction
;zhop1
G1 X111.7720 Y139.7280 F2000 ; custom feedrate
G1 Z3.800 F1200
G1 E0 F2400 ; custom un-retraction/prime
G92 E0.0000
G1 X111.7720 Y140.2720 E0.0245 F720 ; custom feedrate
G1 X111.2280 Y140.2720 E0.0489
G1 X111.2280 Y139.7280 E0.0734
G1 X111.7720 Y139.7280 E0.0978
G92 E0.0000
G1 E-2 F2400 ; custom retraction
;layer 20, Z = 4.000
;fan20;
G1 Z4.000 F1200
G1 X111.7410 Y139.7590 F2000 ; custom feedrate
G1 E0 F2400 ; custom un-retraction/prime
G92 E0.0000
G1 X111.7410 Y140.2410 E0.0216 F720 ; custom feedrate
G1 X111.2590 Y140.2410 E0.0432
G1 X111.2590 Y139.7590 E0.0648
G1 X111.7410 Y139.7590 E0.0865
G92 E0.0000
G1 E-2 F2400 ; custom retraction
;zhop1
G1 X116.5000 Y138.5000 F2000 ; custom feedrate
G1 Z4.000 F1200
G1 E0 F2400 ; custom un-retraction/prime
G92 E0.0000
G1 X119.0760 Y138.5000 E0.1156 F960 ; custom feedrate
G1 X119.0760 Y141.5000 E0.2503
G1 X116.5000 Y141.5000 E0.3660
G1 X116.5000 Y138.5000 E0.5007
G1 X115.9000 Y137.9000 F2000 ; custom feedrate
G92 E0.0000
G1 X119.6760 Y137.9000 E0.1695 F960 ; custom feedrate
G1 X119.6760 Y142.1000 E0.3581
G1 X115.9000 Y142.1000 E0.5276
G1 X115.9000 Y137.9000 E0.7162
G1 X115.3000 Y137.3000 F2000 ; custom feedrate
G92 E0.0000
G1 X120.2760 Y137.3000 E0.2234 F720 ; custom feedrate
G1 X120.2760 Y142.7000 E0.4659
G1 X115.3000 Y142.7000 E0.6893
G1 X115.3000 Y137.3000 E0.9317
G92 E0.0000
G1 E-2 F2400 ; custom retraction
;zhop1
G1 X120.2760 Y137.4370 F2000 ; custom feedrate
G1 X157.7240 Y137.3000
G1 X157.7240 Y138.4670
G1 X158.9240 Y138.5000
G1 Z4.000 F1200
G1 E0 F2400 ; custom un-retraction/prime
G92 E0.0000
G1 X166.5000 Y138.5000 E0.3401 F960 ; custom feedrate
G1 X166.5000 Y141.5000 E0.4749
G1 X158.9240 Y141.5000 E0.8150
G1 X158.9240 Y138.5000 E0.9497
G1 X158.3240 Y137.9000 F2000 ; custom feedrate
G92 E0.0000
G1 X167.1000 Y137.9000 E0.3940 F960 ; custom feedrate
G1 X167.1000 Y142.1000 E0.5826
G1 X158.3240 Y142.1000 E0.9766
G1 X158.3240 Y137.9000 E1.1652
G1 X157.7240 Y137.3000 F2000 ; custom feedrate
G92 E0.0000
G1 X167.7000 Y137.3000 E0.4479 F720 ; custom feedrate
G1 X167.7000 Y142.7000 E0.6904
G1 X157.7240 Y142.7000 E1.1383
G1 X157.7240 Y137.3000 E1.3808
G1 X160.1480 Y141.0650 F2000 ; custom feedrate
G92 E0.0000
G1 X162.2780 Y138.9350 E0.1691 F1200 ; custom feedrate
G1 X166.0650 Y138.9350 E0.3816
G1 X166.0650 Y140.4520 E0.4667
G1 X165.4520 Y141.0650 E0.5154
G92 E0.0000
G1 E-2 F2400 ; custom retraction
;layer 21, Z = 4.200
;fan21;
G1 Z4.200 F1200
G1 X166.5000 Y141.5000 F2000 ; custom feedrate
G1 E0 F2400 ; custom un-retraction/prime
G92 E0.0000
G1 X158.8390 Y141.5000 E0.3440 F960 ; custom feedrate
G1 X158.8390 Y138.5000 E0.4787
G1 X166.5000 Y138.5000 E0.8227
G1 X166.5000 Y141.5000 E0.9574
G1 X167.1000 Y142.1000 F2000 ; custom feedrate
G92 E0.0000
G1 X158.2390 Y142.1000 E0.3979 F960 ; custom feedrate
G1 X158.2390 Y137.9000 E0.5865
G1 X167.1000 Y137.9000 E0.9843
G1 X167.1000 Y142.1000 E1.1729
G1 X167.7000 Y142.7000 F2000 ; custom feedrate
G92 E0.0000
G1 X157.6390 Y142.7000 E0.4518 F720 ; custom feedrate
G1 X157.6390 Y137.3000 E0.6942
G1 X167.7000 Y137.3000 E1.1460
G1 X167.7000 Y142.7000 E1.3884
G1 X165.4520 Y138.9350 F2000 ; custom feedrate
G92 E0.0000
G1 X166.0650 Y139.5480 E0.0487 F1200 ; custom feedrate
G1 X166.0650 Y141.0650 E0.1338
G1 X162.2780 Y141.0650 E0.3464
G1 X160.1480 Y138.9350 E0.5154
G92 E0.0000
G1 E-2 F2400 ; custom retraction
;zhop1
G1 X119.1610 Y138.5000 F2000 ; custom feedrate
G1 Z4.200 F1200
G1 E0 F2400 ; custom un-retraction/prime
G92 E0.0000
G1 X119.1610 Y141.5000 E0.1347 F960 ; custom feedrate
G1 X116.5000 Y141.5000 E0.2542
G1 X116.5000 Y138.5000 E0.3889
G1 X119.1610 Y138.5000 E0.5084
G1 X119.7610 Y137.9000 F2000 ; custom feedrate
G92 E0.0000
G1 X119.7610 Y142.1000 E0.1886 F960 ; custom feedrate
G1 X115.9000 Y142.1000 E0.3620
G1 X115.9000 Y137.9000 E0.5505
G1 X119.7610 Y137.9000 E0.7239
G1 X120.3610 Y137.3000 F2000 ; custom feedrate
G92 E0.0000
G1 X120.3610 Y142.7000 E0.2425 F720 ; custom feedrate
G1 X115.3000 Y142.7000 E0.4697
G1 X115.3000 Y137.3000 E0.7122
G1 X120.3610 Y137.3000 E0.9394
G92 E0.0000
G1 E-2 F2400 ; custom retraction
;zhop1
G1 X111.7090 Y139.7910 F2000 ; custom feedrate
G1 Z4.200 F1200
G1 E0 F2400 ; custom un-retraction/prime
G92 E0.0000
G1 X111.7090 Y140.2090 E0.0188 F720 ; custom feedrate
G1 X111.2910 Y140.2090 E0.0375
G1 X111.2910 Y139.7910 E0.0563
G1 X111.7090 Y139.7910 E0.0751
G92 E0.0000
G1 E-2 F2400 ; custom retraction
;layer 22, Z = 4.400
;fan22;
G1 Z4.400 F1200
G1 X111.6770 Y139.8230 F2000 ; custom feedrate
G1 E0 F2400 ; custom un-retraction/prime
G92 E0.0000
G1 X111.6770 Y140.1770 E0.0159 F720 ; custom feedrate
G1 X111.3230 Y140.1770 E0.0319
G1 X111.3230 Y139.8230 E0.0478
G1 X111.6770 Y139.8230 E0.0637
G92 E0.0000
G1 E-2 F2400 ; custom retraction
;zhop1
G1 X116.5000 Y138.5000 F2000 ; custom feedrate
G1 Z4.400 F1200
G1 E0 F2400 ; custom un-retraction/prime
G92 E0.0000
G1 X119.2520 Y138.5000 E0.1236 F960 ; custom feedrate
G1 X119.2520 Y141.5000 E0.2583
G1 X116.5000 Y141.5000 E0.3819
G1 X116.5000 Y138.5000 E0.5166
G1 X115.9000 Y137.9000 F2000 ; custom feedrate
G92 E0.0000
G1 X119.8520 Y137.9000 E0.1775 F960 ; custom feedrate
G1 X119.8520 Y142.1000 E0.3660
G1 X115.9000 Y142.1000 E0.5435
G1 X115.9000 Y137.9000 E0.7321
G1 X115.3000 Y137.3000 F2000 ; custom feedrate
G92 E0.0000
G1 X120.4520 Y137.3000 E0.2313 F720 ; custom feedrate
G1 X120.4520 Y142.7000 E0.4738
G1 X115.3000 Y142.7000 E0.7052
G1 X115.3000 Y137.3000 E0.9476
G92 E0.0000
G1 E-2 F2400 ; custom retraction
;zhop1
G1 X120.4520 Y137.4420 F2000 ; custom feedrate
G1 X157.5480 Y137.3000
G1 X157.5480 Y138.4670
G1 X158.7480 Y138.5000
G1 Z4.400 F1200
G1 E0 F2400 ; custom un-retraction/prime
G92 E0.0000
G1 X166.5000 Y138.5000 E0.3481 F960 ; custom feedrate
G1 X166.5000 Y141.5000 E0.4828
G1 X158.7480 Y141.5000 E0.8309
G1 X158.7480 Y138.5000 E0.9656
G1 X158.1480 Y137.9000 F2000 ; custom feedrate
G92 E0.0000
G1 X167.1000 Y137.9000 E0.4020 F960 ; custom feedrate
G1 X167.1000 Y142.1000 E0.5906
G1 X158.1480 Y142.1000 E0.9925
G1 X158.1480 Y137.9000 E1.1811
G1 X157.5480 Y137.3000 F2000 ; custom feedrate
G92 E0.0000
G1 X167.7000 Y137.3000 E0.4558 F720 ; custom feedrate
G1 X167.7000 Y142.7000 E0.6983
G1 X157.5480 Y142.7000 E1.1542
G1 X157.5480 Y137.3000 E1.3966
G1 X160.1480 Y141.0650 F2000 ; custom feedrate
G92 E0.0000
G1 X162.2780 Y138.9350 E0.1691 F1200 ; custom feedrate
G1 X166.0650 Y138.9350 E0.3816
G1 X166.0650 Y140.4520 E0.4667
G1 X165.4520 Y141.0650 E0.5154
G92 E0.0000
G1 E-2 F2400 ; custom retraction
;layer 23, Z = 4.600
;fan23;
G1 Z4.600 F1200
G1 X166.5000 Y141.5000 F2000 ; custom feedrate
G1 E0 F2400 ; custom un-retraction/prime
G92 E0.0000
G1 X158.6460 Y141.5000 E0.3526 F960 ; custom feedrate
G1 X158.6460 Y138.5000 E0.4873
G1 X166.5000 Y138.5000 E0.8400
G1 X166.5000 Y141.5000 E0.9747
G1 X167.1000 Y142.1000 F2000 ; custom feedrate
G92 E0.0000
G1 X158.0460 Y142.1000 E0.4065 F960 ; custom feedrate
G1 X158.0460 Y137.9000 E0.5951
G1 X167.1000 Y137.9000 E1.0016
G1 X167.1000 Y142.1000 E1.1902
G1 X167.7000 Y142.7000 F2000 ; custom feedrate
G92 E0.0000
G1 X157.4460 Y142.7000 E0.4604 F720 ; custom feedrate
G1 X157.4460 Y137.3000 E0.7029
G1 X167.7000 Y137.3000 E1.1633
G1 X167.7000 Y142.7000 E1.4057
G1 X165.4520 Y138.9350 F2000 ; custom feedrate
G92 E0.0000
G1 X166.0650 Y139.5480 E0.0487 F1200 ; custom feedrate
G1 X166.0650 Y141.0650 E0.1338
G1 X162.2780 Y141.0650 E0.3464
G1 X160.1480 Y138.9350 E0.5154
G92 E0.0000
G1 E-2 F2400 ; custom retraction
;zhop1
G1 X119.3540 Y138.5000 F2000 ; custom feedrate
G1 Z4.600 F1200
G1 E0 F2400 ; custom un-retraction/prime
G92 E0.0000
G1 X119.3540 Y141.5000 E0.1347 F960 ; custom feedrate
G1 X116.5000 Y141.5000 E0.2628
G1 X116.5000 Y138.5000 E0.3975
G1 X119.3540 Y138.5000 E0.5257
G1 X119.9540 Y137.9000 F2000 ; custom feedrate
G92 E0.0000
G1 X119.9540 Y142.1000 E0.1886 F960 ; custom feedrate
G1 X115.9000 Y142.1000 E0.3706
G1 X115.9000 Y137.9000 E0.5592
G1 X119.9540 Y137.9000 E0.7412
G1 X120.5540 Y137.3000 F2000 ; custom feedrate
G92 E0.0000
G1 X120.5540 Y142.7000 E0.2425 F720 ; custom feedrate
G1 X115.3000 Y142.7000 E0.4784
G1 X115.3000 Y137.3000 E0.7208
G1 X120.5540 Y137.3000 E0.9567
G92 E0.0000
G1 E-2 F2400 ; custom retraction
;zhop1
G1 X115.3000 Y138.8060 F2000 ; custom feedrate
G1 X111.6460 Y139.8540
G1 Z4.600 F1200
G1 E0 F2400 ; custom un-retraction/prime
G92 E0.0000
G1 X111.6460 Y140.1460 E0.0131 F720 ; custom feedrate
G1 X111.3540 Y140.1460 E0.0262
G1 X111.3540 Y139.8540 E0.0392
G1 X111.6460 Y139.8540 E0.0523
G92 E0.0000
G1 E-2 F2400 ; custom retraction
;layer 24, Z = 4.800
;fan24;
G1 Z4.800 F1200
G1 X111.6140 Y139.8860 F2000 ; custom feedrate
G1 E0 F2400 ; custom un-retraction/prime
G92 E0.0000
G1 X111.6140 Y140.1140 E0.0102 F720 ; custom feedrate
G1 X111.3860 Y140.1140 E0.0205
G1 X111.3860 Y139.8860 E0.0307
G1 X111.6140 Y139.8860 E0.0409
G92 E0.0000
G1 E-2 F2400 ; custom retraction
;zhop1
G1 X116.5000 Y138.5000 F2000 ; custom feedrate
G1 Z4.800 F1200
G1 E0 F2400 ; custom un-retraction/prime
G92 E0.0000
G1 X119.4610 Y138.5000 E0.1330 F960 ; custom feedrate
G1 X119.4610 Y141.5000 E0.2677
G1 X116.5000 Y141.5000 E0.4006
G1 X116.5000 Y138.5000 E0.5353
G1 X115.9000 Y137.9000 F2000 ; custom feedrate
G92 E0.0000
G1 X120.0610 Y137.9000 E0.1868 F960 ; custom feedrate
G1 X120.0610 Y142.1000 E0.3754
G1 X115.9000 Y142.1000 E0.5623
G1 X115.9000 Y137.9000 E0.7508
G1 X115.3000 Y137.3000 F2000 ; custom feedrate
G92 E0.0000
G1 X120.6610 Y137.3000 E0.2407 F720 ; custom feedrate
G1 X120.6610 Y142.7000 E0.4832
G1 X115.3000 Y142.7000 E0.7239
G1 X115.3000 Y137.3000 E0.9664
G92 E0.0000
G1 E-2 F2400 ; custom retraction
;zhop1
G1 X120.6610 Y137.4490 F2000 ; custom feedrate
G1 X157.3390 Y137.3000
G1 X157.3390 Y138.4670
G1 X158.5390 Y138.5000
G1 Z4.800 F1200
G1 E0 F2400 ; custom un-retraction/prime
G92 E0.0000
G1 X166.5000 Y138.5000 E0.3575 F960 ; custom feedrate
G1 X166.5000 Y141.5000 E0.4922
G1 X158.5390 Y141.5000 E0.8496
G1 X158.5390 Y138.5000 E0.9843
G1 X157.9390 Y137.9000 F2000 ; custom feedrate
G92 E0.0000
G1 X167.1000 Y137.9000 E0.4113 F960 ; custom feedrate
G1 X167.1000 Y142.1000 E0.5999
G1 X157.9390 Y142.1000 E1.0113
G1 X157.9390 Y137.9000 E1.1999
G1 X157.3390 Y137.3000 F2000 ; custom feedrate
G92 E0.0000
G1 X167.7000 Y137.3000 E0.4652 F720 ; custom feedrate
G1 X167.7000 Y142.7000 E0.7077
G1 X157.3390 Y142.7000 E1.1729
G1 X157.3390 Y137.3000 E1.4154
G1 X160.1480 Y141.0650 F2000 ; custom feedrate
G92 E0.0000
G1 X162.2780 Y138.9350 E0.1691 F1200 ; custom feedrate
G1 X166.0650 Y138.9350 E0.3816
G1 X166.0650 Y140.4520 E0.4667
G1 X165.4520 Y141.0650 E0.5154
G92 E0.0000
G1 E-2 F2400 ; custom retraction
;layer 25, Z = 5.000
;fan25;
G1 Z5.000 F1200
G1 X166.5000 Y141.5000 F2000 ; custom feedrate
G1 E0 F2400 ; custom un-retraction/prime
G92 E0.0000
G1 X158.4250 Y141.5000 E0.3626 F960 ; custom feedrate
G1 X158.4250 Y138.5000 E0.4973
G1 X166.5000 Y138.5000 E0.8598
G1 X166.5000 Y141.5000 E0.9945
G1 X167.1000 Y142.1000 F2000 ; custom feedrate
G92 E0.0000
G1 X157.8250 Y142.1000 E0.4165 F960 ; custom feedrate
G1 X157.8250 Y137.9000 E0.6050
G1 X167.1000 Y137.9000 E1.0215
G1 X167.1000 Y142.1000 E1.2101
G1 X167.7000 Y142.7000 F2000 ; custom feedrate
G92 E0.0000
G1 X157.2250 Y142.7000 E0.4703 F720 ; custom feedrate
G1 X157.2250 Y137.3000 E0.7128
G1 X167.7000 Y137.3000 E1.1831
G1 X167.7000 Y142.7000 E1.4256
G1 X165.4520 Y138.9350 F2000 ; custom feedrate
G92 E0.0000
G1 X166.0650 Y139.5480 E0.0487 F1200 ; custom feedrate
G1 X166.0650 Y141.0650 E0.1338
G1 X162.2780 Y141.0650 E0.3464
G1 X160.1480 Y138.9350 E0.5154
G92 E0.0000
G1 E-2 F2400 ; custom retraction
;zhop1
G1 X119.5750 Y138.5000 F2000 ; custom feedrate
G1 Z5.000 F1200
G1 E0 F2400 ; custom un-retraction/prime
G92 E0.0000
G1 X119.5750 Y141.5000 E0.1347 F960 ; custom feedrate
G1 X116.5000 Y141.5000 E0.2728
G1 X116.5000 Y138.5000 E0.4075
G1 X119.5750 Y138.5000 E0.5455
G1 X120.1750 Y137.9000 F2000 ; custom feedrate
G92 E0.0000
G1 X120.1750 Y142.1000 E0.1886 F960 ; custom feedrate
G1 X115.9000 Y142.1000 E0.3805
G1 X115.9000 Y137.9000 E0.5691
G1 X120.1750 Y137.9000 E0.7611
G1 X120.7750 Y137.3000 F2000 ; custom feedrate
G92 E0.0000
G1 X120.7750 Y142.7000 E0.2425 F720 ; custom feedrate
G1 X115.3000 Y142.7000 E0.4883
G1 X115.3000 Y137.3000 E0.7308
G1 X120.7750 Y137.3000 E0.9766
G92 E0.0000
G1 E-2 F2400 ; custom retraction
;zhop1
G1 X115.3000 Y138.8590 F2000 ; custom feedrate
G1 X111.5820 Y139.9180
G1 Z5.000 F1200
G1 E0 F2400 ; custom un-retraction/prime
G92 E0.0000
G1 X111.5820 Y140.0820 E0.0074 F720 ; custom feedrate
G1 X111.4180 Y140.0820 E0.0148
G1 X111.4180 Y139.9180 E0.0222
G1 X111.5820 Y139.9180 E0.0296
G92 E0.0000
G1 E-2 F2400 ; custom retraction
;layer 26, Z = 5.200
;fan26;
G1 Z5.200 F1200
G1 X111.5510 Y139.9490 F2000 ; custom feedrate
G1 E0 F2400 ; custom un-retraction/prime
G92 E0.0000
G1 X111.5510 Y140.0510 E0.0045 F720 ; custom feedrate
G1 X111.4490 Y140.0510 E0.0091
G1 X111.4490 Y139.9490 E0.0136
G1 X111.5510 Y139.9490 E0.0182
G92 E0.0000
G1 E-2 F2400 ; custom retraction
;zhop1
G1 X116.5000 Y138.5000 F2000 ; custom feedrate
G1 Z5.200 F1200
G1 E0 F2400 ; custom un-retraction/prime
G92 E0.0000
G1 X119.6990 Y138.5000 E0.1437 F960 ; custom feedrate
G1 X119.6990 Y141.5000 E0.2784
G1 X116.5000 Y141.5000 E0.4220
G1 X116.5000 Y138.5000 E0.5567
G1 X115.9000 Y137.9000 F2000 ; custom feedrate
G92 E0.0000
G1 X120.2990 Y137.9000 E0.1975 F960 ; custom feedrate
G1 X120.2990 Y142.1000 E0.3861
G1 X115.9000 Y142.1000 E0.5837
G1 X115.9000 Y137.9000 E0.7722
G1 X115.3000 Y137.3000 F2000 ; custom feedrate
G92 E0.0000
G1 X120.8990 Y137.3000 E0.2514 F720 ; custom feedrate
G1 X120.8990 Y142.7000 E0.4939
G1 X115.3000 Y142.7000 E0.7453
G1 X115.3000 Y137.3000 E0.9878
G92 E0.0000
G1 E-2 F2400 ; custom retraction
;zhop1
G1 X120.8990 Y137.4560 F2000 ; custom feedrate
G1 X157.1010 Y137.3000
G1 X157.1010 Y138.4670
G1 X158.3010 Y138.5000
G1 Z5.200 F1200
G1 E0 F2400 ; custom un-retraction/prime
G92 E0.0000
G1 X166.5000 Y138.5000 E0.3682 F960 ; custom feedrate
G1 X166.5000 Y141.5000 E0.5029
G1 X158.3010 Y141.5000 E0.8710
G1 X158.3010 Y138.5000 E1.0057
G1 X157.7010 Y137.9000 F2000 ; custom feedrate
G92 E0.0000
G1 X167.1000 Y137.9000 E0.4220 F960 ; custom feedrate
G1 X167.1000 Y142.1000 E0.6106
G1 X157.7010 Y142.1000 E1.0327
G1 X157.7010 Y137.9000 E1.2213
G1 X157.1010 Y137.3000 F2000 ; custom feedrate
G92 E0.0000
G1 X167.7000 Y137.3000 E0.4759 F720 ; custom feedrate
G1 X167.7000 Y142.7000 E0.7184
G1 X157.1010 Y142.7000 E1.1943
G1 X157.1010 Y137.3000 E1.4368
G1 X160.1480 Y141.0650 F2000 ; custom feedrate
G92 E0.0000
G1 X162.2780 Y138.9350 E0.1691 F1200 ; custom feedrate
G1 X166.0650 Y138.9350 E0.3816
G1 X166.0650 Y140.4520 E0.4667
G1 X165.4520 Y141.0650 E0.5154
G92 E0.0000
G1 E-2 F2400 ; custom retraction
;layer 27, Z = 5.400
;fan27;
G1 Z5.400 F1200
G1 X166.5000 Y141.5000 F2000 ; custom feedrate
G1 E0 F2400 ; custom un-retraction/prime
G92 E0.0000
G1 X158.1680 Y141.5000 E0.3741 F960 ; custom feedrate
G1 X158.1680 Y138.5000 E0.5088
G1 X166.5000 Y138.5000 E0.8830
G1 X166.5000 Y141.5000 E1.0177
G1 X167.1000 Y142.1000 F2000 ; custom feedrate
G92 E0.0000
G1 X157.5680 Y142.1000 E0.4280 F960 ; custom feedrate
G1 X157.5680 Y137.9000 E0.6166
G1 X167.1000 Y137.9000 E1.0446
G1 X167.1000 Y142.1000 E1.2332
G1 X167.7000 Y142.7000 F2000 ; custom feedrate
G92 E0.0000
G1 X156.9680 Y142.7000 E0.4819 F720 ; custom feedrate
G1 X156.9680 Y137.3000 E0.7244
G1 X167.7000 Y137.3000 E1.2062
G1 X167.7000 Y142.7000 E1.4487
G1 X165.4520 Y138.9350 F2000 ; custom feedrate
G92 E0.0000
G1 X166.0650 Y139.5480 E0.0487 F1200 ; custom feedrate
G1 X166.0650 Y141.0650 E0.1338
G1 X162.2780 Y141.0650 E0.3464
G1 X160.1480 Y138.9350 E0.5154
G92 E0.0000
G1 E-2 F2400 ; custom retraction
;zhop1
G1 X119.8320 Y138.5000 F2000 ; custom feedrate
G1 Z5.400 F1200
G1 E0 F2400 ; custom un-retraction/prime
G92 E0.0000
G1 X119.8320 Y141.5000 E0.1347 F960 ; custom feedrate
G1 X116.5000 Y141.5000 E0.2843
G1 X116.5000 Y138.5000 E0.4190
G1 X119.8320 Y138.5000 E0.5686
G1 X120.4320 Y137.9000 F2000 ; custom feedrate
G92 E0.0000
G1 X120.4320 Y142.1000 E0.1886 F960 ; custom feedrate
G1 X115.9000 Y142.1000 E0.3921
G1 X115.9000 Y137.9000 E0.5807
G1 X120.4320 Y137.9000 E0.7842
G1 X121.0320 Y137.3000 F2000 ; custom feedrate
G92 E0.0000
G1 X121.0320 Y142.7000 E0.2425 F720 ; custom feedrate
G1 X115.3000 Y142.7000 E0.4999
G1 X115.3000 Y137.3000 E0.7423
G1 X121.0320 Y137.3000 E0.9997
G92 E0.0000
G1 E-2 F2400 ; custom retraction
;zhop1
G1 X115.3000 Y138.9150 F2000 ; custom feedrate
G1 X111.5190 Y139.9810
G1 Z5.400 F1200
G1 E0 F2400 ; custom un-retraction/prime
G92 E0.0000
G1 X111.5190 Y140.0190 E0.0017 F720 ; custom feedrate
G1 X111.4810 Y140.0190 E0.0034
G1 X111.4810 Y139.9810 E0.0051
G1 X111.5190 Y139.9810 E0.0068
G92 E0.0000
G1 E-2 F2400 ; custom retraction
;layer 28, Z = 5.600
;fan28;
G1 Z5.600 F1200
G1 X116.5000 Y138.5000 F2000 ; custom feedrate
G1 E0 F2400 ; custom un-retraction/prime
G92 E0.0000
G1 X119.9730 Y138.5000 E0.1560 F960 ; custom feedrate
G1 X119.9730 Y141.5000 E0.2907
G1 X116.5000 Y141.5000 E0.4466
G1 X116.5000 Y138.5000 E0.5813
G1 X115.9000 Y137.9000 F2000 ; custom feedrate
G92 E0.0000
G1 X120.5730 Y137.9000 E0.2098 F960 ; custom feedrate
G1 X120.5730 Y142.1000 E0.3984
G1 X115.9000 Y142.1000 E0.6083
G1 X115.9000 Y137.9000 E0.7968
G1 X115.3000 Y137.3000 F2000 ; custom feedrate
G92 E0.0000
G1 X121.1730 Y137.3000 E0.2637 F720 ; custom feedrate
G1 X121.1730 Y142.7000 E0.5062
G1 X115.3000 Y142.7000 E0.7699
G1 X115.3000 Y137.3000 E1.0124
G92 E0.0000
G1 E-2 F2400 ; custom retraction
;zhop1
G1 X121.1730 Y137.4650 F2000 ; custom feedrate
G1 X156.8270 Y137.3000
G1 X156.8270 Y138.4660
G1 X158.0270 Y138.5000
G1 Z5.600 F1200
G1 E0 F2400 ; custom un-retraction/prime
G92 E0.0000
G1 X166.5000 Y138.5000 E0.3805 F960 ; custom feedrate
G1 X166.5000 Y141.5000 E0.5152
G1 X158.0270 Y141.5000 E0.8956
G1 X158.0270 Y138.5000 E1.0303
G1 X157.4270 Y137.9000 F2000 ; custom feedrate
G92 E0.0000
G1 X167.1000 Y137.9000 E0.4343 F960 ; custom feedrate
G1 X167.1000 Y142.1000 E0.6229
G1 X157.4270 Y142.1000 E1.0573
G1 X157.4270 Y137.9000 E1.2459
G1 X156.8270 Y137.3000 F2000 ; custom feedrate
G92 E0.0000
G1 X167.7000 Y137.3000 E0.4882 F720 ; custom feedrate
G1 X167.7000 Y142.7000 E0.7307
G1 X156.8270 Y142.7000 E1.2189
G1 X156.8270 Y137.3000 E1.4614
G1 X160.1480 Y141.0650 F2000 ; custom feedrate
G92 E0.0000
G1 X162.2780 Y138.9350 E0.1691 F1200 ; custom feedrate
G1 X166.0650 Y138.9350 E0.3816
G1 X166.0650 Y140.4520 E0.4667
G1 X165.4520 Y141.0650 E0.5154
G92 E0.0000
G1 E-2 F2400 ; custom retraction
;layer 29, Z = 5.800
;fan29;
G1 Z5.800 F1200
G1 X166.5000 Y141.5000 F2000 ; custom feedrate
G1 E0 F2400 ; custom un-retraction/prime
G92 E0.0000
G1 X157.8770 Y141.5000 E0.3872 F960 ; custom feedrate
G1 X157.8770 Y138.5000 E0.5219
G1 X166.5000 Y138.5000 E0.9091
G1 X166.5000 Y141.5000 E1.0438
G1 X167.1000 Y142.1000 F2000 ; custom feedrate
G92 E0.0000
G1 X157.2770 Y142.1000 E0.4411 F960 ; custom feedrate
G1 X157.2770 Y137.9000 E0.6297
G1 X167.1000 Y137.9000 E1.0708
G1 X167.1000 Y142.1000 E1.2593
G1 X167.7000 Y142.7000 F2000 ; custom feedrate
G92 E0.0000
G1 X156.6770 Y142.7000 E0.4950 F720 ; custom feedrate
G1 X156.6770 Y137.3000 E0.7374
G1 X167.7000 Y137.3000 E1.2324
G1 X167.7000 Y142.7000 E1.4749
G1 X165.4520 Y138.9350 F2000 ; custom feedrate
G92 E0.0000
G1 X166.0650 Y139.5480 E0.0487 F1200 ; custom feedrate
G1 X166.0650 Y141.0650 E0.1338
G1 X162.2780 Y141.0650 E0.3464
G1 X160.1480 Y138.9350 E0.5154
G92 E0.0000
G1 E-2 F2400 ; custom retraction
;zhop1
G1 X120.1230 Y138.5000 F2000 ; custom feedrate
G1 Z5.800 F1200
G1 E0 F2400 ; custom un-retraction/prime
G92 E0.0000
G1 X120.1230 Y141.5000 E0.1347 F960 ; custom feedrate
G1 X116.5000 Y141.5000 E0.2974
G1 X116.5000 Y140.2960 E0.3515
G1 X115.9840 Y140.0000 E0.3782
G1 X116.5000 Y139.7040 E0.4049
G1 X116.5000 Y138.5000 E0.4589
G1 X120.1230 Y138.5000 E0.6216
G1 X120.7230 Y137.9000 F2000 ; custom feedrate
G92 E0.0000
G1 X120.7230 Y142.1000 E0.1886 F960 ; custom feedrate
G1 X115.9000 Y142.1000 E0.4052
G1 X115.9000 Y140.6430 E0.4706
G1 X115.6130 Y140.4790 E0.4854
G1 X115.6130 Y139.5210 E0.5284
G1 X115.9000 Y139.3570 E0.5433
G1 X115.9000 Y137.9000 E0.6087
G1 X120.7230 Y137.9000 E0.8253
G1 X121.3230 Y137.3000 F2000 ; custom feedrate
G92 E0.0000
G1 X121.3230 Y142.7000 E0.2425 F720 ; custom feedrate
G1 X115.3000 Y142.7000 E0.5129
G1 X115.3000 Y140.9910 E0.5897
G1 X115.0130 Y140.8260 E0.6045
G1 X115.0130 Y139.1740 E0.6787
G1 X115.3000 Y139.0090 E0.6936
G1 X115.3000 Y137.3000 E0.7703
G1 X121.3230 Y137.3000 E1.0408
G92 E0.0000
G1 E-2 F2400 ; custom retraction
;layer 30, Z = 6.000
;fan30;
G1 Z6.000 F1200
G1 X120.2870 Y138.5000 F2000 ; custom feedrate
G1 E0 F2400 ; custom un-retraction/prime
G92 E0.0000
G1 X120.2870 Y141.5000 E0.1347 F960 ; custom feedrate
G1 X116.5000 Y141.5000 E0.3048
G1 X116.5000 Y140.4600 E0.3515
G1 X115.6990 Y140.0000 E0.3929
G1 X116.5000 Y139.5400 E0.4344
G1 X116.5000 Y138.5000 E0.4811
G1 X120.2870 Y138.5000 E0.6512
G1 X120.8870 Y137.9000 F2000 ; custom feedrate
G92 E0.0000
G1 X120.8870 Y142.1000 E0.1886 F960 ; custom feedrate
G1 X115.9000 Y142.1000 E0.4125
G1 X115.9000 Y140.8070 E0.4706
G1 X115.3270 Y140.4790 E0.5002
G1 X115.3270 Y139.5210 E0.5432
G1 X115.9000 Y139.1930 E0.5728
G1 X115.9000 Y137.9000 E0.6309
G1 X120.8870 Y137.9000 E0.8548
G1 X121.4870 Y137.3000 F2000 ; custom feedrate
G92 E0.0000
G1 X121.4870 Y142.7000 E0.2425 F720 ; custom feedrate
G1 X115.3000 Y142.7000 E0.5203
G1 X115.3000 Y141.1550 E0.5897
G1 X114.7270 Y140.8260 E0.6193
G1 X114.7270 Y139.1740 E0.6935
G1 X115.3000 Y138.8450 E0.7232
G1 X115.3000 Y137.3000 E0.7925
G1 X121.4870 Y137.3000 E1.0703
G92 E0.0000
G1 E-2 F2400 ; custom retraction
;zhop1
G1 X156.5130 Y137.3000 F2000 ; custom feedrate
G1 X156.5130 Y138.4600
G1 X157.7130 Y138.5000
G1 Z6.000 F1200
G1 E0 F2400 ; custom un-retraction/prime
G92 E0.0000
G1 X166.5000 Y138.5000 E0.3946 F960 ; custom feedrate
G1 X166.5000 Y141.5000 E0.5293
G1 X157.7130 Y141.5000 E0.9238
G1 X157.7130 Y138.5000 E1.0585
G1 X157.1130 Y137.9000 F2000 ; custom feedrate
G92 E0.0000
G1 X167.1000 Y137.9000 E0.4484 F960 ; custom feedrate
G1 X167.1000 Y142.1000 E0.6370
G1 X157.1130 Y142.1000 E1.0855
G1 X157.1130 Y137.9000 E1.2740
G1 X156.5130 Y137.3000 F2000 ; custom feedrate
G92 E0.0000
G1 X167.7000 Y137.3000 E0.5023 F720 ; custom feedrate
G1 X167.7000 Y142.7000 E0.7448
G1 X156.5130 Y142.7000 E1.2471
G1 X156.5130 Y137.3000 E1.4896
G1 X160.1480 Y141.0650 F2000 ; custom feedrate
G92 E0.0000
G1 X162.2780 Y138.9350 E0.1691 F1200 ; custom feedrate
G1 X166.0650 Y138.9350 E0.3816
G1 X166.0650 Y140.4520 E0.4667
G1 X165.4520 Y141.0650 E0.5154
G92 E0.0000
G1 E-2 F2400 ; custom retraction
;layer 31, Z = 6.200
;fan31;
G1 Z6.200 F1200
G1 X166.5000 Y141.5000 F2000 ; custom feedrate
G1 E0 F2400 ; custom un-retraction/prime
G92 E0.0000
G1 X157.5380 Y141.5000 E0.4024 F960 ; custom feedrate
G1 X157.5380 Y138.5000 E0.5371
G1 X166.5000 Y138.5000 E0.9395
G1 X166.5000 Y141.5000 E1.0742
G1 X167.1000 Y142.1000 F2000 ; custom feedrate
G92 E0.0000
G1 X156.9380 Y142.1000 E0.4563 F960 ; custom feedrate
G1 X156.9380 Y137.9000 E0.6449
G1 X167.1000 Y137.9000 E1.1012
G1 X167.1000 Y142.1000 E1.2897
G1 X167.7000 Y142.7000 F2000 ; custom feedrate
G92 E0.0000
G1 X156.3380 Y142.7000 E0.5102 F720 ; custom feedrate
G1 X156.3380 Y137.3000 E0.7526
G1 X167.7000 Y137.3000 E1.2628
G1 X167.7000 Y142.7000 E1.5053
G1 X165.4520 Y138.9350 F2000 ; custom feedrate
G92 E0.0000
G1 X166.0650 Y139.5480 E0.0487 F1200 ; custom feedrate
G1 X166.0650 Y141.0650 E0.1338
G1 X162.2780 Y141.0650 E0.3464
G1 X160.1480 Y138.9350 E0.5154
G92 E0.0000
G1 E-2 F2400 ; custom retraction
;zhop1
G1 X120.4620 Y138.5000 F2000 ; custom feedrate
G1 Z6.200 F1200
G1 E0 F2400 ; custom un-retraction/prime
G92 E0.0000
G1 X120.4620 Y141.5000 E0.1347 F960 ; custom feedrate
G1 X116.5000 Y141.5000 E0.3126
G1 X116.5000 Y140.6230 E0.3520
G1 X115.4130 Y140.0000 E0.4082
G1 X116.5000 Y139.3770 E0.4645
G1 X116.5000 Y138.5000 E0.5039
G1 X120.4620 Y138.5000 E0.6818
G1 X121.0620 Y137.9000 F2000 ; custom feedrate
G92 E0.0000
G1 X121.0620 Y142.1000 E0.1886 F960 ; custom feedrate
G1 X115.9000 Y142.1000 E0.4204
G1 X115.9000 Y140.9710 E0.4711
G1 X115.0420 Y140.4790 E0.5155
G1 X115.0420 Y139.5210 E0.5585
G1 X115.9000 Y139.0290 E0.6029
G1 X115.9000 Y137.9000 E0.6536
G1 X121.0620 Y137.9000 E0.8854
G1 X121.6620 Y137.3000 F2000 ; custom feedrate
G92 E0.0000
G1 X121.6620 Y142.7000 E0.2425 F720 ; custom feedrate
G1 X115.3000 Y142.7000 E0.5281
G1 X115.3000 Y141.3190 E0.5902
G1 X114.4420 Y140.8260 E0.6346
G1 X114.4420 Y139.1740 E0.7088
G1 X115.3000 Y138.6810 E0.7532
G1 X115.3000 Y137.3000 E0.8152
G1 X121.6620 Y137.3000 E1.1009
G1 X116.2600 Y140.0190 F2000 ; custom feedrate
G92 E0.0000
G1 X116.2030 Y139.9620 E0.0036 F960 ; custom feedrate
G92 E0.0000
G1 E-2 F2400 ; custom retraction
;layer 32, Z = 6.400
;fan32;
G1 Z6.400 F1200
G1 X116.5000 Y139.2130 F2000 ; custom feedrate
G1 E0 F2400 ; custom un-retraction/prime
G92 E0.0000
G1 X116.5000 Y138.5000 E0.0320 F960 ; custom feedrate
G1 X120.6490 Y138.5000 E0.2183
G1 X120.6490 Y141.5000 E0.3530
G1 X116.5000 Y141.5000 E0.5393
G1 X116.5000 Y140.7870 E0.5713
G1 X115.1270 Y140.0000 E0.6424
G1 X116.5000 Y139.2130 E0.7134
G1 X115.9000 Y138.8650 F2000 ; custom feedrate
G92 E0.0000
G1 X115.9000 Y137.9000 E0.0433 F960 ; custom feedrate
G1 X121.2490 Y137.9000 E0.2835
G1 X121.2490 Y142.1000 E0.4721
G1 X115.9000 Y142.1000 E0.7123
G1 X115.9000 Y141.1350 E0.7556
G1 X114.7560 Y140.4790 E0.8148
G1 X114.7560 Y139.5210 E0.8578
G1 X115.9000 Y138.8650 E0.9171
G1 X115.3000 Y138.5180 F2000 ; custom feedrate
G92 E0.0000
G1 X115.3000 Y137.3000 E0.0547 F720 ; custom feedrate
G1 X121.8490 Y137.3000 E0.3487
G1 X121.8490 Y142.7000 E0.5912
G1 X115.3000 Y142.7000 E0.8853
G1 X115.3000 Y141.4820 E0.9399
G1 X114.1560 Y140.8260 E0.9992
G1 X114.1560 Y139.1740 E1.0734
G1 X115.3000 Y138.5180 E1.1326
G92 E0.0000
G1 E-2 F2400 ; custom retraction
;zhop1
G1 X157.3510 Y138.5000 F2000 ; custom feedrate
G1 Z6.400 F1200
G1 E0 F2400 ; custom un-retraction/prime
G92 E0.0000
G1 X166.5000 Y138.5000 E0.4108 F960 ; custom feedrate
G1 X166.5000 Y141.5000 E0.5455
G1 X157.3510 Y141.5000 E0.9563
G1 X157.3510 Y138.5000 E1.0910
G1 X156.7510 Y137.9000 F2000 ; custom feedrate
G92 E0.0000
G1 X167.1000 Y137.9000 E0.4647 F960 ; custom feedrate
G1 X167.1000 Y142.1000 E0.6533
G1 X156.7510 Y142.1000 E1.1180
G1 X156.7510 Y137.9000 E1.3066
G1 X156.1510 Y137.3000 F2000 ; custom feedrate
G92 E0.0000
G1 X167.7000 Y137.3000 E0.5186 F720 ; custom feedrate
G1 X167.7000 Y142.7000 E0.7610
G1 X156.1510 Y142.7000 E1.2796
G1 X156.1510 Y137.3000 E1.5221
G1 X160.1480 Y141.0650 F2000 ; custom feedrate
G92 E0.0000
G1 X162.2780 Y138.9350 E0.1691 F1200 ; custom feedrate
G1 X166.0650 Y138.9350 E0.3816
G1 X166.0650 Y140.4520 E0.4667
G1 X165.4520 Y141.0650 E0.5154
G92 E0.0000
G1 E-2 F2400 ; custom retraction
;layer 33, Z = 6.600
;fan33;
G1 Z6.600 F1200
G1 X166.5000 Y141.5000 F2000 ; custom feedrate
G1 E0 F2400 ; custom un-retraction/prime
G92 E0.0000
G1 X157.1500 Y141.5000 E0.4198 F960 ; custom feedrate
G1 X157.1500 Y138.5000 E0.5545
G1 X166.5000 Y138.5000 E0.9744
G1 X166.5000 Y141.5000 E1.1091
G1 X167.1000 Y142.1000 F2000 ; custom feedrate
G92 E0.0000
G1 X156.5500 Y142.1000 E0.4737 F960 ; custom feedrate
G1 X156.5500 Y137.9000 E0.6623
G1 X167.1000 Y137.9000 E1.1360
G1 X167.1000 Y142.1000 E1.3246
G1 X167.7000 Y142.7000 F2000 ; custom feedrate
G92 E0.0000
G1 X155.9500 Y142.7000 E0.5276 F720 ; custom feedrate
G1 X155.9500 Y137.3000 E0.7701
G1 X167.7000 Y137.3000 E1.2977
G1 X167.7000 Y142.7000 E1.5401
G1 X165.4520 Y138.9350 F2000 ; custom feedrate
G92 E0.0000
G1 X166.0650 Y139.5480 E0.0487 F1200 ; custom feedrate
G1 X166.0650 Y141.0650 E0.1338
G1 X162.2780 Y141.0650 E0.3464
G1 X160.1480 Y138.9350 E0.5154
G92 E0.0000
G1 E-2 F2400 ; custom retraction
;zhop1
G1 X120.8500 Y138.5000 F2000 ; custom feedrate
G1 Z6.600 F1200
G1 E0 F2400 ; custom un-retraction/prime
G92 E0.0000
G1 X120.8500 Y141.5000 E0.1347 F960 ; custom feedrate
G1 X116.5000 Y141.5000 E0.3300
G1 X116.5000 Y140.9510 E0.3547
G1 X114.8420 Y140.0000 E0.4405
G1 X116.5000 Y139.0490 E0.5264
G1 X116.5000 Y138.5000 E0.5510
G1 X120.8500 Y138.5000 E0.7463
G1 X121.4500 Y137.9000 F2000 ; custom feedrate
G92 E0.0000
G1 X121.4500 Y142.1000 E0.1886 F960 ; custom feedrate
G1 X115.9000 Y142.1000 E0.4378
G1 X115.9000 Y141.2990 E0.4738
G1 X114.4700 Y140.4790 E0.5478
G1 X114.4700 Y139.5210 E0.5908
G1 X115.9000 Y138.7010 E0.6648
G1 X115.9000 Y137.9000 E0.7007
G1 X121.4500 Y137.9000 E0.9500
G1 X122.0500 Y137.3000 F2000 ; custom feedrate
G92 E0.0000
G1 X122.0500 Y142.7000 E0.2425 F720 ; custom feedrate
G1 X115.3000 Y142.7000 E0.5456
G1 X115.3000 Y141.6460 E0.5929
G1 X113.8700 Y140.8260 E0.6669
G1 X113.8700 Y139.1740 E0.7411
G1 X115.3000 Y138.3540 E0.8151
G1 X115.3000 Y137.3000 E0.8624
G1 X122.0500 Y137.3000 E1.1655
G92 E0.0000
G1 E-2 F2400 ; custom retraction
;layer 34, Z = 6.800
;fan34;
G1 Z6.800 F1200
G1 X121.0670 Y138.5000 F2000 ; custom feedrate
G1 E0 F2400 ; custom un-retraction/prime
G92 E0.0000
G1 X121.0670 Y141.5000 E0.1347 F960 ; custom feedrate
G1 X116.5000 Y141.5000 E0.3398
G1 X116.5000 Y141.1150 E0.3570
G1 X114.5560 Y140.0000 E0.4577
G1 X116.5000 Y138.8850 E0.5583
G1 X116.5000 Y138.5000 E0.5756
G1 X121.0670 Y138.5000 E0.7806
G1 X121.6670 Y137.9000 F2000 ; custom feedrate
G92 E0.0000
G1 X121.6670 Y142.1000 E0.1886 F960 ; custom feedrate
G1 X115.9000 Y142.1000 E0.4475
G1 X115.9000 Y141.4630 E0.4761
G1 X114.1850 Y140.4790 E0.5649
G1 X114.1850 Y139.5210 E0.6079
G1 X115.9000 Y138.5370 E0.6967
G1 X115.9000 Y137.9000 E0.7253
G1 X121.6670 Y137.9000 E0.9843
G1 X122.2670 Y137.3000 F2000 ; custom feedrate
G92 E0.0000
G1 X122.2670 Y142.7000 E0.2425 F720 ; custom feedrate
G1 X115.3000 Y142.7000 E0.5553
G1 X115.3000 Y141.8100 E0.5952
G1 X113.5850 Y140.8260 E0.6840
G1 X113.5850 Y139.1740 E0.7582
G1 X115.3000 Y138.1900 E0.8470
G1 X115.3000 Y137.3000 E0.8870
G1 X122.2670 Y137.3000 E1.1998
G1 X120.7020 Y138.9330 F2000 ; custom feedrate
G92 E0.0000
G1 X120.7070 Y138.9280 E0.0003 F960 ; custom feedrate
G1 X120.7070 Y139.7770 E0.0384
G1 X120.7020 Y139.7820 E0.0387
G1 X120.7020 Y140.6300 E0.0768
G1 X120.7070 Y140.6260 E0.0771
G1 X115.4020 Y139.9910 F2000 ; custom feedrate
G92 E0.0000
G1 X115.3520 Y140.0410 E0.0032 F960 ; custom feedrate
G92 E0.0000
G1 E-2 F2400 ; custom retraction
;zhop1
G1 X156.9330 Y141.5000 F2000 ; custom feedrate
G1 Z6.800 F1200
G1 E0 F2400 ; custom un-retraction/prime
G92 E0.0000
G1 X156.9330 Y138.5000 E0.1347 F960 ; custom feedrate
G1 X166.5000 Y138.5000 E0.5643
G1 X166.5000 Y141.5000 E0.6990
G1 X156.9330 Y141.5000 E1.1285
G1 X156.3330 Y142.1000 F2000 ; custom feedrate
G92 E0.0000
G1 X156.3330 Y137.9000 E0.1886 F960 ; custom feedrate
G1 X167.1000 Y137.9000 E0.6720
G1 X167.1000 Y142.1000 E0.8606
G1 X156.3330 Y142.1000 E1.3441
G1 X155.7330 Y142.7000 F2000 ; custom feedrate
G92 E0.0000
G1 X155.7330 Y137.3000 E0.2425 F720 ; custom feedrate
G1 X167.7000 Y137.3000 E0.7798
G1 X167.7000 Y142.7000 E1.0223
G1 X155.7330 Y142.7000 E1.5596
G1 X157.2930 Y140.5260 F2000 ; custom feedrate
G92 E0.0000
G1 X157.2980 Y140.5210 E0.0003 F960 ; custom feedrate
G1 X157.2980 Y139.6730 E0.0384
G1 X157.2930 Y139.6770 E0.0387
G1 X160.1480 Y141.0650 F2000 ; custom feedrate
G92 E0.0000
G1 X162.2780 Y138.9350 E0.1691 F1200 ; custom feedrate
G1 X166.0650 Y138.9350 E0.3816
G1 X166.0650 Y140.4520 E0.4667
G1 X165.4520 Y141.0650 E0.5154
G92 E0.0000
G1 E-2 F2400 ; custom retraction
;layer 35, Z = 7.000
;fan35;
G1 Z7.000 F1200
G1 X166.5000 Y141.5000 F2000 ; custom feedrate
G1 E0 F2400 ; custom un-retraction/prime
G92 E0.0000
G1 X156.6980 Y141.5000 E0.4401 F960 ; custom feedrate
G1 X156.6980 Y138.5000 E0.5748
G1 X166.5000 Y138.5000 E1.0149
G1 X166.5000 Y141.5000 E1.1496
G1 X167.1000 Y142.1000 F2000 ; custom feedrate
G92 E0.0000
G1 X156.0980 Y142.1000 E0.4940 F960 ; custom feedrate
G1 X156.0980 Y137.9000 E0.6826
G1 X167.1000 Y137.9000 E1.1766
G1 X167.1000 Y142.1000 E1.3651
G1 X167.7000 Y142.7000 F2000 ; custom feedrate
G92 E0.0000
G1 X155.4980 Y142.7000 E0.5479 F720 ; custom feedrate
G1 X155.4980 Y137.3000 E0.7903
G1 X167.7000 Y137.3000 E1.3382
G1 X167.7000 Y142.7000 E1.5807
G1 X157.1110 Y140.9890 F2000 ; custom feedrate
G92 E0.0000
G1 X157.0580 Y140.9360 E0.0033 F960 ; custom feedrate
G1 X157.0580 Y140.0880 E0.0414
G1 X157.1110 Y140.1400 E0.0448
G1 X157.1110 Y139.2920 E0.0829
G1 X157.0580 Y139.2390 E0.0862
G1 X160.1480 Y138.9350 F2000 ; custom feedrate
G92 E0.0000
G1 X162.2780 Y141.0650 E0.1691 F1200 ; custom feedrate
G1 X166.0650 Y141.0650 E0.3816
G1 X166.0650 Y139.5480 E0.4667
G1 X165.4520 Y138.9350 E0.5154
G92 E0.0000
G1 E-2 F2400 ; custom retraction
;zhop1
G1 X121.3020 Y138.5000 F2000 ; custom feedrate
G1 Z7.000 F1200
G1 E0 F2400 ; custom un-retraction/prime
G92 E0.0000
G1 X121.3020 Y141.5000 E0.1347 F960 ; custom feedrate
G1 X116.5000 Y141.5000 E0.3503
G1 X116.5000 Y141.2790 E0.3602
G1 X114.2700 Y140.0000 E0.4756
G1 X116.5000 Y138.7210 E0.5911
G1 X116.5000 Y138.5000 E0.6010
G1 X121.3020 Y138.5000 E0.8166
G1 X121.9020 Y137.9000 F2000 ; custom feedrate
G92 E0.0000
G1 X121.9020 Y142.1000 E0.1886 F960 ; custom feedrate
G1 X115.9000 Y142.1000 E0.4581
G1 X115.9000 Y141.6260 E0.4793
G1 X113.8990 Y140.4790 E0.5829
G1 X113.8990 Y139.5210 E0.6259
G1 X115.9000 Y138.3740 E0.7295
G1 X115.9000 Y137.9000 E0.7507
G1 X121.9020 Y137.9000 E1.0202
G1 X122.5020 Y137.3000 F2000 ; custom feedrate
G92 E0.0000
G1 X122.5020 Y142.7000 E0.2425 F720 ; custom feedrate
G1 X115.3000 Y142.7000 E0.5658
G1 X115.3000 Y141.9740 E0.5984
G1 X113.2990 Y140.8260 E0.7020
G1 X113.2990 Y139.1740 E0.7762
G1 X115.3000 Y138.0260 E0.8798
G1 X115.3000 Y137.3000 E0.9124
G1 X122.5020 Y137.3000 E1.2357
G1 X120.8890 Y139.5570 F2000 ; custom feedrate
G92 E0.0000
G1 X120.9420 Y139.6090 E0.0033 F960 ; custom feedrate
G1 X120.9420 Y140.4580 E0.0414
G1 X120.8890 Y140.4050 E0.0448
G92 E0.0000
G1 E-2 F2400 ; custom retraction
;layer 36, Z = 7.200
;fan36;
G1 Z7.200 F1200
G1 X121.5580 Y141.5000 F2000 ; custom feedrate
G1 E0 F2400 ; custom un-retraction/prime
G92 E0.0000
G1 X116.6000 Y141.5000 E0.2226 F960 ; custom feedrate
G1 X113.9850 Y140.0000 E0.3580
G1 X116.6000 Y138.5000 E0.4933
G1 X121.5580 Y138.5000 E0.7160
G1 X121.5580 Y141.5000 E0.8507
G1 X122.1580 Y142.1000 F2000 ; custom feedrate
G92 E0.0000
G1 X115.9000 Y142.1000 E0.2810 F960 ; custom feedrate
G1 X115.9000 Y141.7900 E0.2949
G1 X113.6130 Y140.4790 E0.4132
G1 X113.6130 Y139.5210 E0.4562
G1 X115.9000 Y138.2100 E0.5746
G1 X115.9000 Y137.9000 E0.5885
G1 X122.1580 Y137.9000 E0.8695
G1 X122.1580 Y142.1000 E1.0581
G1 X122.7580 Y142.7000 F2000 ; custom feedrate
G92 E0.0000
G1 X115.3000 Y142.7000 E0.3349 F720 ; custom feedrate
G1 X115.3000 Y142.1380 E0.3601
G1 X113.0130 Y140.8260 E0.4785
G1 X113.0130 Y139.1740 E0.5527
G1 X115.3000 Y137.8620 E0.6710
G1 X115.3000 Y137.3000 E0.6963
G1 X122.7580 Y137.3000 E1.0311
G1 X122.7580 Y142.7000 E1.2736
G1 X121.1980 Y140.9830 F2000 ; custom feedrate
G92 E0.0000
G1 X121.0900 Y141.0910 E0.0068 F960 ; custom feedrate
G1 X121.0900 Y140.2420 E0.0449
G1 X121.1980 Y140.1350 E0.0518
G1 X121.1980 Y139.2860 E0.0899
G1 X121.0900 Y139.3940 E0.0967
G92 E0.0000
G1 E-2 F2400 ; custom retraction
;zhop1
G1 X156.4420 Y138.5000 F2000 ; custom feedrate
G1 Z7.200 F1200
G1 E0 F2400 ; custom un-retraction/prime
G92 E0.0000
G1 X166.5000 Y138.5000 E0.4516 F960 ; custom feedrate
G1 X166.5000 Y141.5000 E0.5863
G1 X156.4420 Y141.5000 E1.0379
G1 X156.4420 Y138.5000 E1.1726
G1 X155.8420 Y137.9000 F2000 ; custom feedrate
G92 E0.0000
G1 X167.1000 Y137.9000 E0.5055 F960 ; custom feedrate
G1 X167.1000 Y142.1000 E0.6941
G1 X155.8420 Y142.1000 E1.1996
G1 X155.8420 Y137.9000 E1.3881
G1 X155.2420 Y137.3000 F2000 ; custom feedrate
G92 E0.0000
G1 X167.7000 Y137.3000 E0.5594 F720 ; custom feedrate
G1 X167.7000 Y142.7000 E0.8018
G1 X155.2420 Y142.7000 E1.3612
G1 X155.2420 Y137.3000 E1.6037
G1 X156.8020 Y139.3200 F2000 ; custom feedrate
G92 E0.0000
G1 X156.9100 Y139.2120 E0.0068 F960 ; custom feedrate
G1 X156.9100 Y140.0610 E0.0449
G1 X156.8020 Y140.1680 E0.0518
G1 X156.8020 Y141.0170 E0.0899
G1 X156.9100 Y140.9090 E0.0967
G1 X160.1480 Y141.0650 F2000 ; custom feedrate
G92 E0.0000
G1 X162.2780 Y138.9350 E0.1691 F1200 ; custom feedrate
G1 X166.0650 Y138.9350 E0.3816
G1 X166.0650 Y140.4520 E0.4667
G1 X165.4520 Y141.0650 E0.5154
G92 E0.0000
G1 E-2 F2400 ; custom retraction
;layer 37, Z = 7.400
;fan37;
G1 Z7.400 F1200
G1 X166.5000 Y141.5000 F2000 ; custom feedrate
G1 E0 F2400 ; custom un-retraction/prime
G92 E0.0000
G1 X156.1610 Y141.5000 E0.4642 F960 ; custom feedrate
G1 X156.1610 Y138.5000 E0.5989
G1 X166.5000 Y138.5000 E1.0632
G1 X166.5000 Y141.5000 E1.1979
