; G-Code originally generated by Simplify3D(R) Version 4.1.2
; This calibration test gcode modified by the Teaching Tech Calibration website: https://teachingtechyt.github.io/calibration.html

;This G-Code has been generated specifically for the {machine_name}

;SETTINGS
;Nozzle diameter = {machine_nozzle_size}mm
;Filament name = {material_brand} {material_name}
;Filament type = {material_type} {material_diameter}
;Filament weight = {filament_weight}
;Extruder temp = M109 S{material_print_temperature}
;Bed temp = M190 S{material_bed_temperature}

;The following lines can be uncommented for printer specific fine tuning
;More information can be found at https://marlinfw.org/meta/gcode/
;
;M92 E420                                   ;Set Axis Steps-per-unit
;M301 P21.0 I1.78 D61.93                    ;Set Hotend PID
;M906 E160                                  ;Digipot Motor Current ((875mA-750)/5+135) = 160
;M206 Y0                                    ;Set Home Offsets (default:0)
;
M73 P0                                      ; clear GLCD progress bar
M75                                         ; start GLCD timer
M107                                        ; disable fans
M420 S0                                     ; disable leveling matrix
G90                                         ; absolute positioning
M82                                         ; set extruder to absolute mode
G92 E0                                      ; set extruder position to 0
M140 S100    ; start bed heating up
G28 XY                                      ; home X and Y
G1 X-19 Y258 F1000                          ; move to safe homing position
M109 R220         ; soften filament before homing Z
G28 Z                                       ; home Z
G1 E-15 F100                                ; retract filament
M109 R220           ; wait for extruder to reach wiping temp
;M206 X0 Y0 Z0                               ; uncomment to adjust wipe position (+X ~ nozzle moves left)(+Y ~ nozzle moves forward)(+Z ~ nozzle moves down)
G12                                         ; wiping sequence
M206 X0 Y0 Z0                               ; reseting stock nozzle position ### CAUTION: changing this line can affect print quality ###
G1 Z10 F5000                                ; raise nozzle after wipe
M109 R220          ; wait for extruder to reach probe temp
G1 X-10 Y293 F4000                          ; move above first probe point
M204 S100                                   ; set probing acceleration
G29                                         ; start auto-leveling sequence
M420 S1                                     ; enable leveling matrix
M204 S500                                   ; restore standard acceleration
G1 X0 Y0 Z15 F5000                          ; move up off last probe point
G4 S1                                       ; pause
M400                                        ; wait for moves to finish
M117 Heating...                             ; progress indicator message on LCD
M109 R230  ; wait for extruder to reach printing temp
M190 R100    ; wait for bed to reach printing temp
G1 Z2 E0 F75                                ; prime tiny bit of filament into the nozzle
M117 TAZ 6 Printing...                      ; progress indicator message on LCD
;Start G-Code End


; custom start gcode

G0 Z3; fix for delta printers that home at max
;process Process-1
;layer 1, Z = 0.300
T0
G92 E0.0000
G1 E-2 F2400 ; custom retraction
;fan1;
G1 Z0.300 F1200
G1 X111.2550 Y132.3890 F4000 ; custom feedrate
G1 E0 F2400 ; custom un-retraction/prime
G92 E0.0000
G1 X112.3870 Y131.9200 E0.0990 F1200 ; custom feedrate
G1 X167.6130 Y131.9200 E4.5625
G1 X168.7450 Y132.3890 E4.6615
G1 X172.6110 Y136.2550 E5.1034
G1 X173.0800 Y137.3870 E5.2025
G1 X173.0800 Y142.6130 E5.6248
G1 X172.6110 Y143.7450 E5.7238
G1 X168.7450 Y147.6110 E6.1657
G1 X167.6130 Y148.0800 E6.2648
G1 X112.3870 Y148.0800 E10.7282
G1 X111.2550 Y147.6110 E10.8272
G1 X107.3890 Y143.7450 E11.2692
G1 X106.9200 Y142.6130 E11.3682
G1 X106.9200 Y137.3870 E11.7905
G1 X107.3890 Y136.2550 E11.8895
G1 X111.2550 Y132.3890 E12.3315
G92 E0.0000
G1 E-2 F2400 ; custom retraction
G91;
G1 Z1 F1200; custom z hop
G90;
G1 X111.6630 Y132.9990 F4000 ; custom feedrate
G1 Z0.300 F1200
G1 E0 F2400 ; custom un-retraction/prime
G92 E0.0000
G1 X112.5310 Y132.6400 E0.0759 F1200 ; custom feedrate
G1 X167.4690 Y132.6400 E4.5162
G1 X168.3370 Y132.9990 E4.5920
G1 X172.0010 Y136.6630 E5.0108
G1 X172.3600 Y137.5310 E5.0867
G1 X172.3600 Y142.4690 E5.4859
G1 X172.0010 Y143.3370 E5.5618
G1 X168.3370 Y147.0010 E5.9805
G1 X167.4690 Y147.3600 E6.0564
G1 X112.5310 Y147.3600 E10.4967
G1 X111.6630 Y147.0010 E10.5726
G1 X107.9990 Y143.3370 E10.9914
G1 X107.6400 Y142.4690 E11.0672
G1 X107.6400 Y137.5310 E11.4664
G1 X107.9990 Y136.6630 E11.5423
G1 X111.6630 Y132.9990 E11.9611
G92 E0.0000
G1 E-2 F2400 ; custom retraction
G91;
G1 Z1 F1200; custom z hop
G90;
G1 X113.1490 Y135.3600 F4000 ; custom feedrate
G1 X113.0250 Y135.4840
G1 X113.7460 Y136.8000
G1 Z0.300 F1200
G1 E0 F2400 ; custom un-retraction/prime
G92 E0.0000
G1 X166.2540 Y136.8000 E4.2439 F960 ; custom feedrate
G1 X168.2000 Y138.7460 E4.4663
G1 X168.2000 Y141.2540 E4.6690
G1 X166.2540 Y143.2000 E4.8914
G1 X113.7460 Y143.2000 E9.1353
G1 X111.8000 Y141.2540 E9.3577
G1 X111.8000 Y138.7460 E9.5604
G1 X113.7460 Y136.8000 E9.7828
G1 X113.4470 Y136.0800 F4000 ; custom feedrate
G92 E0.0000
G1 X166.5530 Y136.0800 E4.2921 F960 ; custom feedrate
G1 X168.9200 Y138.4470 E4.5627
G1 X168.9200 Y141.5530 E4.8136
G1 X166.5530 Y143.9200 E5.0842
G1 X113.4470 Y143.9200 E9.3763
G1 X111.0800 Y141.5530 E9.6469
G1 X111.0800 Y138.4470 E9.8979
G1 X113.4470 Y136.0800 E10.1685
G1 X113.1490 Y135.3600 F4000 ; custom feedrate
G92 E0.0000
G1 X166.8510 Y135.3600 E4.3403 F720 ; custom feedrate
G1 X169.6400 Y138.1490 E4.6591
G1 X169.6400 Y141.8510 E4.9583
G1 X166.8510 Y144.6400 E5.2771
G1 X113.1490 Y144.6400 E9.6174
G1 X110.3600 Y141.8510 E9.9362
G1 X110.3600 Y138.1490 E10.2353
G1 X113.1490 Y135.3600 E10.5541
G1 X114.2570 Y142.7680 F4000 ; custom feedrate
G92 E0.0000
G1 X112.2320 Y140.7430 E0.2315 F960 ; custom feedrate
G1 X112.2320 Y139.7240 E0.3138
G1 X115.2760 Y142.7680 E0.6617
G1 X116.2940 Y142.7680 E0.7440
G1 X112.3410 Y138.8150 E1.1958
G1 X112.8500 Y138.3060 E1.2540
G1 X117.3120 Y142.7680 E1.7640
G1 X118.3300 Y142.7680 E1.8463
G1 X113.3590 Y137.7970 E2.4144
G1 X113.8690 Y137.2880 E2.4726
G1 X119.3490 Y142.7680 E3.0990
G1 X120.3670 Y142.7680 E3.1813
G1 X114.8310 Y137.2320 E3.8141
G1 X115.8490 Y137.2320 E3.8964
G1 X121.3850 Y142.7680 E4.5291
G1 X122.4030 Y142.7680 E4.6114
G1 X116.8670 Y137.2320 E5.2442
G1 X117.8860 Y137.2320 E5.3265
G1 X123.4220 Y142.7680 E5.9592
G1 X124.4400 Y142.7680 E6.0415
G1 X118.9040 Y137.2320 E6.6743
G1 X119.9220 Y137.2320 E6.7566
G1 X125.4580 Y142.7680 E7.3894
G1 X126.4760 Y142.7680 E7.4717
G1 X120.9400 Y137.2320 E8.1044
G1 X121.9590 Y137.2320 E8.1867
G1 X127.4950 Y142.7680 E8.8195
G1 X128.5130 Y142.7680 E8.9018
G1 X122.9770 Y137.2320 E9.5345
G1 X123.9950 Y137.2320 E9.6168
G1 X129.5310 Y142.7680 E10.2496
G1 X130.5490 Y142.7680 E10.3319
G1 X125.0130 Y137.2320 E10.9647
G1 X126.0310 Y137.2320 E11.0469
G1 X131.5670 Y142.7680 E11.6797
G1 X132.5860 Y142.7680 E11.7620
G1 X127.0500 Y137.2320 E12.3948
G1 X128.0680 Y137.2320 E12.4771
G1 X133.6040 Y142.7680 E13.1098
G1 X134.6220 Y142.7680 E13.1921
G1 X129.0860 Y137.2320 E13.8249
G1 X130.1040 Y137.2320 E13.9072
G1 X135.6400 Y142.7680 E14.5399
G1 X136.6590 Y142.7680 E14.6222
G1 X131.1230 Y137.2320 E15.2550
G1 X132.1410 Y137.2320 E15.3373
G1 X137.6770 Y142.7680 E15.9701
G1 X138.6950 Y142.7680 E16.0524
G1 X133.1590 Y137.2320 E16.6851
G1 X134.1770 Y137.2320 E16.7674
G1 X139.7130 Y142.7680 E17.4002
G1 X140.7320 Y142.7680 E17.4825
G1 X135.1960 Y137.2320 E18.1152
G1 X136.2140 Y137.2320 E18.1975
G1 X141.7500 Y142.7680 E18.8303
G1 X142.7680 Y142.7680 E18.9126
G1 X137.2320 Y137.2320 E19.5454
G1 X138.2500 Y137.2320 E19.6277
G1 X143.7860 Y142.7680 E20.2604
G1 X144.8040 Y142.7680 E20.3427
G1 X139.2680 Y137.2320 E20.9755
G1 X140.2870 Y137.2320 E21.0578
G1 X145.8230 Y142.7680 E21.6905
G1 X146.8410 Y142.7680 E21.7728
G1 X141.3050 Y137.2320 E22.4056
G1 X142.3230 Y137.2320 E22.4879
G1 X147.8590 Y142.7680 E23.1207
G1 X148.8770 Y142.7680 E23.2030
G1 X143.3410 Y137.2320 E23.8357
G1 X144.3600 Y137.2320 E23.9180
G1 X149.8960 Y142.7680 E24.5508
G1 X150.9140 Y142.7680 E24.6331
G1 X145.3780 Y137.2320 E25.2658
G1 X146.3960 Y137.2320 E25.3481
G1 X151.9320 Y142.7680 E25.9809
G1 X152.9500 Y142.7680 E26.0632
G1 X147.4140 Y137.2320 E26.6960
G1 X148.4330 Y137.2320 E26.7783
G1 X153.9690 Y142.7680 E27.4110
G1 X154.9870 Y142.7680 E27.4933
G1 X149.4510 Y137.2320 E28.1261
G1 X150.4690 Y137.2320 E28.2084
G1 X156.0050 Y142.7680 E28.8411
G1 X157.0230 Y142.7680 E28.9234
G1 X151.4870 Y137.2320 E29.5562
G1 X152.5060 Y137.2320 E29.6385
G1 X158.0420 Y142.7680 E30.2713
G1 X159.0600 Y142.7680 E30.3535
G1 X153.5240 Y137.2320 E30.9863
G1 X154.5420 Y137.2320 E31.0686
G1 X160.0780 Y142.7680 E31.7014
G1 X161.0960 Y142.7680 E31.7837
G1 X155.5600 Y137.2320 E32.4164
G1 X156.5780 Y137.2320 E32.4987
G1 X162.1140 Y142.7680 E33.1315
G1 X163.1330 Y142.7680 E33.2138
G1 X157.5970 Y137.2320 E33.8465
G1 X158.6150 Y137.2320 E33.9288
G1 X164.1510 Y142.7680 E34.5616
G1 X165.1690 Y142.7680 E34.6439
G1 X159.6330 Y137.2320 E35.2767
G1 X160.6510 Y137.2320 E35.3590
G1 X166.1310 Y142.7120 E35.9853
G1 X166.6410 Y142.2030 E36.0435
G1 X161.6700 Y137.2320 E36.6117
G1 X162.6880 Y137.2320 E36.6940
G1 X167.1500 Y141.6940 E37.2040
G1 X167.6590 Y141.1850 E37.2622
G1 X163.7060 Y137.2320 E37.7140
G1 X164.7240 Y137.2320 E37.7963
G1 X167.7680 Y140.2760 E38.1442
G1 X167.7680 Y139.2570 E38.2264
G1 X165.7430 Y137.2320 E38.4580
G92 E0.0000
G1 E-2 F2400 ; custom retraction
M104 S230 T0 ; custom hot end temp - A
M106 S127; custom fan 50% from layer 2
G1 Z0.600 F1200
G1 X166.3790 Y136.5000 F4000 ; custom feedrate
G1 E0 F2400 ; custom un-retraction/prime
G92 E0.0000
G1 X168.5000 Y138.6210 E0.2021 F1920 ; custom feedrate
G1 X168.5000 Y141.3790 E0.3878
G1 X166.3790 Y143.5000 E0.5898
G1 X113.6210 Y143.5000 E4.1431
G1 X111.5000 Y141.3790 E4.3452
G1 X111.5000 Y138.6210 E4.5309
G1 X113.6210 Y136.5000 E4.7329
G1 X166.3790 Y136.5000 E8.2863
G1 X166.6270 Y135.9000 F4000 ; custom feedrate
G92 E0.0000
G1 X169.1000 Y138.3730 E0.2355 F1920 ; custom feedrate
G1 X169.1000 Y141.6270 E0.4547
G1 X166.6270 Y144.1000 E0.6903
G1 X113.3730 Y144.1000 E4.2770
G1 X110.9000 Y141.6270 E4.5126
G1 X110.9000 Y138.3730 E4.7318
G1 X113.3730 Y135.9000 E4.9673
G1 X166.6270 Y135.9000 E8.5541
G1 X166.8760 Y135.3000 F4000 ; custom feedrate
G92 E0.0000
G1 X169.7000 Y138.1240 E0.2690 F1440 ; custom feedrate
G1 X169.7000 Y141.8760 E0.5217
G1 X166.8760 Y144.7000 E0.7907
G1 X113.1240 Y144.7000 E4.4109
G1 X110.3000 Y141.8760 E4.6800
G1 X110.3000 Y138.1240 E4.9326
G1 X113.1240 Y135.3000 E5.2016
G1 X166.8760 Y135.3000 E8.8219
G1 X168.1400 Y140.7100 F4000 ; custom feedrate
G92 E0.0000
G1 X165.7100 Y143.1400 E0.2315 F1920 ; custom feedrate
G1 X164.8610 Y143.1400 E0.2886
G1 X168.1400 Y139.8610 E0.6009
G1 X168.1400 Y139.0130 E0.6580
G1 X164.0130 Y143.1400 E1.0511
G1 X163.1640 Y143.1400 E1.1083
G1 X167.8370 Y138.4670 E1.5534
G1 X167.4130 Y138.0430 E1.5938
G1 X162.3160 Y143.1400 E2.0792
G1 X161.4670 Y143.1400 E2.1364
G1 X166.9880 Y137.6190 E2.6623
G1 X166.5640 Y137.1950 E2.7027
G1 X160.6190 Y143.1400 E3.2690
G1 X159.7700 Y143.1400 E3.3261
G1 X166.0500 Y136.8600 E3.9243
G1 X165.2020 Y136.8600 E3.9814
G1 X158.9220 Y143.1400 E4.5796
G1 X158.0730 Y143.1400 E4.6368
G1 X164.3530 Y136.8600 E5.2349
G1 X163.5050 Y136.8600 E5.2921
G1 X157.2250 Y143.1400 E5.8903
G1 X156.3760 Y143.1400 E5.9474
G1 X162.6560 Y136.8600 E6.5456
G1 X161.8080 Y136.8600 E6.6027
G1 X155.5280 Y143.1400 E7.2009
G1 X154.6790 Y143.1400 E7.2580
G1 X160.9590 Y136.8600 E7.8562
G1 X160.1110 Y136.8600 E7.9134
G1 X153.8310 Y143.1400 E8.5115
G1 X152.9820 Y143.1400 E8.5687
G1 X159.2620 Y136.8600 E9.1668
G1 X158.4140 Y136.8600 E9.2240
G1 X152.1340 Y143.1400 E9.8222
G1 X151.2850 Y143.1400 E9.8793
G1 X157.5650 Y136.8600 E10.4775
G1 X156.7160 Y136.8600 E10.5346
G1 X150.4360 Y143.1400 E11.1328
G1 X149.5880 Y143.1400 E11.1899
G1 X155.8680 Y136.8600 E11.7881
G1 X155.0190 Y136.8600 E11.8453
G1 X148.7390 Y143.1400 E12.4434
G1 X147.8910 Y143.1400 E12.5006
G1 X154.1710 Y136.8600 E13.0988
G1 X153.3220 Y136.8600 E13.1559
G1 X147.0420 Y143.1400 E13.7541
G1 X146.1940 Y143.1400 E13.8112
G1 X152.4740 Y136.8600 E14.4094
G1 X151.6250 Y136.8600 E14.4665
G1 X145.3450 Y143.1400 E15.0647
G1 X144.4970 Y143.1400 E15.1219
G1 X150.7770 Y136.8600 E15.7200
G1 X149.9280 Y136.8600 E15.7772
G1 X143.6480 Y143.1400 E16.3753
G1 X142.8000 Y143.1400 E16.4325
G1 X149.0800 Y136.8600 E17.0307
G1 X148.2310 Y136.8600 E17.0878
G1 X141.9510 Y143.1400 E17.6860
G1 X141.1030 Y143.1400 E17.7431
G1 X147.3830 Y136.8600 E18.3413
G1 X146.5340 Y136.8600 E18.3985
G1 X140.2540 Y143.1400 E18.9966
G1 X139.4060 Y143.1400 E19.0538
G1 X145.6860 Y136.8600 E19.6519
G1 X144.8370 Y136.8600 E19.7091
G1 X138.5570 Y143.1400 E20.3073
G1 X137.7090 Y143.1400 E20.3644
G1 X143.9890 Y136.8600 E20.9626
G1 X143.1400 Y136.8600 E21.0197
G1 X136.8600 Y143.1400 E21.6179
G1 X136.0120 Y143.1400 E21.6750
G1 X142.2920 Y136.8600 E22.2732
G1 X141.4430 Y136.8600 E22.3304
G1 X135.1630 Y143.1400 E22.9285
G1 X134.3140 Y143.1400 E22.9857
G1 X140.5940 Y136.8600 E23.5839
G1 X139.7460 Y136.8600 E23.6410
G1 X133.4660 Y143.1400 E24.2392
G1 X132.6170 Y143.1400 E24.2963
G1 X138.8970 Y136.8600 E24.8945
G1 X138.0490 Y136.8600 E24.9516
G1 X131.7690 Y143.1400 E25.5498
G1 X130.9200 Y143.1400 E25.6070
G1 X137.2000 Y136.8600 E26.2051
G1 X136.3520 Y136.8600 E26.2623
G1 X130.0720 Y143.1400 E26.8604
G1 X129.2230 Y143.1400 E26.9176
G1 X135.5030 Y136.8600 E27.5158
G1 X134.6550 Y136.8600 E27.5729
G1 X128.3750 Y143.1400 E28.1711
G1 X127.5260 Y143.1400 E28.2282
G1 X133.8060 Y136.8600 E28.8264
G1 X132.9580 Y136.8600 E28.8836
G1 X126.6780 Y143.1400 E29.4817
G1 X125.8290 Y143.1400 E29.5389
G1 X132.1090 Y136.8600 E30.1370
G1 X131.2610 Y136.8600 E30.1942
G1 X124.9810 Y143.1400 E30.7924
G1 X124.1320 Y143.1400 E30.8495
G1 X130.4120 Y136.8600 E31.4477
G1 X129.5640 Y136.8600 E31.5048
G1 X123.2840 Y143.1400 E32.1030
G1 X122.4350 Y143.1400 E32.1601
G1 X128.7150 Y136.8600 E32.7583
G1 X127.8670 Y136.8600 E32.8155
G1 X121.5870 Y143.1400 E33.4136
G1 X120.7380 Y143.1400 E33.4708
G1 X127.0180 Y136.8600 E34.0690
G1 X126.1690 Y136.8600 E34.1261
G1 X119.8890 Y143.1400 E34.7243
G1 X119.0410 Y143.1400 E34.7814
G1 X125.3210 Y136.8600 E35.3796
G1 X124.4720 Y136.8600 E35.4367
G1 X118.1920 Y143.1400 E36.0349
G1 X117.3440 Y143.1400 E36.0921
G1 X123.6240 Y136.8600 E36.6902
G1 X122.7750 Y136.8600 E36.7474
G1 X116.4950 Y143.1400 E37.3455
G1 X115.6470 Y143.1400 E37.4027
G1 X121.9270 Y136.8600 E38.0009
G1 X121.0780 Y136.8600 E38.0580
G1 X114.7980 Y143.1400 E38.6562
G1 X113.9500 Y143.1400 E38.7133
G1 X120.2300 Y136.8600 E39.3115
G1 X119.3810 Y136.8600 E39.3686
G1 X113.4360 Y142.8050 E39.9349
G1 X113.0120 Y142.3810 E39.9754
G1 X118.5330 Y136.8600 E40.5012
G1 X117.6840 Y136.8600 E40.5584
G1 X112.5870 Y141.9570 E41.0439
G1 X112.1630 Y141.5330 E41.0843
G1 X116.8360 Y136.8600 E41.5293
G1 X115.9870 Y136.8600 E41.5865
G1 X111.8600 Y140.9870 E41.9796
G1 X111.8600 Y140.1390 E42.0368
G1 X115.1390 Y136.8600 E42.3490
G1 X114.2900 Y136.8600 E42.4062
G1 X111.8600 Y139.2900 E42.6377
G92 E0.0000
G1 E-2 F2400 ; custom retraction
;layer 3, Z = 0.900
;fan3;
G1 Z0.900 F1200
G1 X111.5000 Y138.6210 F4000 ; custom feedrate
G1 E0 F2400 ; custom un-retraction/prime
G92 E0.0000
G1 X113.6210 Y136.5000 E0.2021 F1920 ; custom feedrate
G1 X166.3790 Y136.5000 E3.7554
G1 X168.5000 Y138.6210 E3.9574
G1 X168.5000 Y141.3790 E4.1431
G1 X166.3790 Y143.5000 E4.3452
G1 X113.6210 Y143.5000 E7.8985
G1 X111.5000 Y141.3790 E8.1005
G1 X111.5000 Y138.6210 E8.2863
G1 X110.9000 Y138.3730 F4000 ; custom feedrate
G92 E0.0000
G1 X113.3730 Y135.9000 E0.2355 F1920 ; custom feedrate
G1 X166.6270 Y135.9000 E3.8223
G1 X169.1000 Y138.3730 E4.0578
G1 X169.1000 Y141.6270 E4.2770
G1 X166.6270 Y144.1000 E4.5126
G1 X113.3730 Y144.1000 E8.0993
G1 X110.9000 Y141.6270 E8.3349
G1 X110.9000 Y138.3730 E8.5541
G1 X110.3000 Y138.1240 F4000 ; custom feedrate
G92 E0.0000
G1 X113.1240 Y135.3000 E0.2690 F1440 ; custom feedrate
G1 X166.8760 Y135.3000 E3.8893
G1 X169.7000 Y138.1240 E4.1583
G1 X169.7000 Y141.8760 E4.4109
G1 X166.8760 Y144.7000 E4.6800
G1 X113.1240 Y144.7000 E8.3002
G1 X110.3000 Y141.8760 E8.5692
G1 X110.3000 Y138.1240 E8.8219
G1 X114.2900 Y143.1400 F4000 ; custom feedrate
G92 E0.0000
G1 X111.8600 Y140.7100 E0.2315 F1920 ; custom feedrate
G1 X111.8600 Y139.8610 E0.2886
G1 X115.1390 Y143.1400 E0.6009
G1 X115.9870 Y143.1400 E0.6580
G1 X111.8600 Y139.0130 E1.0512
G1 X111.8600 Y138.7700 E1.0675
G1 X112.1630 Y138.4670 E1.0963
G1 X116.8360 Y143.1400 E1.5414
G1 X117.6840 Y143.1400 E1.5986
G1 X112.5870 Y138.0430 E2.0840
G1 X113.0120 Y137.6190 E2.1244
G1 X118.5330 Y143.1400 E2.6503
G1 X119.3810 Y143.1400 E2.7075
G1 X113.4360 Y137.1950 E3.2738
G1 X113.7700 Y136.8600 E3.3057
G1 X113.9500 Y136.8600 E3.3177
G1 X120.2300 Y143.1400 E3.9159
G1 X121.0780 Y143.1400 E3.9730
G1 X114.7980 Y136.8600 E4.5712
G1 X115.6470 Y136.8600 E4.6284
G1 X121.9270 Y143.1400 E5.2265
G1 X122.7750 Y143.1400 E5.2837
G1 X116.4950 Y136.8600 E5.8819
G1 X117.3440 Y136.8600 E5.9390
G1 X123.6240 Y143.1400 E6.5372
G1 X124.4720 Y143.1400 E6.5943
G1 X118.1920 Y136.8600 E7.1925
G1 X119.0410 Y136.8600 E7.2496
G1 X125.3210 Y143.1400 E7.8478
G1 X126.1690 Y143.1400 E7.9050
G1 X119.8890 Y136.8600 E8.5031
G1 X120.7380 Y136.8600 E8.5603
G1 X127.0180 Y143.1400 E9.1584
G1 X127.8670 Y143.1400 E9.2156
G1 X121.5870 Y136.8600 E9.8138
G1 X122.4350 Y136.8600 E9.8709
G1 X128.7150 Y143.1400 E10.4691
G1 X129.5640 Y143.1400 E10.5262
G1 X123.2840 Y136.8600 E11.1244
G1 X124.1320 Y136.8600 E11.1816
G1 X130.4120 Y143.1400 E11.7797
G1 X131.2610 Y143.1400 E11.8369
G1 X124.9810 Y136.8600 E12.4350
G1 X125.8290 Y136.8600 E12.4922
G1 X132.1090 Y143.1400 E13.0904
G1 X132.9580 Y143.1400 E13.1475
G1 X126.6780 Y136.8600 E13.7457
G1 X127.5260 Y136.8600 E13.8028
G1 X133.8060 Y143.1400 E14.4010
G1 X134.6550 Y143.1400 E14.4581
G1 X128.3750 Y136.8600 E15.0563
G1 X129.2230 Y136.8600 E15.1135
G1 X135.5030 Y143.1400 E15.7116
G1 X136.3520 Y143.1400 E15.7688
G1 X130.0720 Y136.8600 E16.3670
G1 X130.9200 Y136.8600 E16.4241
G1 X137.2000 Y143.1400 E17.0223
G1 X138.0490 Y143.1400 E17.0794
G1 X131.7690 Y136.8600 E17.6776
G1 X132.6170 Y136.8600 E17.7347
G1 X138.8970 Y143.1400 E18.3329
G1 X139.7460 Y143.1400 E18.3901
G1 X133.4660 Y136.8600 E18.9882
G1 X134.3140 Y136.8600 E19.0454
G1 X140.5940 Y143.1400 E19.6435
G1 X141.4430 Y143.1400 E19.7007
G1 X135.1630 Y136.8600 E20.2989
G1 X136.0110 Y136.8600 E20.3560
G1 X142.2910 Y143.1400 E20.9542
G1 X143.1400 Y143.1400 E21.0113
G1 X136.8600 Y136.8600 E21.6095
G1 X137.7090 Y136.8600 E21.6666
G1 X143.9890 Y143.1400 E22.2648
G1 X144.8370 Y143.1400 E22.3220
G1 X138.5570 Y136.8600 E22.9201
G1 X139.4060 Y136.8600 E22.9773
G1 X145.6860 Y143.1400 E23.5755
G1 X146.5340 Y143.1400 E23.6326
G1 X140.2540 Y136.8600 E24.2308
G1 X141.1030 Y136.8600 E24.2879
G1 X147.3830 Y143.1400 E24.8861
G1 X148.2310 Y143.1400 E24.9432
G1 X141.9510 Y136.8600 E25.5414
G1 X142.8000 Y136.8600 E25.5986
G1 X149.0800 Y143.1400 E26.1967
G1 X149.9280 Y143.1400 E26.2539
G1 X143.6480 Y136.8600 E26.8520
G1 X144.4970 Y136.8600 E26.9092
G1 X150.7770 Y143.1400 E27.5074
G1 X151.6250 Y143.1400 E27.5645
G1 X145.3450 Y136.8600 E28.1627
G1 X146.1940 Y136.8600 E28.2198
G1 X152.4740 Y143.1400 E28.8180
G1 X153.3220 Y143.1400 E28.8752
G1 X147.0420 Y136.8600 E29.4733
G1 X147.8910 Y136.8600 E29.5305
G1 X154.1710 Y143.1400 E30.1286
G1 X155.0190 Y143.1400 E30.1858
G1 X148.7390 Y136.8600 E30.7840
G1 X149.5880 Y136.8600 E30.8411
G1 X155.8680 Y143.1400 E31.4393
G1 X156.7160 Y143.1400 E31.4964
G1 X150.4360 Y136.8600 E32.0946
G1 X151.2850 Y136.8600 E32.1517
G1 X157.5650 Y143.1400 E32.7499
G1 X158.4140 Y143.1400 E32.8071
G1 X152.1340 Y136.8600 E33.4052
G1 X152.9820 Y136.8600 E33.4624
G1 X159.2620 Y143.1400 E34.0606
G1 X160.1110 Y143.1400 E34.1177
G1 X153.8310 Y136.8600 E34.7159
G1 X154.6790 Y136.8600 E34.7730
G1 X160.9590 Y143.1400 E35.3712
G1 X161.8080 Y143.1400 E35.4283
G1 X155.5280 Y136.8600 E36.0265
G1 X156.3760 Y136.8600 E36.0837
G1 X162.6560 Y143.1400 E36.6818
G1 X163.5050 Y143.1400 E36.7390
G1 X157.2250 Y136.8600 E37.3371
G1 X158.0730 Y136.8600 E37.3943
G1 X164.3530 Y143.1400 E37.9925
G1 X165.2020 Y143.1400 E38.0496
G1 X158.9220 Y136.8600 E38.6478
G1 X159.7700 Y136.8600 E38.7049
G1 X166.0500 Y143.1400 E39.3031
G1 X166.2300 Y143.1400 E39.3152
G1 X166.5640 Y142.8050 E39.3470
G1 X160.6190 Y136.8600 E39.9133
G1 X161.4670 Y136.8600 E39.9705
G1 X166.9880 Y142.3810 E40.4964
G1 X167.4130 Y141.9570 E40.5368
G1 X162.3160 Y136.8600 E41.0223
G1 X163.1640 Y136.8600 E41.0794
G1 X167.8370 Y141.5330 E41.5245
G1 X168.1400 Y141.2300 E41.5533
G1 X168.1400 Y140.9870 E41.5697
G1 X164.0130 Y136.8600 E41.9628
G1 X164.8610 Y136.8600 E42.0199
G1 X168.1400 Y140.1390 E42.3322
G1 X168.1400 Y139.2900 E42.3894
G1 X165.7100 Y136.8600 E42.6208
G92 E0.0000
G1 E-2 F2400 ; custom retraction
;layer 4, Z = 1.200
;fan4;
G1 Z1.200 F1200
G1 X166.0500 Y138.9500 F4000 ; custom feedrate
G1 E0 F2400 ; custom un-retraction/prime
G92 E0.0000
G1 X166.0500 Y141.0500 E0.1414 F1920 ; custom feedrate
G1 X159.9310 Y141.0500 E0.5535
G1 X159.9310 Y138.9500 E0.6950
G1 X166.0500 Y138.9500 E1.1071
G1 X166.6500 Y138.3500 F4000 ; custom feedrate
G92 E0.0000
G1 X166.6500 Y141.6500 E0.2223 F1920 ; custom feedrate
G1 X159.3310 Y141.6500 E0.7152
G1 X159.3310 Y138.3500 E0.9374
G1 X166.6500 Y138.3500 E1.4304
G1 X167.2500 Y137.7500 F4000 ; custom feedrate
G92 E0.0000
G1 X167.2500 Y142.2500 E0.3031 F1440 ; custom feedrate
G1 X158.7310 Y142.2500 E0.8768
G1 X158.7310 Y137.7500 E1.1799
G1 X167.2500 Y137.7500 E1.7537
G92 E0.0000
G1 E-2 F2400 ; custom retraction
G91;
G1 Z1 F1200; custom z hop
G90;
G1 X158.7310 Y137.9580 F4000 ; custom feedrate
G1 X119.2690 Y137.7500
G1 X119.2690 Y138.9210
G1 X118.0690 Y138.9500
G1 Z1.200 F1200
G1 E0 F2400 ; custom un-retraction/prime
G92 E0.0000
G1 X118.0690 Y141.0500 E0.1414 F1920 ; custom feedrate
G1 X116.9500 Y141.0500 E0.2168
G1 X116.9500 Y138.9500 E0.3582
G1 X118.0690 Y138.9500 E0.4336
G1 X118.6690 Y138.3500 F4000 ; custom feedrate
G92 E0.0000
G1 X118.6690 Y141.6500 E0.2223 F1920 ; custom feedrate
G1 X116.3500 Y141.6500 E0.3784
G1 X116.3500 Y138.3500 E0.6007
G1 X118.6690 Y138.3500 E0.7568
G1 X119.2690 Y137.7500 F4000 ; custom feedrate
G92 E0.0000
G1 X119.2690 Y142.2500 E0.3031 F1440 ; custom feedrate
G1 X115.7500 Y142.2500 E0.5401
G1 X115.7500 Y137.7500 E0.8431
G1 X119.2690 Y137.7500 E1.0801
G92 E0.0000
G1 E-2 F2400 ; custom retraction
G91;
G1 Z1 F1200; custom z hop
G90;
G1 X112.1920 Y139.3080 F4000 ; custom feedrate
G1 Z1.200 F1200
G1 E0 F2400 ; custom un-retraction/prime
G92 E0.0000
G1 X112.1920 Y140.6920 E0.0932 F1440 ; custom feedrate
G1 X110.8080 Y140.6920 E0.1865
G1 X110.8080 Y139.3080 E0.2797
G1 X112.1920 Y139.3080 E0.3729
G1 X111.6670 Y140.3320 F4000 ; custom feedrate
G92 E0.0000
G1 X111.8320 Y140.1670 E0.0158 F2400 ; custom feedrate
G1 X111.8320 Y139.6680 E0.0494
G1 X111.4820 Y139.6680 E0.0729
G1 X111.1680 Y139.9820 E0.1029
G92 E0.0000
G1 E-2 F2400 ; custom retraction
;layer 5, Z = 1.500
;fan5;
;
G1 Z1.500 F1200
G1 X110.8550 Y139.3550 F4000 ; custom feedrate
G1 E0 F2400 ; custom un-retraction/prime
G92 E0.0000
G1 X112.1450 Y139.3550 E0.0868 F1440 ; custom feedrate
G1 X112.1450 Y140.6450 E0.1737
G1 X110.8550 Y140.6450 E0.2605
G1 X110.8550 Y139.3550 E0.3473
G1 X111.2150 Y140.0650 F4000 ; custom feedrate
G92 E0.0000
G1 X111.4350 Y140.2850 E0.0209 F2400 ; custom feedrate
G1 X111.7850 Y140.2850 E0.0444
G1 X111.7850 Y139.7860 E0.0780
G1 X111.7140 Y139.7150 E0.0847
G92 E0.0000
G1 E-2 F2400 ; custom retraction
G91;
G1 Z1 F1200; custom z hop
G90;
G1 X112.1450 Y139.6220 F4000 ; custom feedrate
G1 X112.1450 Y139.3550
G1 X115.4500 Y138.9090
G1 X116.6500 Y138.6500
G1 Z1.500 F1200
G1 E0 F2400 ; custom un-retraction/prime
G92 E0.0000
G1 X118.3880 Y138.6500 E0.1170 F1920 ; custom feedrate
G1 X118.3880 Y141.3500 E0.2989
G1 X116.6500 Y141.3500 E0.4159
G1 X116.6500 Y138.6500 E0.5978
G1 X116.0500 Y138.0500 F4000 ; custom feedrate
G92 E0.0000
G1 X118.9880 Y138.0500 E0.1979 F1920 ; custom feedrate
G1 X118.9880 Y141.9500 E0.4605
G1 X116.0500 Y141.9500 E0.6584
G1 X116.0500 Y138.0500 E0.9211
G1 X115.4500 Y137.4500 F4000 ; custom feedrate
G92 E0.0000
G1 X119.5880 Y137.4500 E0.2787 F1440 ; custom feedrate
G1 X119.5880 Y142.5500 E0.6222
G1 X115.4500 Y142.5500 E0.9009
G1 X115.4500 Y137.4500 E1.2444
G92 E0.0000
G1 E-2 F2400 ; custom retraction
G91;
G1 Z1 F1200; custom z hop
G90;
G1 X119.5880 Y137.5620 F4000 ; custom feedrate
G1 X158.4120 Y137.4500
G1 X158.4120 Y138.6170
G1 X159.6120 Y138.6500
G1 Z1.500 F1200
G1 E0 F2400 ; custom un-retraction/prime
G92 E0.0000
G1 X166.3500 Y138.6500 E0.4538 F1920 ; custom feedrate
G1 X166.3500 Y141.3500 E0.6356
G1 X159.6120 Y141.3500 E1.0894
G1 X159.6120 Y138.6500 E1.2713
G1 X159.0120 Y138.0500 F4000 ; custom feedrate
G92 E0.0000
G1 X166.9500 Y138.0500 E0.5346 F1920 ; custom feedrate
G1 X166.9500 Y141.9500 E0.7973
G1 X159.0120 Y141.9500 E1.3319
G1 X159.0120 Y138.0500 E1.5946
G1 X158.4120 Y137.4500 F4000 ; custom feedrate
G92 E0.0000
G1 X167.5500 Y137.4500 E0.6154 F1440 ; custom feedrate
G1 X167.5500 Y142.5500 E0.9589
G1 X158.4120 Y142.5500 E1.5744
G1 X158.4120 Y137.4500 E1.9179
G1 X160.2980 Y139.0850 F4000 ; custom feedrate
G92 E0.0000
G1 X162.1280 Y140.9150 E0.2179 F2400 ; custom feedrate
G1 X165.9150 Y140.9150 E0.5367
G1 X165.9150 Y139.3980 E0.6644
G1 X165.6020 Y139.0850 E0.7017
G92 E0.0000
G1 E-2 F2400 ; custom retraction
;layer 6, Z = 1.800
;fan6;
G1 Z1.800 F1200
G1 X166.5000 Y138.5000 F4000 ; custom feedrate
G1 E0 F2400 ; custom un-retraction/prime
G92 E0.0000
G1 X166.5000 Y141.5000 E0.2021 F1920 ; custom feedrate
G1 X159.4710 Y141.5000 E0.6755
G1 X159.4710 Y138.5000 E0.8775
G1 X166.5000 Y138.5000 E1.3510
G1 X167.1000 Y137.9000 F4000 ; custom feedrate
G92 E0.0000
G1 X167.1000 Y142.1000 E0.2829 F1920 ; custom feedrate
G1 X158.8710 Y142.1000 E0.8371
G1 X158.8710 Y137.9000 E1.1200
G1 X167.1000 Y137.9000 E1.6743
G1 X167.7000 Y137.3000 F4000 ; custom feedrate
G92 E0.0000
G1 X167.7000 Y142.7000 E0.3637 F1440 ; custom feedrate
G1 X158.2710 Y142.7000 E0.9988
G1 X158.2710 Y137.3000 E1.3625
G1 X167.7000 Y137.3000 E1.9976
G1 X165.4520 Y141.0650 F4000 ; custom feedrate
G92 E0.0000
G1 X166.0650 Y140.4520 E0.0730 F2400 ; custom feedrate
G1 X166.0650 Y138.9350 E0.2007
G1 X162.2780 Y138.9350 E0.5195
G1 X160.1480 Y141.0650 E0.7731
G92 E0.0000
G1 E-2 F2400 ; custom retraction
G91;
G1 Z1 F1200; custom z hop
G90;
G1 X118.5290 Y141.5000 F4000 ; custom feedrate
G1 Z1.800 F1200
G1 E0 F2400 ; custom un-retraction/prime
G92 E0.0000
G1 X116.5000 Y141.5000 E0.1367 F1920 ; custom feedrate
G1 X116.5000 Y138.5000 E0.3387
G1 X118.5290 Y138.5000 E0.4754
G1 X118.5290 Y141.5000 E0.6775
G1 X119.1290 Y142.1000 F4000 ; custom feedrate
G92 E0.0000
G1 X115.9000 Y142.1000 E0.2175 F1920 ; custom feedrate
G1 X115.9000 Y137.9000 E0.5004
G1 X119.1290 Y137.9000 E0.7179
G1 X119.1290 Y142.1000 E1.0007
G1 X119.7290 Y142.7000 F4000 ; custom feedrate
G92 E0.0000
G1 X115.3000 Y142.7000 E0.2983 F1440 ; custom feedrate
G1 X115.3000 Y137.3000 E0.6620
G1 X119.7290 Y137.3000 E0.9603
G1 X119.7290 Y142.7000 E1.3240
G92 E0.0000
G1 E-2 F2400 ; custom retraction
G91;
G1 Z1 F1200; custom z hop
G90;
G1 X115.3000 Y141.4800 F4000 ; custom feedrate
G1 X112.0970 Y140.5970
G1 Z1.800 F1200
G1 E0 F2400 ; custom un-retraction/prime
G92 E0.0000
G1 X110.9030 Y140.5970 E0.0804 F1440 ; custom feedrate
G1 X110.9030 Y139.4030 E0.1609
G1 X112.0970 Y139.4030 E0.2413
G1 X112.0970 Y140.5970 E0.3217
G1 X111.3870 Y139.7630 F4000 ; custom feedrate
G92 E0.0000
G1 X111.2630 Y139.8870 E0.0118 F2400 ; custom feedrate
G92 E0.0000
G1 E-2 F2400 ; custom retraction
;layer 7, Z = 2.100
;fan7;
G1 Z2.100 F1200
G1 X110.9500 Y139.4500 F4000 ; custom feedrate
G1 E0 F2400 ; custom un-retraction/prime
G92 E0.0000
G1 X112.0500 Y139.4500 E0.0740 F1440 ; custom feedrate
G1 X112.0500 Y140.5500 E0.1480
G1 X110.9500 Y140.5500 E0.2221
G1 X110.9500 Y139.4500 E0.2961
G1 X111.3100 Y140.1600 F4000 ; custom feedrate
G92 E0.0000
G1 X111.3400 Y140.1900 E0.0028 F2400 ; custom feedrate
G92 E0.0000
G1 E-2 F2400 ; custom retraction
G91;
G1 Z1 F1200; custom z hop
G90;
G1 X112.0500 Y140.3700 F4000 ; custom feedrate
G1 X112.0500 Y140.5500
G1 X115.3000 Y141.1950
G1 X116.5000 Y141.5000
G1 Z2.100 F1200
G1 E0 F2400 ; custom un-retraction/prime
G92 E0.0000
G1 X116.5000 Y138.5000 E0.2021 F1920 ; custom feedrate
G1 X118.5610 Y138.5000 E0.3409
G1 X118.5610 Y141.5000 E0.5429
G1 X116.5000 Y141.5000 E0.6818
G1 X115.9000 Y142.1000 F4000 ; custom feedrate
G92 E0.0000
G1 X115.9000 Y137.9000 E0.2829 F1920 ; custom feedrate
G1 X119.1610 Y137.9000 E0.5025
G1 X119.1610 Y142.1000 E0.7854
G1 X115.9000 Y142.1000 E1.0051
G1 X115.3000 Y142.7000 F4000 ; custom feedrate
G92 E0.0000
G1 X115.3000 Y137.3000 E0.3637 F1440 ; custom feedrate
G1 X119.7610 Y137.3000 E0.6642
G1 X119.7610 Y142.7000 E1.0279
G1 X115.3000 Y142.7000 E1.3283
G92 E0.0000
G1 E-2 F2400 ; custom retraction
G91;
G1 Z1 F1200; custom z hop
G90;
G1 X119.7610 Y142.5790 F4000 ; custom feedrate
G1 X158.2390 Y142.7000
G1 X158.2390 Y141.5330
G1 X159.4390 Y141.5000
G1 Z2.100 F1200
G1 E0 F2400 ; custom un-retraction/prime
G92 E0.0000
G1 X159.4390 Y138.5000 E0.2021 F1920 ; custom feedrate
G1 X166.5000 Y138.5000 E0.6776
G1 X166.5000 Y141.5000 E0.8797
G1 X159.4390 Y141.5000 E1.3553
G1 X158.8390 Y142.1000 F4000 ; custom feedrate
G92 E0.0000
G1 X158.8390 Y137.9000 E0.2829 F1920 ; custom feedrate
G1 X167.1000 Y137.9000 E0.8393
G1 X167.1000 Y142.1000 E1.1222
G1 X158.8390 Y142.1000 E1.6786
G1 X158.2390 Y142.7000 F4000 ; custom feedrate
G92 E0.0000
G1 X158.2390 Y137.3000 E0.3637 F1440 ; custom feedrate
G1 X167.7000 Y137.3000 E1.0009
G1 X167.7000 Y142.7000 E1.3646
G1 X158.2390 Y142.7000 E2.0019
G1 X160.1480 Y138.9350 F4000 ; custom feedrate
G92 E0.0000
G1 X162.2780 Y141.0650 E0.2536 F2400 ; custom feedrate
G1 X166.0650 Y141.0650 E0.5724
G1 X166.0650 Y139.5480 E0.7001
G1 X165.4520 Y138.9350 E0.7731
G92 E0.0000
G1 E-2 F2400 ; custom retraction
;layer 8, Z = 2.400
;fan8;
G1 Z2.400 F1200
G1 X166.5000 Y138.5000 F4000 ; custom feedrate
G1 E0 F2400 ; custom un-retraction/prime
G92 E0.0000
G1 X166.5000 Y141.5000 E0.2021 F1920 ; custom feedrate
G1 X159.3950 Y141.5000 E0.6806
G1 X159.3950 Y138.5000 E0.8826
G1 X166.5000 Y138.5000 E1.3612
G1 X167.1000 Y137.9000 F4000 ; custom feedrate
G92 E0.0000
G1 X167.1000 Y142.1000 E0.2829 F1920 ; custom feedrate
G1 X158.7950 Y142.1000 E0.8422
G1 X158.7950 Y137.9000 E1.1251
G1 X167.1000 Y137.9000 E1.6845
G1 X167.7000 Y137.3000 F4000 ; custom feedrate
G92 E0.0000
G1 X167.7000 Y142.7000 E0.3637 F1440 ; custom feedrate
G1 X158.1950 Y142.7000 E1.0039
G1 X158.1950 Y137.3000 E1.3676
G1 X167.7000 Y137.3000 E2.0078
G1 X165.4520 Y141.0650 F4000 ; custom feedrate
G92 E0.0000
G1 X166.0650 Y140.4520 E0.0730 F2400 ; custom feedrate
G1 X166.0650 Y138.9350 E0.2007
G1 X162.2780 Y138.9350 E0.5195
G1 X160.1480 Y141.0650 E0.7731
G92 E0.0000
G1 E-2 F2400 ; custom retraction
G91;
G1 Z1 F1200; custom z hop
G90;
G1 X118.6050 Y141.5000 F4000 ; custom feedrate
G1 Z2.400 F1200
G1 E0 F2400 ; custom un-retraction/prime
G92 E0.0000
G1 X116.5000 Y141.5000 E0.1418 F1920 ; custom feedrate
G1 X116.5000 Y138.5000 E0.3438
G1 X118.6050 Y138.5000 E0.4856
G1 X118.6050 Y141.5000 E0.6877
G1 X119.2050 Y142.1000 F4000 ; custom feedrate
G92 E0.0000
G1 X115.9000 Y142.1000 E0.2226 F1920 ; custom feedrate
G1 X115.9000 Y137.9000 E0.5055
G1 X119.2050 Y137.9000 E0.7281
G1 X119.2050 Y142.1000 E1.0109
G1 X119.8050 Y142.7000 F4000 ; custom feedrate
G92 E0.0000
G1 X115.3000 Y142.7000 E0.3034 F1440 ; custom feedrate
G1 X115.3000 Y137.3000 E0.6671
G1 X119.8050 Y137.3000 E0.9705
G1 X119.8050 Y142.7000 E1.3342
G92 E0.0000
G1 E-2 F2400 ; custom retraction
G91;
G1 Z1 F1200; custom z hop
G90;
G1 X115.3000 Y141.4310 F4000 ; custom feedrate
G1 X112.0020 Y140.5020
G1 Z2.400 F1200
G1 E0 F2400 ; custom un-retraction/prime
G92 E0.0000
G1 X110.9980 Y140.5020 E0.0676 F1440 ; custom feedrate
G1 X110.9980 Y139.4980 E0.1352
G1 X112.0020 Y139.4980 E0.2029
G1 X112.0020 Y140.5020 E0.2705
G92 E0.0000
G1 E-2 F2400 ; custom retraction
;layer 9, Z = 2.700
;fan9;
G1 Z2.700 F1200
G1 X111.9540 Y140.4550 F4000 ; custom feedrate
G1 E0 F2400 ; custom un-retraction/prime
G92 E0.0000
G1 X111.0450 Y140.4550 E0.0612 F1440 ; custom feedrate
G1 X111.0450 Y139.5450 E0.1224
G1 X111.9540 Y139.5450 E0.1837
G1 X111.9540 Y140.4550 E0.2449
G92 E0.0000
G1 E-2 F2400 ; custom retraction
G91;
G1 Z1 F1200; custom z hop
G90;
G1 X116.5000 Y141.5000 F4000 ; custom feedrate
G1 Z2.700 F1200
G1 E0 F2400 ; custom un-retraction/prime
G92 E0.0000
G1 X116.5000 Y138.5000 E0.2021 F1920 ; custom feedrate
G1 X118.6610 Y138.5000 E0.3476
G1 X118.6610 Y141.5000 E0.5497
G1 X116.5000 Y141.5000 E0.6952
G1 X115.9000 Y142.1000 F4000 ; custom feedrate
G92 E0.0000
G1 X115.9000 Y137.9000 E0.2829 F1920 ; custom feedrate
G1 X119.2610 Y137.9000 E0.5092
G1 X119.2610 Y142.1000 E0.7921
G1 X115.9000 Y142.1000 E1.0185
G1 X115.3000 Y142.7000 F4000 ; custom feedrate
G92 E0.0000
G1 X115.3000 Y137.3000 E0.3637 F1440 ; custom feedrate
G1 X119.8610 Y137.3000 E0.6709
G1 X119.8610 Y142.7000 E1.0346
G1 X115.3000 Y142.7000 E1.3418
G92 E0.0000
G1 E-2 F2400 ; custom retraction
G91;
G1 Z1 F1200; custom z hop
G90;
G1 X119.8610 Y142.5760 F4000 ; custom feedrate
G1 X158.1390 Y142.7000
G1 X158.1390 Y141.5330
G1 X159.3390 Y141.5000
G1 Z2.700 F1200
G1 E0 F2400 ; custom un-retraction/prime
G92 E0.0000
G1 X159.3390 Y138.5000 E0.2021 F1920 ; custom feedrate
G1 X166.5000 Y138.5000 E0.6844
G1 X166.5000 Y141.5000 E0.8864
G1 X159.3390 Y141.5000 E1.3687
G1 X158.7390 Y142.1000 F4000 ; custom feedrate
G92 E0.0000
G1 X158.7390 Y137.9000 E0.2829 F1920 ; custom feedrate
G1 X167.1000 Y137.9000 E0.8460
G1 X167.1000 Y142.1000 E1.1289
G1 X158.7390 Y142.1000 E1.6920
G1 X158.1390 Y142.7000 F4000 ; custom feedrate
G92 E0.0000
G1 X158.1390 Y137.3000 E0.3637 F1440 ; custom feedrate
G1 X167.7000 Y137.3000 E1.0076
G1 X167.7000 Y142.7000 E1.3713
G1 X158.1390 Y142.7000 E2.0153
G1 X160.1480 Y138.9350 F4000 ; custom feedrate
G92 E0.0000
G1 X162.2780 Y141.0650 E0.2536 F2400 ; custom feedrate
G1 X166.0650 Y141.0650 E0.5724
G1 X166.0650 Y139.5480 E0.7001
G1 X165.4520 Y138.9350 E0.7731
G92 E0.0000
G1 E-2 F2400 ; custom retraction
;layer 10, Z = 3.000
;fan10;
G1 Z3.000 F1200
G1 X166.5000 Y138.5000 F4000 ; custom feedrate
G1 E0 F2400 ; custom un-retraction/prime
G92 E0.0000
G1 X166.5000 Y141.5000 E0.2021 F1920 ; custom feedrate
G1 X159.2700 Y141.5000 E0.6890
G1 X159.2700 Y138.5000 E0.8910
G1 X166.5000 Y138.5000 E1.3780
G1 X167.1000 Y137.9000 F4000 ; custom feedrate
G92 E0.0000
G1 X167.1000 Y142.1000 E0.2829 F1920 ; custom feedrate
G1 X158.6700 Y142.1000 E0.8506
G1 X158.6700 Y137.9000 E1.1335
G1 X167.1000 Y137.9000 E1.7012
G1 X167.7000 Y137.3000 F4000 ; custom feedrate
G92 E0.0000
G1 X167.7000 Y142.7000 E0.3637 F1440 ; custom feedrate
G1 X158.0700 Y142.7000 E1.0123
G1 X158.0700 Y137.3000 E1.3760
G1 X167.7000 Y137.3000 E2.0245
G1 X165.4520 Y141.0650 F4000 ; custom feedrate
G92 E0.0000
G1 X166.0650 Y140.4520 E0.0730 F2400 ; custom feedrate
G1 X166.0650 Y138.9350 E0.2007
G1 X162.2780 Y138.9350 E0.5195
G1 X160.1480 Y141.0650 E0.7731
G92 E0.0000
G1 E-2 F2400 ; custom retraction
G91;
G1 Z1 F1200; custom z hop
G90;
G1 X118.7300 Y141.5000 F4000 ; custom feedrate
G1 Z3.000 F1200
G1 E0 F2400 ; custom un-retraction/prime
G92 E0.0000
G1 X116.5000 Y141.5000 E0.1502 F1920 ; custom feedrate
G1 X116.5000 Y138.5000 E0.3522
G1 X118.7300 Y138.5000 E0.5024
G1 X118.7300 Y141.5000 E0.7044
G1 X119.3300 Y142.1000 F4000 ; custom feedrate
G92 E0.0000
G1 X115.9000 Y142.1000 E0.2310 F1920 ; custom feedrate
G1 X115.9000 Y137.9000 E0.5139
G1 X119.3300 Y137.9000 E0.7448
G1 X119.3300 Y142.1000 E1.0277
G1 X119.9300 Y142.7000 F4000 ; custom feedrate
G92 E0.0000
G1 X115.3000 Y142.7000 E0.3118 F1440 ; custom feedrate
G1 X115.3000 Y137.3000 E0.6755
G1 X119.9300 Y137.3000 E0.9873
G1 X119.9300 Y142.7000 E1.3510
G92 E0.0000
G1 E-2 F2400 ; custom retraction
G91;
G1 Z1 F1200; custom z hop
G90;
G1 X111.9070 Y140.4070 F4000 ; custom feedrate
G1 Z3.000 F1200
G1 E0 F2400 ; custom un-retraction/prime
G92 E0.0000
G1 X111.0930 Y140.4070 E0.0548 F1440 ; custom feedrate
G1 X111.0930 Y139.5930 E0.1096
G1 X111.9070 Y139.5930 E0.1645
G1 X111.9070 Y140.4070 E0.2193
G92 E0.0000
G1 E-2 F2400 ; custom retraction
;layer 11, Z = 3.300
;fan11;
G1 Z3.300 F1200
G1 X111.8590 Y140.3590 F4000 ; custom feedrate
G1 E0 F2400 ; custom un-retraction/prime
G92 E0.0000
G1 X111.1410 Y140.3590 E0.0484 F1440 ; custom feedrate
G1 X111.1410 Y139.6410 E0.0968
G1 X111.8590 Y139.6410 E0.1453
G1 X111.8590 Y140.3590 E0.1937
G92 E0.0000
G1 E-2 F2400 ; custom retraction
G91;
G1 Z1 F1200; custom z hop
G90;
G1 X116.5000 Y141.5000 F4000 ; custom feedrate
G1 Z3.300 F1200
G1 E0 F2400 ; custom un-retraction/prime
G92 E0.0000
G1 X116.5000 Y138.5000 E0.2021 F1920 ; custom feedrate
G1 X118.8110 Y138.5000 E0.3577
G1 X118.8110 Y141.5000 E0.5598
G1 X116.5000 Y141.5000 E0.7154
G1 X115.9000 Y142.1000 F4000 ; custom feedrate
G92 E0.0000
G1 X115.9000 Y137.9000 E0.2829 F1920 ; custom feedrate
G1 X119.4110 Y137.9000 E0.5194
G1 X119.4110 Y142.1000 E0.8022
G1 X115.9000 Y142.1000 E1.0387
G1 X115.3000 Y142.7000 F4000 ; custom feedrate
G92 E0.0000
G1 X115.3000 Y137.3000 E0.3637 F1440 ; custom feedrate
G1 X120.0110 Y137.3000 E0.6810
G1 X120.0110 Y142.7000 E1.0447
G1 X115.3000 Y142.7000 E1.3620
G92 E0.0000
G1 E-2 F2400 ; custom retraction
G91;
G1 Z1 F1200; custom z hop
G90;
G1 X120.0110 Y142.5710 F4000 ; custom feedrate
G1 X157.9890 Y142.7000
G1 X157.9890 Y141.5330
G1 X159.1890 Y141.5000
G1 Z3.300 F1200
G1 E0 F2400 ; custom un-retraction/prime
G92 E0.0000
G1 X159.1890 Y138.5000 E0.2021 F1920 ; custom feedrate
G1 X166.5000 Y138.5000 E0.6945
G1 X166.5000 Y141.5000 E0.8965
G1 X159.1890 Y141.5000 E1.3889
G1 X158.5890 Y142.1000 F4000 ; custom feedrate
G92 E0.0000
G1 X158.5890 Y137.9000 E0.2829 F1920 ; custom feedrate
G1 X167.1000 Y137.9000 E0.8561
G1 X167.1000 Y142.1000 E1.1390
G1 X158.5890 Y142.1000 E1.7122
G1 X157.9890 Y142.7000 F4000 ; custom feedrate
G92 E0.0000
G1 X157.9890 Y137.3000 E0.3637 F1440 ; custom feedrate
G1 X167.7000 Y137.3000 E1.0178
G1 X167.7000 Y142.7000 E1.3815
G1 X157.9890 Y142.7000 E2.0355
G1 X160.1480 Y138.9350 F4000 ; custom feedrate
G92 E0.0000
G1 X162.2780 Y141.0650 E0.2536 F2400 ; custom feedrate
G1 X166.0650 Y141.0650 E0.5724
G1 X166.0650 Y139.5480 E0.7001
G1 X165.4520 Y138.9350 E0.7731
G92 E0.0000
G1 E-2 F2400 ; custom retraction
;layer 12, Z = 3.600
;fan12;
G1 Z3.600 F1200
G1 X166.5000 Y138.5000 F4000 ; custom feedrate
G1 E0 F2400 ; custom un-retraction/prime
G92 E0.0000
G1 X166.5000 Y141.5000 E0.2021 F1920 ; custom feedrate
G1 X159.0940 Y141.5000 E0.7009
G1 X159.0940 Y138.5000 E0.9029
G1 X166.5000 Y138.5000 E1.4017
G1 X167.1000 Y137.9000 F4000 ; custom feedrate
G92 E0.0000
G1 X167.1000 Y142.1000 E0.2829 F1920 ; custom feedrate
G1 X158.4940 Y142.1000 E0.8625
G1 X158.4940 Y137.9000 E1.1454
G1 X167.1000 Y137.9000 E1.7250
G1 X167.7000 Y137.3000 F4000 ; custom feedrate
G92 E0.0000
G1 X167.7000 Y142.7000 E0.3637 F1440 ; custom feedrate
G1 X157.8940 Y142.7000 E1.0241
G1 X157.8940 Y137.3000 E1.3878
G1 X167.7000 Y137.3000 E2.0483
G1 X165.4520 Y141.0650 F4000 ; custom feedrate
G92 E0.0000
G1 X166.0650 Y140.4520 E0.0730 F2400 ; custom feedrate
G1 X166.0650 Y138.9350 E0.2007
G1 X162.2780 Y138.9350 E0.5195
G1 X160.1480 Y141.0650 E0.7731
G92 E0.0000
G1 E-2 F2400 ; custom retraction
G91;
G1 Z1 F1200; custom z hop
G90;
G1 X118.9060 Y141.5000 F4000 ; custom feedrate
G1 Z3.600 F1200
G1 E0 F2400 ; custom un-retraction/prime
G92 E0.0000
G1 X116.5000 Y141.5000 E0.1620 F1920 ; custom feedrate
G1 X116.5000 Y138.5000 E0.3641
G1 X118.9060 Y138.5000 E0.5261
G1 X118.9060 Y141.5000 E0.7282
G1 X119.5060 Y142.1000 F4000 ; custom feedrate
G92 E0.0000
G1 X115.9000 Y142.1000 E0.2429 F1920 ; custom feedrate
G1 X115.9000 Y137.9000 E0.5257
G1 X119.5060 Y137.9000 E0.7686
G1 X119.5060 Y142.1000 E1.0515
G1 X120.1060 Y142.7000 F4000 ; custom feedrate
G92 E0.0000
G1 X115.3000 Y142.7000 E0.3237 F1440 ; custom feedrate
G1 X115.3000 Y137.3000 E0.6874
G1 X120.1060 Y137.3000 E1.0111
G1 X120.1060 Y142.7000 E1.3748
G92 E0.0000
G1 E-2 F2400 ; custom retraction
G91;
G1 Z1 F1200; custom z hop
G90;
G1 X111.8120 Y140.3120 F4000 ; custom feedrate
G1 Z3.600 F1200
G1 E0 F2400 ; custom un-retraction/prime
G92 E0.0000
G1 X111.1880 Y140.3120 E0.0420 F1440 ; custom feedrate
G1 X111.1880 Y139.6880 E0.0840
G1 X111.8120 Y139.6880 E0.1261
G1 X111.8120 Y140.3120 E0.1681
G92 E0.0000
G1 E-2 F2400 ; custom retraction
;layer 13, Z = 3.900
;fan13;
G1 Z3.900 F1200
G1 X111.7640 Y140.2640 F4000 ; custom feedrate
G1 E0 F2400 ; custom un-retraction/prime
G92 E0.0000
G1 X111.2360 Y140.2640 E0.0356 F1440 ; custom feedrate
G1 X111.2360 Y139.7360 E0.0712
G1 X111.7640 Y139.7360 E0.1069
G1 X111.7640 Y140.2640 E0.1425
G92 E0.0000
G1 E-2 F2400 ; custom retraction
G91;
G1 Z1 F1200; custom z hop
G90;
G1 X116.5000 Y141.5000 F4000 ; custom feedrate
G1 Z3.900 F1200
G1 E0 F2400 ; custom un-retraction/prime
G92 E0.0000
G1 X116.5000 Y138.5000 E0.2021 F1920 ; custom feedrate
G1 X119.0150 Y138.5000 E0.3714
G1 X119.0150 Y141.5000 E0.5735
G1 X116.5000 Y141.5000 E0.7429
G1 X115.9000 Y142.1000 F4000 ; custom feedrate
G92 E0.0000
G1 X115.9000 Y137.9000 E0.2829 F1920 ; custom feedrate
G1 X119.6150 Y137.9000 E0.5331
G1 X119.6150 Y142.1000 E0.8160
G1 X115.9000 Y142.1000 E1.0662
G1 X115.3000 Y142.7000 F4000 ; custom feedrate
G92 E0.0000
G1 X115.3000 Y137.3000 E0.3637 F1440 ; custom feedrate
G1 X120.2150 Y137.3000 E0.6947
G1 X120.2150 Y142.7000 E1.0584
G1 X115.3000 Y142.7000 E1.3894
G92 E0.0000
G1 E-2 F2400 ; custom retraction
G91;
G1 Z1 F1200; custom z hop
G90;
G1 X120.2150 Y142.5650 F4000 ; custom feedrate
G1 X157.7850 Y142.7000
G1 X157.7850 Y141.5330
G1 X158.9850 Y141.5000
G1 Z3.900 F1200
G1 E0 F2400 ; custom un-retraction/prime
G92 E0.0000
G1 X158.9850 Y138.5000 E0.2021 F1920 ; custom feedrate
G1 X166.5000 Y138.5000 E0.7082
G1 X166.5000 Y141.5000 E0.9102
G1 X158.9850 Y141.5000 E1.4164
G1 X158.3850 Y142.1000 F4000 ; custom feedrate
G92 E0.0000
G1 X158.3850 Y137.9000 E0.2829 F1920 ; custom feedrate
G1 X167.1000 Y137.9000 E0.8698
G1 X167.1000 Y142.1000 E1.1527
G1 X158.3850 Y142.1000 E1.7397
G1 X157.7850 Y142.7000 F4000 ; custom feedrate
G92 E0.0000
G1 X157.7850 Y137.3000 E0.3637 F1440 ; custom feedrate
G1 X167.7000 Y137.3000 E1.0315
G1 X167.7000 Y142.7000 E1.3952
G1 X157.7850 Y142.7000 E2.0630
G1 X160.1480 Y138.9350 F4000 ; custom feedrate
G92 E0.0000
G1 X162.2780 Y141.0650 E0.2536 F2400 ; custom feedrate
G1 X166.0650 Y141.0650 E0.5724
G1 X166.0650 Y139.5480 E0.7001
G1 X165.4520 Y138.9350 E0.7731
G92 E0.0000
G1 E-2 F2400 ; custom retraction
;layer 14, Z = 4.200
;fan14;
G1 Z4.200 F1200
G1 X166.5000 Y138.5000 F4000 ; custom feedrate
G1 E0 F2400 ; custom un-retraction/prime
G92 E0.0000
G1 X166.5000 Y141.5000 E0.2021 F1920 ; custom feedrate
G1 X158.8620 Y141.5000 E0.7165
G1 X158.8620 Y138.5000 E0.9186
G1 X166.5000 Y138.5000 E1.4330
G1 X167.1000 Y137.9000 F4000 ; custom feedrate
G92 E0.0000
G1 X167.1000 Y142.1000 E0.2829 F1920 ; custom feedrate
G1 X158.2620 Y142.1000 E0.8782
G1 X158.2620 Y137.9000 E1.1610
G1 X167.1000 Y137.9000 E1.7563
G1 X167.7000 Y137.3000 F4000 ; custom feedrate
G92 E0.0000
G1 X167.7000 Y142.7000 E0.3637 F1440 ; custom feedrate
G1 X157.6620 Y142.7000 E1.0398
G1 X157.6620 Y137.3000 E1.4035
G1 X167.7000 Y137.3000 E2.0796
G1 X165.4520 Y141.0650 F4000 ; custom feedrate
G92 E0.0000
G1 X166.0650 Y140.4520 E0.0730 F2400 ; custom feedrate
G1 X166.0650 Y138.9350 E0.2007
G1 X162.2780 Y138.9350 E0.5195
G1 X160.1480 Y141.0650 E0.7731
G92 E0.0000
G1 E-2 F2400 ; custom retraction
G91;
G1 Z1 F1200; custom z hop
G90;
G1 X119.1380 Y141.5000 F4000 ; custom feedrate
G1 Z4.200 F1200
G1 E0 F2400 ; custom un-retraction/prime
G92 E0.0000
G1 X116.5000 Y141.5000 E0.1777 F1920 ; custom feedrate
G1 X116.5000 Y138.5000 E0.3798
G1 X119.1380 Y138.5000 E0.5575
G1 X119.1380 Y141.5000 E0.7595
G1 X119.7380 Y142.1000 F4000 ; custom feedrate
G92 E0.0000
G1 X115.9000 Y142.1000 E0.2585 F1920 ; custom feedrate
G1 X115.9000 Y137.9000 E0.5414
G1 X119.7380 Y137.9000 E0.7999
G1 X119.7380 Y142.1000 E1.0828
G1 X120.3380 Y142.7000 F4000 ; custom feedrate
G92 E0.0000
G1 X115.3000 Y142.7000 E0.3393 F1440 ; custom feedrate
G1 X115.3000 Y137.3000 E0.7030
G1 X120.3380 Y137.3000 E1.0424
G1 X120.3380 Y142.7000 E1.4061
G92 E0.0000
G1 E-2 F2400 ; custom retraction
G91;
G1 Z1 F1200; custom z hop
G90;
G1 X115.3000 Y141.2490 F4000 ; custom feedrate
G1 X111.7170 Y140.2170
G1 Z4.200 F1200
G1 E0 F2400 ; custom un-retraction/prime
G92 E0.0000
G1 X111.2830 Y140.2170 E0.0292 F1440 ; custom feedrate
G1 X111.2830 Y139.7830 E0.0584
G1 X111.7170 Y139.7830 E0.0877
G1 X111.7170 Y140.2170 E0.1169
G92 E0.0000
G1 E-2 F2400 ; custom retraction
;layer 15, Z = 4.500
;fan15;
G1 Z4.500 F1200
G1 X111.6690 Y140.1690 F4000 ; custom feedrate
G1 E0 F2400 ; custom un-retraction/prime
G92 E0.0000
G1 X111.3310 Y140.1690 E0.0228 F1440 ; custom feedrate
G1 X111.3310 Y139.8310 E0.0456
G1 X111.6690 Y139.8310 E0.0685
G1 X111.6690 Y140.1690 E0.0913
G92 E0.0000
G1 E-2 F2400 ; custom retraction
G91;
G1 Z1 F1200; custom z hop
G90;
G1 X116.5000 Y141.5000 F4000 ; custom feedrate
G1 Z4.500 F1200
G1 E0 F2400 ; custom un-retraction/prime
G92 E0.0000
G1 X116.5000 Y138.5000 E0.2021 F1920 ; custom feedrate
G1 X119.2770 Y138.5000 E0.3891
G1 X119.2770 Y141.5000 E0.5912
G1 X116.5000 Y141.5000 E0.7782
G1 X115.9000 Y142.1000 F4000 ; custom feedrate
G92 E0.0000
G1 X115.9000 Y137.9000 E0.2829 F1920 ; custom feedrate
G1 X119.8770 Y137.9000 E0.5508
G1 X119.8770 Y142.1000 E0.8336
G1 X115.9000 Y142.1000 E1.1015
G1 X115.3000 Y142.7000 F4000 ; custom feedrate
G92 E0.0000
G1 X115.3000 Y137.3000 E0.3637 F1440 ; custom feedrate
G1 X120.4770 Y137.3000 E0.7124
G1 X120.4770 Y142.7000 E1.0761
G1 X115.3000 Y142.7000 E1.4248
G92 E0.0000
G1 E-2 F2400 ; custom retraction
G91;
G1 Z1 F1200; custom z hop
G90;
G1 X120.4770 Y142.5570 F4000 ; custom feedrate
G1 X157.5230 Y142.7000
G1 X157.5230 Y141.5330
G1 X158.7230 Y141.5000
G1 Z4.500 F1200
G1 E0 F2400 ; custom un-retraction/prime
G92 E0.0000
G1 X158.7230 Y138.5000 E0.2021 F1920 ; custom feedrate
G1 X166.5000 Y138.5000 E0.7259
G1 X166.5000 Y141.5000 E0.9279
G1 X158.7230 Y141.5000 E1.4518
G1 X158.1230 Y142.1000 F4000 ; custom feedrate
G92 E0.0000
G1 X158.1230 Y137.9000 E0.2829 F1920 ; custom feedrate
G1 X167.1000 Y137.9000 E0.8875
G1 X167.1000 Y142.1000 E1.1704
G1 X158.1230 Y142.1000 E1.7750
G1 X157.5230 Y142.7000 F4000 ; custom feedrate
G92 E0.0000
G1 X157.5230 Y137.3000 E0.3637 F1440 ; custom feedrate
G1 X167.7000 Y137.3000 E1.0492
G1 X167.7000 Y142.7000 E1.4129
G1 X157.5230 Y142.7000 E2.0983
G1 X160.1480 Y138.9350 F4000 ; custom feedrate
G92 E0.0000
G1 X162.2780 Y141.0650 E0.2536 F2400 ; custom feedrate
G1 X166.0650 Y141.0650 E0.5724
G1 X166.0650 Y139.5480 E0.7001
G1 X165.4520 Y138.9350 E0.7731
G92 E0.0000
G1 E-2 F2400 ; custom retraction
;layer 16, Z = 4.800
;fan16;
G1 Z4.800 F1200
G1 X166.5000 Y138.5000 F4000 ; custom feedrate
G1 E0 F2400 ; custom un-retraction/prime
G92 E0.0000
G1 X166.5000 Y141.5000 E0.2021 F1920 ; custom feedrate
G1 X158.5670 Y141.5000 E0.7363
G1 X158.5670 Y138.5000 E0.9384
G1 X166.5000 Y138.5000 E1.4727
G1 X167.1000 Y137.9000 F4000 ; custom feedrate
G92 E0.0000
G1 X167.1000 Y142.1000 E0.2829 F1920 ; custom feedrate
G1 X157.9670 Y142.1000 E0.8980
G1 X157.9670 Y137.9000 E1.1809
G1 X167.1000 Y137.9000 E1.7960
G1 X167.7000 Y137.3000 F4000 ; custom feedrate
G92 E0.0000
G1 X167.7000 Y142.7000 E0.3637 F1440 ; custom feedrate
G1 X157.3670 Y142.7000 E1.0596
G1 X157.3670 Y137.3000 E1.4233
G1 X167.7000 Y137.3000 E2.1193
G1 X165.4520 Y141.0650 F4000 ; custom feedrate
G92 E0.0000
G1 X166.0650 Y140.4520 E0.0730 F2400 ; custom feedrate
G1 X166.0650 Y138.9350 E0.2007
G1 X162.2780 Y138.9350 E0.5195
G1 X160.1480 Y141.0650 E0.7731
G92 E0.0000
G1 E-2 F2400 ; custom retraction
G91;
G1 Z1 F1200; custom z hop
G90;
G1 X119.4330 Y141.5000 F4000 ; custom feedrate
G1 Z4.800 F1200
G1 E0 F2400 ; custom un-retraction/prime
G92 E0.0000
G1 X116.5000 Y141.5000 E0.1975 F1920 ; custom feedrate
G1 X116.5000 Y138.5000 E0.3996
G1 X119.4330 Y138.5000 E0.5971
G1 X119.4330 Y141.5000 E0.7992
G1 X120.0330 Y142.1000 F4000 ; custom feedrate
G92 E0.0000
G1 X115.9000 Y142.1000 E0.2784 F1920 ; custom feedrate
G1 X115.9000 Y137.9000 E0.5612
G1 X120.0330 Y137.9000 E0.8396
G1 X120.0330 Y142.1000 E1.1225
G1 X120.6330 Y142.7000 F4000 ; custom feedrate
G92 E0.0000
G1 X115.3000 Y142.7000 E0.3592 F1440 ; custom feedrate
G1 X115.3000 Y137.3000 E0.7229
G1 X120.6330 Y137.3000 E1.0821
G1 X120.6330 Y142.7000 E1.4458
G92 E0.0000
G1 E-2 F2400 ; custom retraction
G91;
G1 Z1 F1200; custom z hop
G90;
G1 X111.6220 Y140.1220 F4000 ; custom feedrate
G1 Z4.800 F1200
G1 E0 F2400 ; custom un-retraction/prime
G92 E0.0000
G1 X111.3780 Y140.1220 E0.0164 F1440 ; custom feedrate
G1 X111.3780 Y139.8780 E0.0328
G1 X111.6220 Y139.8780 E0.0493
G1 X111.6220 Y140.1220 E0.0657
G92 E0.0000
G1 E-2 F2400 ; custom retraction
;layer 17, Z = 5.100
;fan17;
G1 Z5.100 F1200
G1 X111.5740 Y140.0740 F4000 ; custom feedrate
G1 E0 F2400 ; custom un-retraction/prime
G92 E0.0000
G1 X111.4260 Y140.0740 E0.0100 F1440 ; custom feedrate
G1 X111.4260 Y139.9260 E0.0200
G1 X111.5740 Y139.9260 E0.0301
G1 X111.5740 Y140.0740 E0.0401
G92 E0.0000
G1 E-2 F2400 ; custom retraction
G91;
G1 Z1 F1200; custom z hop
G90;
G1 X116.5000 Y141.5000 F4000 ; custom feedrate
G1 Z5.100 F1200
G1 E0 F2400 ; custom un-retraction/prime
G92 E0.0000
G1 X116.5000 Y138.5000 E0.2021 F1920 ; custom feedrate
G1 X119.6060 Y138.5000 E0.4112
G1 X119.6060 Y141.5000 E0.6133
G1 X116.5000 Y141.5000 E0.8225
G1 X115.9000 Y142.1000 F4000 ; custom feedrate
G92 E0.0000
G1 X115.9000 Y137.9000 E0.2829 F1920 ; custom feedrate
G1 X120.2060 Y137.9000 E0.5729
G1 X120.2060 Y142.1000 E0.8558
G1 X115.9000 Y142.1000 E1.1458
G1 X115.3000 Y142.7000 F4000 ; custom feedrate
G92 E0.0000
G1 X115.3000 Y137.3000 E0.3637 F1440 ; custom feedrate
G1 X120.8060 Y137.3000 E0.7345
G1 X120.8060 Y142.7000 E1.0982
G1 X115.3000 Y142.7000 E1.4691
G92 E0.0000
G1 E-2 F2400 ; custom retraction
G91;
G1 Z1 F1200; custom z hop
G90;
G1 X120.8060 Y142.5470 F4000 ; custom feedrate
G1 X157.1940 Y142.7000
G1 X157.1940 Y141.5330
G1 X158.3940 Y141.5000
G1 Z5.100 F1200
G1 E0 F2400 ; custom un-retraction/prime
G92 E0.0000
G1 X158.3940 Y138.5000 E0.2021 F1920 ; custom feedrate
G1 X166.5000 Y138.5000 E0.7480
G1 X166.5000 Y141.5000 E0.9501
G1 X158.3940 Y141.5000 E1.4960
G1 X157.7940 Y142.1000 F4000 ; custom feedrate
G92 E0.0000
G1 X157.7940 Y137.9000 E0.2829 F1920 ; custom feedrate
G1 X167.1000 Y137.9000 E0.9096
G1 X167.1000 Y142.1000 E1.1925
G1 X157.7940 Y142.1000 E1.8193
G1 X157.1940 Y142.7000 F4000 ; custom feedrate
G92 E0.0000
G1 X157.1940 Y137.3000 E0.3637 F1440 ; custom feedrate
G1 X167.7000 Y137.3000 E1.0713
G1 X167.7000 Y142.7000 E1.4350
G1 X157.1940 Y142.7000 E2.1426
G1 X160.1480 Y138.9350 F4000 ; custom feedrate
G92 E0.0000
G1 X162.2780 Y141.0650 E0.2536 F2400 ; custom feedrate
G1 X166.0650 Y141.0650 E0.5724
G1 X166.0650 Y139.5480 E0.7001
G1 X165.4520 Y138.9350 E0.7731
G92 E0.0000
G1 E-2 F2400 ; custom retraction
;layer 18, Z = 5.400
;fan18;
G1 Z5.400 F1200
G1 X166.5000 Y138.5000 F4000 ; custom feedrate
G1 E0 F2400 ; custom un-retraction/prime
G92 E0.0000
G1 X166.5000 Y141.5000 E0.2021 F1920 ; custom feedrate
G1 X158.2020 Y141.5000 E0.7609
G1 X158.2020 Y138.5000 E0.9630
G1 X166.5000 Y138.5000 E1.5219
G1 X167.1000 Y137.9000 F4000 ; custom feedrate
G92 E0.0000
G1 X167.1000 Y142.1000 E0.2829 F1920 ; custom feedrate
G1 X157.6020 Y142.1000 E0.9226
G1 X157.6020 Y137.9000 E1.2055
G1 X167.1000 Y137.9000 E1.8452
G1 X167.7000 Y137.3000 F4000 ; custom feedrate
G92 E0.0000
G1 X167.7000 Y142.7000 E0.3637 F1440 ; custom feedrate
G1 X157.0020 Y142.7000 E1.0842
G1 X157.0020 Y137.3000 E1.4479
G1 X167.7000 Y137.3000 E2.1685
G1 X165.4520 Y141.0650 F4000 ; custom feedrate
G92 E0.0000
G1 X166.0650 Y140.4520 E0.0730 F2400 ; custom feedrate
G1 X166.0650 Y138.9350 E0.2007
G1 X162.2780 Y138.9350 E0.5195
G1 X160.1480 Y141.0650 E0.7731
G92 E0.0000
G1 E-2 F2400 ; custom retraction
G91;
G1 Z1 F1200; custom z hop
G90;
G1 X119.7980 Y141.5000 F4000 ; custom feedrate
G1 Z5.400 F1200
G1 E0 F2400 ; custom un-retraction/prime
G92 E0.0000
G1 X116.5000 Y141.5000 E0.2221 F1920 ; custom feedrate
G1 X116.5000 Y138.5000 E0.4242
G1 X119.7980 Y138.5000 E0.6463
G1 X119.7980 Y141.5000 E0.8484
G1 X120.3980 Y142.1000 F4000 ; custom feedrate
G92 E0.0000
G1 X115.9000 Y142.1000 E0.3029 F1920 ; custom feedrate
G1 X115.9000 Y137.9000 E0.5858
G1 X120.3980 Y137.9000 E0.8888
G1 X120.3980 Y142.1000 E1.1717
G1 X120.9980 Y142.7000 F4000 ; custom feedrate
G92 E0.0000
G1 X115.3000 Y142.7000 E0.3838 F1440 ; custom feedrate
G1 X115.3000 Y137.3000 E0.7475
G1 X120.9980 Y137.3000 E1.1312
G1 X120.9980 Y142.7000 E1.4949
G92 E0.0000
G1 E-2 F2400 ; custom retraction
G91;
G1 Z1 F1200; custom z hop
G90;
G1 X115.3000 Y141.0920 F4000 ; custom feedrate
G1 X111.5270 Y140.0270
G1 Z5.400 F1200
G1 E0 F2400 ; custom un-retraction/prime
G92 E0.0000
G1 X111.4730 Y140.0270 E0.0036 F1440 ; custom feedrate
G1 X111.4730 Y139.9730 E0.0072
G1 X111.5270 Y139.9730 E0.0109
G1 X111.5270 Y140.0270 E0.0145
G92 E0.0000
G1 E-2 F2400 ; custom retraction
;layer 19, Z = 5.700
;fan19;
G1 Z5.700 F1200
G1 X116.1980 Y140.0000 F4000 ; custom feedrate
G1 E0 F2400 ; custom un-retraction/prime
G92 E0.0000
G1 X116.5000 Y139.8270 E0.0234 F1920 ; custom feedrate
G1 X116.5000 Y138.5000 E0.1128
G1 X120.0110 Y138.5000 E0.3492
G1 X120.0110 Y141.5000 E0.5513
G1 X116.5000 Y141.5000 E0.7878
G1 X116.5000 Y140.1730 E0.8771
G1 X116.1980 Y140.0000 E0.9006
G1 X115.9000 Y140.5200 F4000 ; custom feedrate
G92 E0.0000
G1 X115.8270 Y140.4790 E0.0057 F1920 ; custom feedrate
G1 X115.8270 Y139.5210 E0.0701
G1 X115.9000 Y139.4800 E0.0758
G1 X115.9000 Y137.9000 E0.1822
G1 X120.6110 Y137.9000 E0.4995
G1 X120.6110 Y142.1000 E0.7823
G1 X115.9000 Y142.1000 E1.0996
G1 X115.9000 Y140.5200 E1.2060
G1 X115.3000 Y140.8680 F4000 ; custom feedrate
G92 E0.0000
G1 X115.2270 Y140.8260 E0.0057 F1440 ; custom feedrate
G1 X115.2270 Y139.1740 E0.1170
G1 X115.3000 Y139.1320 E0.1226
G1 X115.3000 Y137.3000 E0.2460
G1 X121.2110 Y137.3000 E0.6441
G1 X121.2110 Y142.7000 E1.0078
G1 X115.3000 Y142.7000 E1.4059
G1 X115.3000 Y140.8680 E1.5293
G92 E0.0000
G1 E-2 F2400 ; custom retraction
G91;
G1 Z1 F1200; custom z hop
G90;
G1 X157.9890 Y141.5000 F4000 ; custom feedrate
G1 Z5.700 F1200
G1 E0 F2400 ; custom un-retraction/prime
G92 E0.0000
G1 X157.9890 Y138.5000 E0.2021 F1920 ; custom feedrate
G1 X166.5000 Y138.5000 E0.7753
G1 X166.5000 Y141.5000 E0.9773
G1 X157.9890 Y141.5000 E1.5505
G1 X157.3890 Y142.1000 F4000 ; custom feedrate
G92 E0.0000
G1 X157.3890 Y137.9000 E0.2829 F1920 ; custom feedrate
G1 X167.1000 Y137.9000 E0.9369
G1 X167.1000 Y142.1000 E1.2198
G1 X157.3890 Y142.1000 E1.8738
G1 X156.7890 Y142.7000 F4000 ; custom feedrate
G92 E0.0000
G1 X156.7890 Y137.3000 E0.3637 F1440 ; custom feedrate
G1 X167.7000 Y137.3000 E1.0986
G1 X167.7000 Y142.7000 E1.4623
G1 X156.7890 Y142.7000 E2.1971
G1 X160.1480 Y138.9350 F4000 ; custom feedrate
G92 E0.0000
G1 X162.2780 Y141.0650 E0.2536 F2400 ; custom feedrate
G1 X166.0650 Y141.0650 E0.5724
G1 X166.0650 Y139.5480 E0.7001
G1 X165.4520 Y138.9350 E0.7731
G92 E0.0000
G1 E-2 F2400 ; custom retraction
;layer 20, Z = 6.000
;fan20;
G1 Z6.000 F1200
G1 X166.5000 Y138.5000 F4000 ; custom feedrate
G1 E0 F2400 ; custom un-retraction/prime
G92 E0.0000
G1 X166.5000 Y141.5000 E0.2021 F1920 ; custom feedrate
G1 X157.7540 Y141.5000 E0.7911
G1 X157.7540 Y138.5000 E0.9932
G1 X166.5000 Y138.5000 E1.5823
G1 X167.1000 Y137.9000 F4000 ; custom feedrate
G92 E0.0000
G1 X167.1000 Y142.1000 E0.2829 F1920 ; custom feedrate
G1 X157.1540 Y142.1000 E0.9528
G1 X157.1540 Y137.9000 E1.2357
G1 X167.1000 Y137.9000 E1.9055
G1 X167.7000 Y137.3000 F4000 ; custom feedrate
G92 E0.0000
G1 X167.7000 Y142.7000 E0.3637 F1440 ; custom feedrate
G1 X156.5540 Y142.7000 E1.1144
G1 X156.5540 Y137.3000 E1.4781
G1 X167.7000 Y137.3000 E2.2288
G1 X158.1140 Y139.7050 F4000 ; custom feedrate
G92 E0.0000
G1 X158.1540 Y139.6650 E0.0038 F1920 ; custom feedrate
G1 X158.1540 Y140.5140 E0.0610
G1 X158.1140 Y140.5540 E0.0648
G1 X160.1480 Y141.0650 F4000 ; custom feedrate
G92 E0.0000
G1 X162.2780 Y138.9350 E0.2536 F2400 ; custom feedrate
G1 X166.0650 Y138.9350 E0.5724
G1 X166.0650 Y140.4520 E0.7001
G1 X165.4520 Y141.0650 E0.7731
G92 E0.0000
G1 E-2 F2400 ; custom retraction
G91;
G1 Z1 F1200; custom z hop
G90;
G1 X120.2460 Y141.5000 F4000 ; custom feedrate
G1 Z6.000 F1200
G1 E0 F2400 ; custom un-retraction/prime
G92 E0.0000
G1 X116.5000 Y141.5000 E0.2523 F1920 ; custom feedrate
G1 X116.5000 Y140.4190 E0.3251
G1 X115.7700 Y140.0000 E0.3818
G1 X116.5000 Y139.5810 E0.4385
G1 X116.5000 Y138.5000 E0.5113
G1 X120.2460 Y138.5000 E0.7636
G1 X120.2460 Y141.5000 E0.9657
G1 X120.8460 Y142.1000 F4000 ; custom feedrate
G92 E0.0000
G1 X115.9000 Y142.1000 E0.3331 F1920 ; custom feedrate
G1 X115.9000 Y140.7660 E0.4230
G1 X115.3990 Y140.4790 E0.4619
G1 X115.3990 Y139.5210 E0.5264
G1 X115.9000 Y139.2340 E0.5653
G1 X115.9000 Y137.9000 E0.6551
G1 X120.8460 Y137.9000 E0.9883
G1 X120.8460 Y142.1000 E1.2711
G1 X121.4460 Y142.7000 F4000 ; custom feedrate
G92 E0.0000
G1 X115.3000 Y142.7000 E0.4140 F1440 ; custom feedrate
G1 X115.3000 Y141.1140 E0.5208
G1 X114.7990 Y140.8260 E0.5597
G1 X114.7990 Y139.1740 E0.6710
G1 X115.3000 Y138.8860 E0.7099
G1 X115.3000 Y137.3000 E0.8168
G1 X121.4460 Y137.3000 E1.2307
G1 X121.4460 Y142.7000 E1.5944
G1 X119.8860 Y140.5980 F4000 ; custom feedrate
G92 E0.0000
G1 X119.8460 Y140.6380 E0.0038 F1920 ; custom feedrate
G1 X119.8460 Y139.7890 E0.0610
G1 X119.8860 Y139.7490 E0.0648
G1 X119.8860 Y138.9010 E0.1220
G1 X119.8460 Y138.9410 E0.1258
G92 E0.0000
G1 E-2 F2400 ; custom retraction
;layer 21, Z = 6.300
;fan21;
G1 Z6.300 F1200
G1 X120.5070 Y138.5000 F4000 ; custom feedrate
G1 E0 F2400 ; custom un-retraction/prime
G92 E0.0000
G1 X120.5070 Y141.5000 E0.2021 F1920 ; custom feedrate
G1 X116.5000 Y141.5000 E0.4719
G1 X116.5000 Y140.6640 E0.5282
G1 X115.3420 Y140.0000 E0.6181
G1 X116.5000 Y139.3360 E0.7081
G1 X116.5000 Y138.5000 E0.7644
G1 X120.5070 Y138.5000 E1.0342
G1 X121.1070 Y137.9000 F4000 ; custom feedrate
G92 E0.0000
G1 X121.1070 Y142.1000 E0.2829 F1920 ; custom feedrate
G1 X115.9000 Y142.1000 E0.6336
G1 X115.9000 Y141.0120 E0.7068
G1 X114.9700 Y140.4790 E0.7790
G1 X114.9700 Y139.5210 E0.8435
G1 X115.9000 Y138.9880 E0.9157
G1 X115.9000 Y137.9000 E0.9890
G1 X121.1070 Y137.9000 E1.3397
G1 X121.7070 Y137.3000 F4000 ; custom feedrate
G92 E0.0000
G1 X121.7070 Y142.7000 E0.3637 F1440 ; custom feedrate
G1 X115.3000 Y142.7000 E0.7952
G1 X115.3000 Y141.3600 E0.8855
G1 X114.3700 Y140.8260 E0.9577
G1 X114.3700 Y139.1740 E1.0690
G1 X115.3000 Y138.6400 E1.1412
G1 X115.3000 Y137.3000 E1.2315
G1 X121.7070 Y137.3000 E1.6630
G1 X120.0380 Y139.5540 F4000 ; custom feedrate
G92 E0.0000
G1 X120.1470 Y139.6630 E0.0104 F1920 ; custom feedrate
G1 X120.1470 Y140.5110 E0.0675
G1 X120.0380 Y140.4030 E0.0779
G1 X116.2600 Y140.0190 F4000 ; custom feedrate
G92 E0.0000
G1 X116.1770 Y139.9360 E0.0079 F1920 ; custom feedrate
G92 E0.0000
G1 E-2 F2400 ; custom retraction
G91;
G1 Z1 F1200; custom z hop
G90;
G1 X157.4930 Y138.5000 F4000 ; custom feedrate
G1 Z6.300 F1200
G1 E0 F2400 ; custom un-retraction/prime
G92 E0.0000
G1 X166.5000 Y138.5000 E0.6066 F1920 ; custom feedrate
G1 X166.5000 Y141.5000 E0.8087
G1 X157.4930 Y141.5000 E1.4153
G1 X157.4930 Y138.5000 E1.6173
G1 X156.8930 Y137.9000 F4000 ; custom feedrate
G92 E0.0000
G1 X167.1000 Y137.9000 E0.6874 F1920 ; custom feedrate
G1 X167.1000 Y142.1000 E0.9703
G1 X156.8930 Y142.1000 E1.6578
G1 X156.8930 Y137.9000 E1.9406
G1 X156.2930 Y137.3000 F4000 ; custom feedrate
G92 E0.0000
G1 X167.7000 Y137.3000 E0.7683 F1440 ; custom feedrate
G1 X167.7000 Y142.7000 E1.1320
G1 X156.2930 Y142.7000 E1.9002
G1 X156.2930 Y137.3000 E2.2639
G1 X157.8530 Y139.1860 F4000 ; custom feedrate
G92 E0.0000
G1 X157.9620 Y139.2940 E0.0104 F1920 ; custom feedrate
G1 X157.9620 Y140.1430 E0.0675
G1 X157.8530 Y140.0340 E0.0779
G1 X157.8530 Y140.8830 E0.1350
G1 X157.9620 Y140.9910 E0.1454
G1 X160.1480 Y138.9350 F4000 ; custom feedrate
G92 E0.0000
G1 X162.2780 Y141.0650 E0.2536 F2400 ; custom feedrate
G1 X166.0650 Y141.0650 E0.5724
G1 X166.0650 Y139.5480 E0.7001
G1 X165.4520 Y138.9350 E0.7731
G92 E0.0000
G1 E-2 F2400 ; custom retraction
;layer 22, Z = 6.600
;fan22;
G1 Z6.600 F1200
G1 X166.5000 Y138.5000 F4000 ; custom feedrate
G1 E0 F2400 ; custom un-retraction/prime
G92 E0.0000
G1 X166.5000 Y141.5000 E0.2021 F1920 ; custom feedrate
G1 X157.2030 Y141.5000 E0.8282
G1 X157.2030 Y138.5000 E1.0303
G1 X166.5000 Y138.5000 E1.6565
G1 X167.1000 Y137.9000 F4000 ; custom feedrate
G92 E0.0000
G1 X167.1000 Y142.1000 E0.2829 F1920 ; custom feedrate
G1 X156.6030 Y142.1000 E0.9899
G1 X156.6030 Y137.9000 E1.2728
G1 X167.1000 Y137.9000 E1.9798
G1 X167.7000 Y137.3000 F4000 ; custom feedrate
G92 E0.0000
G1 X167.7000 Y142.7000 E0.3637 F1440 ; custom feedrate
G1 X156.0030 Y142.7000 E1.1515
G1 X156.0030 Y137.3000 E1.5152
G1 X167.7000 Y137.3000 E2.3030
G1 X157.5630 Y139.4080 F4000 ; custom feedrate
G92 E0.0000
G1 X157.7490 Y139.2210 E0.0177 F1920 ; custom feedrate
G1 X157.7490 Y140.0700 E0.0749
G1 X157.5630 Y140.2560 E0.0926
G1 X157.5630 Y141.1050 E0.1498
G1 X157.7490 Y140.9180 E0.1675
G1 X160.1480 Y141.0650 F4000 ; custom feedrate
G92 E0.0000
G1 X162.2780 Y138.9350 E0.2536 F2400 ; custom feedrate
G1 X166.0650 Y138.9350 E0.5724
G1 X166.0650 Y140.4520 E0.7001
G1 X165.4520 Y141.0650 E0.7731
G92 E0.0000
G1 E-2 F2400 ; custom retraction
G91;
G1 Z1 F1200; custom z hop
G90;
G1 X120.7970 Y141.5000 F4000 ; custom feedrate
G1 Z6.600 F1200
G1 E0 F2400 ; custom un-retraction/prime
G92 E0.0000
G1 X116.5000 Y141.5000 E0.2894 F1920 ; custom feedrate
G1 X116.5000 Y140.9100 E0.3291
G1 X114.9130 Y140.0000 E0.4524
G1 X116.5000 Y139.0900 E0.5756
G1 X116.5000 Y138.5000 E0.6153
G1 X120.7970 Y138.5000 E0.9047
G1 X120.7970 Y141.5000 E1.1068
G1 X121.3970 Y142.1000 F4000 ; custom feedrate
G92 E0.0000
G1 X115.9000 Y142.1000 E0.3702 F1920 ; custom feedrate
G1 X115.9000 Y141.2580 E0.4270
G1 X114.5420 Y140.4790 E0.5324
G1 X114.5420 Y139.5210 E0.5969
G1 X115.9000 Y138.7420 E0.7024
G1 X115.9000 Y137.9000 E0.7591
G1 X121.3970 Y137.9000 E1.1293
G1 X121.3970 Y142.1000 E1.4122
G1 X121.9970 Y142.7000 F4000 ; custom feedrate
G92 E0.0000
G1 X115.3000 Y142.7000 E0.4511 F1440 ; custom feedrate
G1 X115.3000 Y141.6050 E0.5248
G1 X113.9420 Y140.8260 E0.6303
G1 X113.9420 Y139.1740 E0.7416
G1 X115.3000 Y138.3950 E0.8470
G1 X115.3000 Y137.3000 E0.9207
G1 X121.9970 Y137.3000 E1.3718
G1 X121.9970 Y142.7000 E1.7355
G1 X120.4370 Y140.8950 F4000 ; custom feedrate
G92 E0.0000
G1 X120.2510 Y141.0820 E0.0177 F1920 ; custom feedrate
G1 X120.2510 Y140.2330 E0.0749
G1 X120.4370 Y140.0470 E0.0926
G1 X120.4370 Y139.1980 E0.1498
G1 X120.2510 Y139.3850 E0.1675
G1 X116.1870 Y140.0540 F4000 ; custom feedrate
G92 E0.0000
G1 X116.0210 Y140.2200 E0.0158 F1920 ; custom feedrate
G92 E0.0000
G1 E-2 F2400 ; custom retraction
;layer 23, Z = 6.900
;fan23;
G1 Z6.900 F1200
G1 X116.5000 Y141.1560 F4000 ; custom feedrate
G1 E0 F2400 ; custom un-retraction/prime
G92 E0.0000
G1 X114.4850 Y140.0000 E0.1565 F1920 ; custom feedrate
G1 X116.5000 Y138.8440 E0.3130
G1 X116.5000 Y138.5000 E0.3361
G1 X121.1250 Y138.5000 E0.6476
G1 X121.1250 Y141.5000 E0.8497
G1 X116.5000 Y141.5000 E1.1611
G1 X116.5000 Y141.1560 E1.1843
G1 X115.9000 Y141.5030 F4000 ; custom feedrate
G92 E0.0000
G1 X114.1130 Y140.4790 E0.1387 F1920 ; custom feedrate
G1 X114.1130 Y139.5210 E0.2032
G1 X115.9000 Y138.4970 E0.3419
G1 X115.9000 Y137.9000 E0.3821
G1 X121.7250 Y137.9000 E0.7744
G1 X121.7250 Y142.1000 E1.0573
G1 X115.9000 Y142.1000 E1.4496
G1 X115.9000 Y141.5030 E1.4898
G1 X115.3000 Y141.8510 F4000 ; custom feedrate
G92 E0.0000
G1 X113.5130 Y140.8260 E0.1387 F1440 ; custom feedrate
G1 X113.5130 Y139.1740 E0.2500
G1 X115.3000 Y138.1490 E0.3887
G1 X115.3000 Y137.3000 E0.4459
G1 X122.3250 Y137.3000 E0.9191
G1 X122.3250 Y142.7000 E1.2828
G1 X115.3000 Y142.7000 E1.7559
G1 X115.3000 Y141.8510 E1.8131
G1 X115.3250 Y139.9330 F4000 ; custom feedrate
G92 E0.0000
G1 X115.6410 Y140.2480 E0.0300 F1920 ; custom feedrate
G1 X116.2600 Y140.6030 E0.0781
G1 X116.2600 Y140.5580 E0.0812
G1 X115.7590 Y140.2700 E0.1201
G1 X115.7590 Y139.7300 E0.1565
G1 X115.8940 Y139.6520 E0.1670
G1 X115.8650 Y139.6230 E0.1697
G1 X120.4860 Y139.1540 F4000 ; custom feedrate
G92 E0.0000
G1 X120.7650 Y139.4320 E0.0265 F1920 ; custom feedrate
G1 X120.7650 Y140.2810 E0.0837
G1 X120.4860 Y140.0020 E0.1102
G1 X120.4860 Y140.8510 E0.1674
G1 X120.7650 Y141.1290 E0.1939
G92 E0.0000
G1 E-2 F2400 ; custom retraction
G91;
G1 Z1 F1200; custom z hop
G90;
G1 X156.8750 Y141.5000 F4000 ; custom feedrate
G1 Z6.900 F1200
G1 E0 F2400 ; custom un-retraction/prime
G92 E0.0000
G1 X156.8750 Y138.5000 E0.2021 F1920 ; custom feedrate
G1 X166.5000 Y138.5000 E0.8503
G1 X166.5000 Y141.5000 E1.0524
G1 X156.8750 Y141.5000 E1.7006
G1 X156.2750 Y142.1000 F4000 ; custom feedrate
G92 E0.0000
G1 X156.2750 Y137.9000 E0.2829 F1920 ; custom feedrate
G1 X167.1000 Y137.9000 E1.0119
G1 X167.1000 Y142.1000 E1.2948
G1 X156.2750 Y142.1000 E2.0239
G1 X155.6750 Y142.7000 F4000 ; custom feedrate
G92 E0.0000
G1 X155.6750 Y137.3000 E0.3637 F1440 ; custom feedrate
G1 X167.7000 Y137.3000 E1.1736
G1 X167.7000 Y142.7000 E1.5373
G1 X155.6750 Y142.7000 E2.3472
G1 X157.2620 Y141.1400 F4000 ; custom feedrate
G92 E0.0000
G1 X157.2350 Y141.1130 E0.0026 F1920 ; custom feedrate
G1 X157.2350 Y140.2650 E0.0597
G1 X157.5140 Y140.5430 E0.0862
G1 X157.5140 Y139.6950 E0.1434
G1 X157.2350 Y139.4160 E0.1699
G1 X160.1480 Y138.9350 F4000 ; custom feedrate
G92 E0.0000
G1 X162.2780 Y141.0650 E0.2536 F2400 ; custom feedrate
G1 X166.0650 Y141.0650 E0.5724
G1 X166.0650 Y139.5480 E0.7001
G1 X165.4520 Y138.9350 E0.7731
G92 E0.0000
G1 E-2 F2400 ; custom retraction
;layer 24, Z = 7.200
;fan24;
G1 Z7.200 F1200
G1 X166.5000 Y138.5000 F4000 ; custom feedrate
G1 E0 F2400 ; custom un-retraction/prime
G92 E0.0000
G1 X166.5000 Y141.5000 E0.2021 F1920 ; custom feedrate
G1 X156.5090 Y141.5000 E0.8750
G1 X156.5090 Y138.5000 E1.0770
G1 X166.5000 Y138.5000 E1.7500
G1 X167.1000 Y137.9000 F4000 ; custom feedrate
G92 E0.0000
G1 X167.1000 Y142.1000 E0.2829 F1920 ; custom feedrate
G1 X155.9090 Y142.1000 E1.0366
G1 X155.9090 Y137.9000 E1.3195
G1 X167.1000 Y137.9000 E2.0732
G1 X167.7000 Y137.3000 F4000 ; custom feedrate
G92 E0.0000
G1 X167.7000 Y142.7000 E0.3637 F1440 ; custom feedrate
G1 X155.3090 Y142.7000 E1.1983
G1 X155.3090 Y137.3000 E1.5620
G1 X167.7000 Y137.3000 E2.3965
G1 X157.2530 Y140.5660 F4000 ; custom feedrate
G92 E0.0000
G1 X156.8690 Y140.9500 E0.0366 F1920 ; custom feedrate
G1 X156.8690 Y140.1020 E0.0938
G1 X157.2530 Y139.7170 E0.1304
G1 X157.2530 Y138.8690 E0.1875
G1 X156.8690 Y139.2530 E0.2242
G1 X160.1480 Y141.0650 F4000 ; custom feedrate
G92 E0.0000
G1 X162.2780 Y138.9350 E0.2536 F2400 ; custom feedrate
G1 X166.0650 Y138.9350 E0.5724
G1 X166.0650 Y140.4520 E0.7001
G1 X165.4520 Y141.0650 E0.7731
G92 E0.0000
G1 E-2 F2400 ; custom retraction
G91;
G1 Z1 F1200; custom z hop
G90;
G1 X121.4910 Y141.5000 F4000 ; custom feedrate
G1 Z7.200 F1200
G1 E0 F2400 ; custom un-retraction/prime
G92 E0.0000
G1 X116.6710 Y141.5000 E0.3246 F1920 ; custom feedrate
G1 X114.0560 Y140.0000 E0.5277
G1 X116.6710 Y138.5000 E0.7307
G1 X121.4910 Y138.5000 E1.0553
G1 X121.4910 Y141.5000 E1.2574
G1 X122.0910 Y142.1000 F4000 ; custom feedrate
G92 E0.0000
G1 X115.9000 Y142.1000 E0.4170 F1920 ; custom feedrate
G1 X115.9000 Y141.7490 E0.4406
G1 X113.6850 Y140.4790 E0.6126
G1 X113.6850 Y139.5210 E0.6771
G1 X115.9000 Y138.2510 E0.8491
G1 X115.9000 Y137.9000 E0.8727
G1 X122.0910 Y137.9000 E1.2897
G1 X122.0910 Y142.1000 E1.5726
G1 X122.6910 Y142.7000 F4000 ; custom feedrate
G92 E0.0000
G1 X115.3000 Y142.7000 E0.4978 F1440 ; custom feedrate
G1 X115.3000 Y142.0970 E0.5384
G1 X113.0850 Y140.8260 E0.7104
G1 X113.0850 Y139.1740 E0.8217
G1 X115.3000 Y137.9030 E0.9937
G1 X115.3000 Y137.3000 E1.0343
G1 X122.6910 Y137.3000 E1.5322
G1 X122.6910 Y142.7000 E1.8959
G1 X116.2840 Y138.2600 F4000 ; custom feedrate
G92 E0.0000
G1 X116.2600 Y138.2840 E0.0023 F2400 ; custom feedrate
G1 X116.2170 Y139.1760 F4000 ; custom feedrate
G92 E0.0000
G1 X116.1100 Y139.2820 E0.0102 F1920 ; custom feedrate
G1 X115.1690 Y140.2230 F4000 ; custom feedrate
G92 E0.0000
G1 X115.3300 Y140.0620 E0.0153 F1920 ; custom feedrate
G1 X115.3300 Y140.2700 E0.0293
G1 X115.7380 Y140.5040 E0.0609
G1 X115.7090 Y140.5330 E0.0637
G1 X116.2480 Y140.8420 E0.1056
G1 X116.2600 Y140.8300 E0.1067
G1 X121.0410 Y141.1400 F4000 ; custom feedrate
G92 E0.0000
G1 X121.1310 Y141.0500 E0.0086 F1920 ; custom feedrate
G1 X121.1310 Y140.2010 E0.0657
G1 X120.7470 Y140.5860 E0.1024
G1 X120.7470 Y139.7370 E0.1595
G1 X121.1310 Y139.3530 E0.1961
G1 X121.1310 Y138.8600 E0.2293
G1 X120.7750 Y138.8600 E0.2533
G1 X120.7470 Y138.8890 E0.2560
G92 E0.0000
G1 E-2 F2400 ; custom retraction
;layer 25, Z = 7.500
;fan25;
G1 Z7.500 F1200
G1 X121.9150 Y138.5000 F4000 ; custom feedrate
G1 E0 F2400 ; custom un-retraction/prime
G92 E0.0000
G1 X121.9150 Y141.5000 E0.2021 F1920 ; custom feedrate
G1 X116.2430 Y141.5000 E0.5840
G1 X113.6280 Y140.0000 E0.7871
G1 X116.2430 Y138.5000 E0.9902
G1 X121.9150 Y138.5000 E1.3721
G1 X122.5150 Y137.9000 F4000 ; custom feedrate
G92 E0.0000
G1 X122.5150 Y142.1000 E0.2829 F1920 ; custom feedrate
G1 X116.0830 Y142.1000 E0.7160
G1 X113.2560 Y140.4790 E0.9355
G1 X113.2560 Y139.5210 E1.0000
G1 X116.0830 Y137.9000 E1.2195
G1 X122.5150 Y137.9000 E1.6526
G1 X123.1150 Y137.3000 F4000 ; custom feedrate
G92 E0.0000
G1 X123.1150 Y142.7000 E0.3637 F1440 ; custom feedrate
G1 X115.3000 Y142.7000 E0.8900
G1 X115.3000 Y142.3430 E0.9141
G1 X112.6560 Y140.8260 E1.1194
G1 X112.6560 Y139.1740 E1.2307
G1 X115.3000 Y137.6570 E1.4359
G1 X115.3000 Y137.3000 E1.4600
G1 X123.1150 Y137.3000 E1.9863
G1 X121.0410 Y138.8600 F4000 ; custom feedrate
G92 E0.0000
G1 X121.5550 Y139.3740 E0.0489 F1920 ; custom feedrate
G1 X121.5550 Y140.2220 E0.1061
G1 X121.0370 Y139.7050 E0.1554
G1 X121.0370 Y140.5530 E0.2125
G1 X121.5550 Y141.0710 E0.2618
G1 X116.0920 Y139.0020 F4000 ; custom feedrate
G92 E0.0000
G1 X116.1210 Y139.0310 E0.0028 F1920 ; custom feedrate
G1 X115.5810 Y139.3400 E0.0446
G1 X115.5520 Y139.3110 E0.0474
G1 X115.0130 Y139.6200 E0.0893
G1 X115.0420 Y139.6490 E0.0920
G1 X114.9020 Y139.7300 E0.1029
G1 X114.9020 Y140.2700 E0.1393
G1 X116.2600 Y141.0490 E0.2448
G1 X116.2600 Y141.0950 E0.2478
G1 X114.8030 Y140.2590 E0.3609
G1 X114.4740 Y139.9300 E0.3923
G92 E0.0000
G1 E-2 F2400 ; custom retraction
G91;
G1 Z1 F1200; custom z hop
G90;
G1 X156.0850 Y138.5000 F4000 ; custom feedrate
G1 Z7.500 F1200
G1 E0 F2400 ; custom un-retraction/prime
G92 E0.0000
G1 X166.5000 Y138.5000 E0.7014 F1920 ; custom feedrate
G1 X166.5000 Y141.5000 E0.9035
G1 X156.0850 Y141.5000 E1.6049
G1 X156.0850 Y138.5000 E1.8070
G1 X155.4850 Y137.9000 F4000 ; custom feedrate
G92 E0.0000
G1 X167.1000 Y137.9000 E0.7823 F1920 ; custom feedrate
G1 X167.1000 Y142.1000 E1.0651
G1 X155.4850 Y142.1000 E1.8474
G1 X155.4850 Y137.9000 E2.1303
G1 X154.8850 Y137.3000 F4000 ; custom feedrate
G92 E0.0000
G1 X167.7000 Y137.3000 E0.8631 F1440 ; custom feedrate
G1 X167.7000 Y142.7000 E1.2268
G1 X154.8850 Y142.7000 E2.0899
G1 X154.8850 Y137.3000 E2.4536
G1 X156.6790 Y138.8600 F4000 ; custom feedrate
G92 E0.0000
G1 X156.9630 Y139.1440 E0.0270 F1920 ; custom feedrate
G1 X156.9630 Y139.9920 E0.0842
G1 X156.4450 Y139.4750 E0.1335
G1 X156.4450 Y140.3230 E0.1906
G1 X156.9630 Y140.8410 E0.2399
G1 X160.1480 Y138.9350 F4000 ; custom feedrate
G92 E0.0000
G1 X162.2780 Y141.0650 E0.2536 F2400 ; custom feedrate
G1 X166.0650 Y141.0650 E0.5724
G1 X166.0650 Y139.5480 E0.7001
G1 X165.4520 Y138.9350 E0.7731
G92 E0.0000
G1 E-2 F2400 ; custom retraction
;layer 26, Z = 7.800
;fan26;
G1 Z7.800 F1200
G1 X166.5000 Y138.5000 F4000 ; custom feedrate
G1 E0 F2400 ; custom un-retraction/prime
G92 E0.0000
G1 X166.5000 Y141.5000 E0.2021 F1920 ; custom feedrate
G1 X155.5930 Y141.5000 E0.9366
G1 X155.5930 Y138.5000 E1.1387
G1 X166.5000 Y138.5000 E1.8733
G1 X167.1000 Y137.9000 F4000 ; custom feedrate
G92 E0.0000
G1 X167.1000 Y142.1000 E0.2829 F1920 ; custom feedrate
G1 X154.9930 Y142.1000 E1.0983
G1 X154.9930 Y137.9000 E1.3812
G1 X167.1000 Y137.9000 E2.1966
G1 X167.7000 Y137.3000 F4000 ; custom feedrate
G92 E0.0000
G1 X167.7000 Y142.7000 E0.3637 F1440 ; custom feedrate
G1 X154.3930 Y142.7000 E1.2599
G1 X154.3930 Y137.3000 E1.6236
G1 X167.7000 Y137.3000 E2.5199
G1 X156.6350 Y140.3350 F4000 ; custom feedrate
G92 E0.0000
G1 X155.9530 Y141.0170 E0.0650 F1920 ; custom feedrate
G1 X155.9530 Y140.1690 E0.1221
G1 X156.6350 Y139.4870 E0.1871
G1 X156.6350 Y138.8600 E0.2293
G1 X156.4140 Y138.8600 E0.2442
G1 X155.9530 Y139.3200 E0.2880
G1 X160.1480 Y141.0650 F4000 ; custom feedrate
G92 E0.0000
G1 X162.2780 Y138.9350 E0.2536 F2400 ; custom feedrate
G1 X166.0650 Y138.9350 E0.5724
G1 X166.0650 Y140.4520 E0.7001
G1 X165.4520 Y141.0650 E0.7731
G92 E0.0000
G1 E-2 F2400 ; custom retraction
G91;
G1 Z1 F1200; custom z hop
G90;
G1 X122.4070 Y141.5000 F4000 ; custom feedrate
G1 Z7.800 F1200
G1 E0 F2400 ; custom un-retraction/prime
G92 E0.0000
G1 X115.8150 Y141.5000 E0.4440 F1920 ; custom feedrate
G1 X113.1990 Y140.0000 E0.6470
G1 X115.8150 Y138.5000 E0.8501
G1 X122.4070 Y138.5000 E1.2941
G1 X122.4070 Y141.5000 E1.4961
G1 X123.0070 Y142.1000 F4000 ; custom feedrate
G92 E0.0000
G1 X115.6550 Y142.1000 E0.4952 F1920 ; custom feedrate
G1 X112.8280 Y140.4790 E0.7146
G1 X112.8280 Y139.5210 E0.7791
G1 X115.6550 Y137.9000 E0.9986
G1 X123.0070 Y137.9000 E1.4938
G1 X123.0070 Y142.1000 E1.7766
G1 X123.6070 Y142.7000 F4000 ; custom feedrate
G92 E0.0000
G1 X115.3000 Y142.7000 E0.5595 F1440 ; custom feedrate
G1 X115.3000 Y142.5880 E0.5670
G1 X112.2280 Y140.8260 E0.8055
G1 X112.2280 Y139.1740 E0.9168
G1 X115.3000 Y137.4120 E1.1553
G1 X115.3000 Y137.3000 E1.1629
G1 X123.6070 Y137.3000 E1.7223
G1 X123.6070 Y142.7000 E2.0860
G1 X121.8890 Y141.1400 F4000 ; custom feedrate
G92 E0.0000
G1 X122.0470 Y140.9830 E0.0150 F1920 ; custom feedrate
G1 X122.0470 Y140.1340 E0.0721
G1 X121.3650 Y140.8160 E0.1371
G1 X121.3650 Y139.9680 E0.1942
G1 X122.0470 Y139.2860 E0.2592
G1 X122.0470 Y138.8600 E0.2879
G1 X121.6240 Y138.8600 E0.3163
G1 X121.3650 Y139.1190 E0.3410
G1 X115.9500 Y141.1400 F4000 ; custom feedrate
G92 E0.0000
G1 X115.9640 Y141.1250 E0.0014 F1920 ; custom feedrate
G1 X115.4250 Y140.8160 E0.0433
G1 X115.3960 Y140.8450 E0.0460
G1 X114.8570 Y140.5360 E0.0879
G1 X114.8860 Y140.5070 E0.0906
G1 X114.4730 Y140.2700 E0.1227
G1 X114.4730 Y140.0710 E0.1361
G1 X114.3180 Y140.2260 E0.1509
G1 X115.2730 Y139.2710 F4000 ; custom feedrate
G92 E0.0000
G1 X115.3800 Y139.1640 E0.0102 F1920 ; custom feedrate
G92 E0.0000
G1 E-2 F2400 ; custom retraction
;layer 27, Z = 8.100
;fan27;
G1 Z8.100 F1200
G1 X115.3860 Y138.5000 F4000 ; custom feedrate
G1 E0 F2400 ; custom un-retraction/prime
G92 E0.0000
G1 X123.0050 Y138.5000 E0.5132 F1920 ; custom feedrate
G1 X123.0050 Y141.5000 E0.7152
G1 X115.3860 Y141.5000 E1.2284
G1 X112.7710 Y140.0000 E1.4314
G1 X115.3860 Y138.5000 E1.6345
G1 X115.2260 Y137.9000 F4000 ; custom feedrate
G92 E0.0000
G1 X123.6050 Y137.9000 E0.5643 F1920 ; custom feedrate
G1 X123.6050 Y142.1000 E0.8472
G1 X115.2260 Y142.1000 E1.4116
G1 X112.4000 Y140.4790 E1.6310
G1 X112.4000 Y139.5210 E1.6955
G1 X115.2260 Y137.9000 E1.9150
G1 X115.0660 Y137.3000 F4000 ; custom feedrate
G92 E0.0000
G1 X124.2050 Y137.3000 E0.6155 F1440 ; custom feedrate
G1 X124.2050 Y142.7000 E0.9792
G1 X115.0660 Y142.7000 E1.5947
G1 X111.8000 Y140.8260 E1.8484
G1 X111.8000 Y139.1740 E1.9597
G1 X115.0660 Y137.3000 E2.2133
G1 X115.9500 Y138.8600 F4000 ; custom feedrate
G92 E0.0000
G1 X116.6100 Y139.5200 E0.0629 F1920 ; custom feedrate
G1 X116.6100 Y140.3690 E0.1200
G1 X115.2400 Y138.9990 E0.2505
G1 X114.7010 Y139.3080 E0.2924
G1 X116.5330 Y141.1400 E0.4669
G1 X115.6840 Y141.1400 E0.5240
G1 X114.1620 Y139.6170 E0.6691
G1 X113.6220 Y139.9270 E0.7109
G1 X113.9660 Y140.2710 E0.7437
G1 X119.0780 Y141.1400 F4000 ; custom feedrate
G92 E0.0000
G1 X118.4150 Y140.4770 E0.0632 F1920 ; custom feedrate
G1 X118.4150 Y139.6280 E0.1203
G1 X119.9270 Y141.1400 E0.2643
G1 X120.7750 Y141.1400 E0.3215
G1 X118.4950 Y138.8600 E0.5387
G1 X119.3440 Y138.8600 E0.5958
G1 X121.6240 Y141.1400 E0.8130
G1 X122.4720 Y141.1400 E0.8701
G1 X120.1920 Y138.8600 E1.0873
G1 X121.0410 Y138.8600 E1.1444
G1 X122.6450 Y140.4640 E1.2973
G1 X122.6450 Y139.6160 E1.3544
G1 X121.8890 Y138.8600 E1.4264
G92 E0.0000
G1 E-2 F2400 ; custom retraction
G91;
G1 Z1 F1200; custom z hop
G90;
G1 X154.9950 Y138.5000 F4000 ; custom feedrate
G1 Z8.100 F1200
G1 E0 F2400 ; custom un-retraction/prime
G92 E0.0000
G1 X166.5000 Y138.5000 E0.7749 F1920 ; custom feedrate
G1 X166.5000 Y141.5000 E0.9770
G1 X154.9950 Y141.5000 E1.7519
G1 X154.9950 Y138.5000 E1.9539
G1 X154.3950 Y137.9000 F4000 ; custom feedrate
G92 E0.0000
G1 X167.1000 Y137.9000 E0.8557 F1920 ; custom feedrate
G1 X167.1000 Y142.1000 E1.1386
G1 X154.3950 Y142.1000 E1.9943
G1 X154.3950 Y137.9000 E2.2772
G1 X153.7950 Y137.3000 F4000 ; custom feedrate
G92 E0.0000
G1 X167.7000 Y137.3000 E0.9365 F1440 ; custom feedrate
G1 X167.7000 Y142.7000 E1.3002
G1 X153.7950 Y142.7000 E2.2368
G1 X153.7950 Y137.3000 E2.6005
G1 X155.3550 Y140.9300 F4000 ; custom feedrate
G92 E0.0000
G1 X155.5650 Y141.1400 E0.0200 F1920 ; custom feedrate
G1 X156.4140 Y141.1400 E0.0772
G1 X155.3550 Y140.0810 E0.1780
G1 X155.3550 Y139.2330 E0.2352
G1 X157.2620 Y141.1400 E0.4169
G1 X158.1110 Y141.1400 E0.4740
G1 X155.8310 Y138.8600 E0.6912
G1 X156.6790 Y138.8600 E0.7483
G1 X158.9590 Y141.1400 E0.9655
G1 X159.5850 Y141.1400 E1.0076
G1 X159.5850 Y140.9170 E1.0226
G1 X157.5280 Y138.8600 E1.2186
G1 X158.3760 Y138.8600 E1.2758
G1 X159.5850 Y140.0690 E1.3909
G1 X159.5850 Y139.2200 E1.4481
G1 X159.2250 Y138.8600 E1.4824
G1 X160.2600 Y139.0470 F4000 ; custom feedrate
G92 E0.0000
G1 X162.2780 Y141.0650 E0.2403 F2400 ; custom feedrate
G1 X166.0650 Y141.0650 E0.5591
G1 X166.0650 Y139.5480 E0.6868
G1 X165.4520 Y138.9350 E0.7598
G92 E0.0000
G1 E-2 F2400 ; custom retraction
;layer 28, Z = 8.400
;fan28;
G1 Z8.400 F1200
G1 X166.5000 Y138.5000 F4000 ; custom feedrate
G1 E0 F2400 ; custom un-retraction/prime
G92 E0.0000
G1 X166.5000 Y141.5000 E0.2021 F1920 ; custom feedrate
G1 X154.2130 Y141.5000 E1.0296
G1 X154.2130 Y138.5000 E1.2317
G1 X166.5000 Y138.5000 E2.0592
G1 X167.1000 Y137.9000 F4000 ; custom feedrate
G92 E0.0000
G1 X167.1000 Y142.1000 E0.2829 F1920 ; custom feedrate
G1 X153.6130 Y142.1000 E1.1913
G1 X153.6130 Y137.9000 E1.4741
G1 X167.1000 Y137.9000 E2.3825
G1 X167.7000 Y137.3000 F4000 ; custom feedrate
G92 E0.0000
G1 X167.7000 Y142.7000 E0.3637 F1440 ; custom feedrate
G1 X153.0130 Y142.7000 E1.3529
G1 X153.0130 Y137.3000 E1.7166
G1 X167.7000 Y137.3000 E2.7058
G1 X159.5850 Y140.7800 F4000 ; custom feedrate
G92 E0.0000
G1 X159.2250 Y141.1400 E0.0343 F1920 ; custom feedrate
G1 X158.3760 Y141.1400 E0.0915
G1 X159.5850 Y139.9310 E0.2066
G1 X159.5850 Y139.0830 E0.2638
G1 X157.5280 Y141.1400 E0.4597
G1 X156.6790 Y141.1400 E0.5169
G1 X158.9590 Y138.8600 E0.7340
G1 X158.1110 Y138.8600 E0.7912
G1 X155.8310 Y141.1400 E1.0084
G1 X154.9820 Y141.1400 E1.0655
G1 X157.2620 Y138.8600 E1.2827
G1 X156.4140 Y138.8600 E1.3398
G1 X154.5730 Y140.7010 E1.5152
G1 X154.5730 Y139.8520 E1.5723
G1 X155.5650 Y138.8600 E1.6668
G1 X154.7160 Y138.8600 E1.7240
G1 X154.5730 Y139.0040 E1.7377
G1 X160.2600 Y140.9530 F4000 ; custom feedrate
G92 E0.0000
G1 X162.2780 Y138.9350 E0.2403 F2400 ; custom feedrate
G1 X166.0650 Y138.9350 E0.5591
G1 X166.0650 Y140.4520 E0.6868
G1 X165.4520 Y141.0650 E0.7598
G92 E0.0000
G1 E-2 F2400 ; custom retraction
G91;
G1 Z1 F1200; custom z hop
G90;
G1 X123.7870 Y141.5000 F4000 ; custom feedrate
G1 Z8.400 F1200
G1 E0 F2400 ; custom un-retraction/prime
G92 E0.0000
G1 X114.9580 Y141.5000 E0.5947 F1920 ; custom feedrate
G1 X112.3420 Y140.0000 E0.7977
G1 X114.9580 Y138.5000 E1.0008
G1 X123.7870 Y138.5000 E1.5955
G1 X123.7870 Y141.5000 E1.7975
G1 X124.3870 Y142.1000 F4000 ; custom feedrate
G92 E0.0000
G1 X114.7980 Y142.1000 E0.6459 F1920 ; custom feedrate
G1 X111.9710 Y140.4790 E0.8653
G1 X111.9710 Y139.5210 E0.9298
G1 X114.7980 Y137.9000 E1.1493
G1 X124.3870 Y137.9000 E1.7952
G1 X124.3870 Y142.1000 E2.0780
G1 X124.9870 Y142.7000 F4000 ; custom feedrate
G92 E0.0000
G1 X114.6380 Y142.7000 E0.6970 F1440 ; custom feedrate
G1 X111.3710 Y140.8260 E0.9507
G1 X111.3710 Y139.1740 E1.0620
G1 X114.6380 Y137.3000 E1.3156
G1 X124.9870 Y137.3000 E2.0127
G1 X124.9870 Y142.7000 E2.3764
G1 X122.7380 Y141.1400 F4000 ; custom feedrate
G92 E0.0000
G1 X123.4270 Y140.4510 E0.0657 F1920 ; custom feedrate
G1 X123.4270 Y139.6020 E0.1228
G1 X121.8890 Y141.1400 E0.2693
G1 X121.0410 Y141.1400 E0.3264
G1 X123.3210 Y138.8600 E0.5436
G1 X122.4720 Y138.8600 E0.6007
G1 X120.1920 Y141.1400 E0.8179
G1 X119.3440 Y141.1400 E0.8751
G1 X121.6240 Y138.8600 E1.0922
G1 X120.7750 Y138.8600 E1.1494
G1 X118.4950 Y141.1400 E1.3666
G1 X118.4150 Y141.1400 E1.3720
G1 X118.4150 Y140.3720 E1.4237
G1 X119.9270 Y138.8600 E1.5677
G1 X119.0780 Y138.8600 E1.6249
G1 X118.4150 Y139.5230 E1.6880
G1 X116.6100 Y140.4800 F4000 ; custom feedrate
G92 E0.0000
G1 X115.9500 Y141.1400 E0.0629 F1920 ; custom feedrate
G1 X115.1010 Y141.1400 E0.1200
G1 X116.6100 Y139.6310 E0.2637
G1 X116.6100 Y138.8600 E0.3157
G1 X116.5330 Y138.8600 E0.3209
G1 X114.5450 Y140.8480 E0.5103
G1 X114.0050 Y140.5390 E0.5521
G1 X115.6840 Y138.8600 E0.7120
G1 X115.0540 Y138.8600 E0.7545
G1 X114.5430 Y139.1530 E0.7942
G1 X113.4660 Y140.2300 E0.8967
G92 E0.0000
G1 E-2 F2400 ; custom retraction
;layer 29, Z = 8.700
;fan29;
G1 Z8.700 F1200
G1 X111.9140 Y140.0000 F4000 ; custom feedrate
G1 E0 F2400 ; custom un-retraction/prime
G92 E0.0000
G1 X114.5290 Y138.5000 E0.2031 F1920 ; custom feedrate
G1 X166.5000 Y138.5000 E3.7034
G1 X166.5000 Y141.5000 E3.9054
G1 X114.5290 Y141.5000 E7.4058
G1 X111.9140 Y140.0000 E7.6088
G1 X111.5430 Y140.4790 F4000 ; custom feedrate
G92 E0.0000
G1 X111.5430 Y139.5210 E0.0645 F1920 ; custom feedrate
G1 X114.3690 Y137.9000 E0.2840
G1 X167.1000 Y137.9000 E3.8355
G1 X167.1000 Y142.1000 E4.1183
G1 X114.3690 Y142.1000 E7.6698
G1 X111.5430 Y140.4790 E7.8893
G1 X110.9430 Y140.8260 F4000 ; custom feedrate
G92 E0.0000
G1 X110.9430 Y139.1740 E0.1113 F1440 ; custom feedrate
G1 X114.2090 Y137.3000 E0.3649
G1 X167.7000 Y137.3000 E3.9676
G1 X167.7000 Y142.7000 E4.3313
G1 X114.2090 Y142.7000 E7.9340
G1 X110.9430 Y140.8260 E8.1877
G1 X112.7710 Y139.9240 F4000 ; custom feedrate
G92 E0.0000
G1 X113.1290 Y140.2820 E0.0341 F1920 ; custom feedrate
G1 X114.6250 Y141.1400 E0.1503
G1 X114.8360 Y141.1400 E0.1645
G1 X113.3100 Y139.6140 E0.3098
G1 X113.8490 Y139.3050 E0.3517
G1 X115.6840 Y141.1400 E0.5264
G1 X116.5330 Y141.1400 E0.5836
G1 X114.3880 Y138.9960 E0.7878
G1 X114.6250 Y138.8600 E0.8062
G1 X115.1010 Y138.8600 E0.8383
G1 X116.6100 Y140.3690 E0.9820
G1 X116.6100 Y139.5200 E1.0391
G1 X115.9500 Y138.8600 E1.1020
G1 X119.0780 Y141.1400 F4000 ; custom feedrate
G92 E0.0000
G1 X118.4150 Y140.4770 E0.0632 F1920 ; custom feedrate
G1 X118.4150 Y139.6280 E0.1203
G1 X119.9270 Y141.1400 E0.2643
G1 X120.7750 Y141.1400 E0.3215
G1 X118.4950 Y138.8600 E0.5387
G1 X119.3440 Y138.8600 E0.5958
G1 X121.6240 Y141.1400 E0.8130
G1 X122.4720 Y141.1400 E0.8701
G1 X120.1920 Y138.8600 E1.0873
G1 X121.0410 Y138.8600 E1.1444
G1 X123.3210 Y141.1400 E1.3616
G1 X124.1690 Y141.1400 E1.4188
G1 X121.8890 Y138.8600 E1.6359
G1 X122.7380 Y138.8600 E1.6931
G1 X124.3870 Y140.5090 E1.8502
G1 X124.3870 Y139.6610 E1.9073
G1 X123.5870 Y138.8600 E1.9836
G1 X153.6130 Y140.8850 F4000 ; custom feedrate
G92 E0.0000
G1 X153.8680 Y141.1400 E0.0243 F1920 ; custom feedrate
G1 X154.7160 Y141.1400 E0.0815
G1 X153.6130 Y140.0360 E0.1866
G1 X153.6130 Y139.1880 E0.2437
G1 X155.5650 Y141.1400 E0.4297
G1 X156.4140 Y141.1400 E0.4868
G1 X154.1340 Y138.8600 E0.7040
G1 X154.9820 Y138.8600 E0.7612
G1 X157.2620 Y141.1400 E0.9783
G1 X158.1110 Y141.1400 E1.0355
G1 X155.8310 Y138.8600 E1.2526
G1 X156.6790 Y138.8600 E1.3098
G1 X158.9590 Y141.1400 E1.5270
G1 X159.5850 Y141.1400 E1.5691
G1 X159.5850 Y140.9170 E1.5841
G1 X157.5280 Y138.8600 E1.7801
G1 X158.3760 Y138.8600 E1.8372
G1 X159.5850 Y140.0690 E1.9524
G1 X159.5850 Y139.2200 E2.0095
G1 X159.2250 Y138.8600 E2.0439
G1 X160.2600 Y139.0470 F4000 ; custom feedrate
G92 E0.0000
G1 X162.2780 Y141.0650 E0.2403 F2400 ; custom feedrate
G1 X166.0650 Y141.0650 E0.5591
G1 X166.0650 Y139.5480 E0.6868
G1 X165.4520 Y138.9350 E0.7598
M106 S255
G1 X153.0130 Y140.6000 F4000 ; custom feedrate
G92 E0.0000
G1 X124.9870 Y140.6000 E1.8876 F2400 ; custom feedrate
G1 X124.9870 Y140.0000 E1.9280
G1 X153.0130 Y140.0000 E3.8155
G1 X153.0130 Y139.4000 E3.8560
G1 X124.9870 Y139.4000 E5.7435
G92 E0.0000
G1 E-2 F2400 ; custom retraction
;layer 30, Z = 9.000
;fan30;
M106 S127; custom fan 127%
G1 Z9.000 F1200
G1 X114.1010 Y138.5000 F4000 ; custom feedrate
G1 E0 F2400 ; custom un-retraction/prime
G92 E0.0000
G1 X166.5000 Y138.5000 E3.5292 F1920 ; custom feedrate
G1 X166.5000 Y141.5000 E3.7312
G1 X114.1010 Y141.5000 E7.2604
G1 X111.4860 Y140.0000 E7.4635
G1 X114.1010 Y138.5000 E7.6665
G1 X113.9410 Y137.9000 F4000 ; custom feedrate
G92 E0.0000
G1 X167.1000 Y137.9000 E3.5804 F1920 ; custom feedrate
G1 X167.1000 Y142.1000 E3.8632
G1 X113.9410 Y142.1000 E7.4436
G1 X111.1140 Y140.4790 E7.6631
G1 X111.1140 Y139.5210 E7.7276
G1 X113.9410 Y137.9000 E7.9470
G1 X113.7810 Y137.3000 F4000 ; custom feedrate
G92 E0.0000
G1 X167.7000 Y137.3000 E3.6315 F1440 ; custom feedrate
G1 X167.7000 Y142.7000 E3.9952
G1 X113.7810 Y142.7000 E7.6268
G1 X110.5140 Y140.8260 E7.8804
G1 X110.5140 Y139.1740 E7.9917
G1 X113.7810 Y137.3000 E8.2454
G1 X112.6150 Y140.2330 F4000 ; custom feedrate
G92 E0.0000
G1 X113.7050 Y139.1420 E0.1039 F1920 ; custom feedrate
G1 X114.1970 Y138.8600 E0.1420
G1 X114.8360 Y138.8600 E0.1851
G1 X113.1540 Y140.5420 E0.3453
G1 X113.6930 Y140.8510 E0.3871
G1 X115.6840 Y138.8600 E0.5768
G1 X116.5330 Y138.8600 E0.6339
G1 X114.2530 Y141.1400 E0.8511
G1 X115.1010 Y141.1400 E0.9083
G1 X116.6100 Y139.6310 E1.0520
G1 X116.6100 Y140.4800 E1.1091
G1 X115.9500 Y141.1400 E1.1720
G1 X118.4150 Y139.5230 F4000 ; custom feedrate
G92 E0.0000
G1 X119.0780 Y138.8600 E0.0632 F1920 ; custom feedrate
G1 X119.9270 Y138.8600 E0.1203
G1 X118.4150 Y140.3720 E0.2643
G1 X118.4150 Y141.1400 E0.3161
G1 X118.4950 Y141.1400 E0.3215
G1 X120.7750 Y138.8600 E0.5387
G1 X121.6240 Y138.8600 E0.5958
G1 X119.3440 Y141.1400 E0.8130
G1 X120.1920 Y141.1400 E0.8701
G1 X122.4720 Y138.8600 E1.0873
G1 X123.3210 Y138.8600 E1.1444
G1 X121.0410 Y141.1400 E1.3616
G1 X121.8890 Y141.1400 E1.4188
G1 X124.1690 Y138.8600 E1.6359
G1 X125.0180 Y138.8600 E1.6931
G1 X122.7380 Y141.1400 E1.9103
G1 X123.5870 Y141.1400 E1.9674
G1 X125.8670 Y138.8600 E2.1846
G1 X126.7150 Y138.8600 E2.2417
G1 X124.4350 Y141.1400 E2.4589
G1 X125.2840 Y141.1400 E2.5160
G1 X127.5640 Y138.8600 E2.7332
G1 X128.4120 Y138.8600 E2.7904
G1 X126.1320 Y141.1400 E3.0075
G1 X126.9810 Y141.1400 E3.0647
G1 X129.2610 Y138.8600 E3.2819
G1 X130.1090 Y138.8600 E3.3390
G1 X127.8290 Y141.1400 E3.5562
G1 X128.6780 Y141.1400 E3.6133
G1 X130.9580 Y138.8600 E3.8305
G1 X131.8060 Y138.8600 E3.8876
G1 X129.5260 Y141.1400 E4.1048
G1 X130.3750 Y141.1400 E4.1620
G1 X132.6550 Y138.8600 E4.3791
G1 X133.5030 Y138.8600 E4.4363
G1 X131.2230 Y141.1400 E4.6534
G1 X132.0720 Y141.1400 E4.7106
G1 X134.3520 Y138.8600 E4.9278
G1 X135.2000 Y138.8600 E4.9849
G1 X132.9200 Y141.1400 E5.2021
G1 X133.7690 Y141.1400 E5.2592
G1 X136.0490 Y138.8600 E5.4764
G1 X136.8970 Y138.8600 E5.5336
G1 X134.6170 Y141.1400 E5.7507
G1 X135.4660 Y141.1400 E5.8079
G1 X137.7460 Y138.8600 E6.0250
G1 X138.5940 Y138.8600 E6.0822
G1 X136.3140 Y141.1400 E6.2994
G1 X137.1630 Y141.1400 E6.3565
G1 X139.4430 Y138.8600 E6.5737
G1 X140.2920 Y138.8600 E6.6308
G1 X138.0120 Y141.1400 E6.8480
G1 X138.8600 Y141.1400 E6.9052
G1 X141.1400 Y138.8600 E7.1223
G1 X141.9890 Y138.8600 E7.1795
G1 X139.7090 Y141.1400 E7.3966
G1 X140.5570 Y141.1400 E7.4538
G1 X142.8370 Y138.8600 E7.6710
G1 X143.6860 Y138.8600 E7.7281
G1 X141.4060 Y141.1400 E7.9453
G1 X142.2540 Y141.1400 E8.0024
G1 X144.5340 Y138.8600 E8.2196
G1 X145.3830 Y138.8600 E8.2768
G1 X143.1030 Y141.1400 E8.4939
G1 X143.9510 Y141.1400 E8.5511
G1 X146.2310 Y138.8600 E8.7682
G1 X147.0800 Y138.8600 E8.8254
G1 X144.8000 Y141.1400 E9.0426
G1 X145.6480 Y141.1400 E9.0997
G1 X147.9280 Y138.8600 E9.3169
G1 X148.7770 Y138.8600 E9.3740
G1 X146.4970 Y141.1400 E9.5912
G1 X147.3450 Y141.1400 E9.6483
G1 X149.6250 Y138.8600 E9.8655
G1 X150.4740 Y138.8600 E9.9227
G1 X148.1940 Y141.1400 E10.1398
G1 X149.0420 Y141.1400 E10.1970
G1 X151.3220 Y138.8600 E10.4142
G1 X152.1710 Y138.8600 E10.4713
G1 X149.8910 Y141.1400 E10.6885
G1 X150.7390 Y141.1400 E10.7456
G1 X153.0190 Y138.8600 E10.9628
G1 X153.8680 Y138.8600 E11.0199
G1 X151.5880 Y141.1400 E11.2371
G1 X152.4360 Y141.1400 E11.2943
G1 X154.7160 Y138.8600 E11.5114
G1 X155.5650 Y138.8600 E11.5686
G1 X153.2850 Y141.1400 E11.7858
G1 X154.1340 Y141.1400 E11.8429
G1 X156.4140 Y138.8600 E12.0601
G1 X157.2620 Y138.8600 E12.1172
G1 X154.9820 Y141.1400 E12.3344
G1 X155.8310 Y141.1400 E12.3915
G1 X158.1110 Y138.8600 E12.6087
G1 X158.9590 Y138.8600 E12.6659
G1 X156.6790 Y141.1400 E12.8830
G1 X157.5280 Y141.1400 E12.9402
G1 X159.5850 Y139.0830 E13.1361
G1 X159.5850 Y139.9310 E13.1933
G1 X158.3760 Y141.1400 E13.3084
G1 X159.2250 Y141.1400 E13.3656
G1 X159.5850 Y140.7800 E13.3999
G1 X160.2600 Y140.9530 F4000 ; custom feedrate
G92 E0.0000
G1 X162.2780 Y138.9350 E0.2403 F2400 ; custom feedrate
G1 X166.0650 Y138.9350 E0.5591
G1 X166.0650 Y140.4520 E0.6868
G1 X165.4520 Y141.0650 E0.7598
G92 E0.0000
G1 E-2 F2400 ; custom retraction
M104 S235 T0 ; custom hot end temp - B
;layer 31, Z = 9.300
;fan31;
G1 Z9.300 F1200
G1 X166.1500 Y141.1500 F4000 ; custom feedrate
G1 E0 F2400 ; custom un-retraction/prime
G92 E0.0000
G1 X159.8250 Y141.1500 E0.4260 F1920 ; custom feedrate
G1 X159.8250 Y138.8500 E0.5809
G1 X166.1500 Y138.8500 E1.0069
G1 X166.1500 Y141.1500 E1.1618
G1 X166.7500 Y141.7500 F4000 ; custom feedrate
G92 E0.0000
G1 X159.2250 Y141.7500 E0.5068 F1920 ; custom feedrate
G1 X159.2250 Y138.2500 E0.7425
G1 X166.7500 Y138.2500 E1.2494
G1 X166.7500 Y141.7500 E1.4851
G1 X167.3500 Y142.3500 F4000 ; custom feedrate
G92 E0.0000
G1 X158.6250 Y142.3500 E0.5876 F1440 ; custom feedrate
G1 X158.6250 Y137.6500 E0.9042
G1 X167.3500 Y137.6500 E1.4918
G1 X167.3500 Y142.3500 E1.8084
G92 E0.0000
G1 E-2 F2400 ; custom retraction
G91;
G1 Z1 F1200; custom z hop
G90;
G1 X158.6250 Y142.1370 F4000 ; custom feedrate
G1 X119.3750 Y142.3500
G1 X119.3750 Y141.1790
G1 X118.1750 Y141.1500
G1 Z9.300 F1200
G1 E0 F2400 ; custom un-retraction/prime
G92 E0.0000
G1 X116.8500 Y141.1500 E0.0892 F1920 ; custom feedrate
G1 X116.8500 Y138.8500 E0.2441
G1 X118.1750 Y138.8500 E0.3334
G1 X118.1750 Y141.1500 E0.4883
G1 X118.7750 Y141.7500 F4000 ; custom feedrate
G92 E0.0000
G1 X116.2500 Y141.7500 E0.1701 F1920 ; custom feedrate
G1 X116.2500 Y138.2500 E0.4058
G1 X118.7750 Y138.2500 E0.5759
G1 X118.7750 Y141.7500 E0.8116
G1 X119.3750 Y142.3500 F4000 ; custom feedrate
G92 E0.0000
G1 X115.6500 Y142.3500 E0.2509 F1440 ; custom feedrate
G1 X115.6500 Y137.6500 E0.5674
G1 X119.3750 Y137.6500 E0.8183
G1 X119.3750 Y142.3500 E1.1349
G92 E0.0000
G1 E-2 F2400 ; custom retraction
G91;
G1 Z1 F1200; custom z hop
G90;
G1 X115.6500 Y141.4840 F4000 ; custom feedrate
G1 X112.1760 Y140.6760
G1 Z9.300 F1200
G1 E0 F2400 ; custom un-retraction/prime
G92 E0.0000
G1 X110.8240 Y140.6760 E0.0911 F1440 ; custom feedrate
G1 X110.8240 Y139.3240 E0.1822
G1 X112.1760 Y139.3240 E0.2733
G1 X112.1760 Y140.6760 E0.3644
G1 X111.6820 Y139.6840 F4000 ; custom feedrate
G92 E0.0000
G1 X111.8160 Y139.8180 E0.0128 F2400 ; custom feedrate
G1 X111.8160 Y140.3160 E0.0463
G1 X111.4660 Y140.3160 E0.0699
G1 X111.1840 Y140.0340 E0.0968
G92 E0.0000
G1 E-2 F2400 ; custom retraction
;layer 32, Z = 9.600
;fan32;
G1 Z9.600 F1200
G1 X110.8710 Y140.6290 F4000 ; custom feedrate
G1 E0 F2400 ; custom un-retraction/prime
G92 E0.0000
G1 X110.8710 Y139.3710 E0.0847 F1440 ; custom feedrate
G1 X112.1290 Y139.3710 E0.1694
G1 X112.1290 Y140.6290 E0.2541
G1 X110.8710 Y140.6290 E0.3388
G1 X111.2310 Y139.9190 F4000 ; custom feedrate
G92 E0.0000
G1 X111.4190 Y139.7310 E0.0179 F2400 ; custom feedrate
G1 X111.7690 Y139.7310 E0.0414
G1 X111.7690 Y140.2300 E0.0750
G1 X111.7300 Y140.2690 E0.0787
G92 E0.0000
G1 E-2 F2400 ; custom retraction
G91;
G1 Z1 F1200; custom z hop
G90;
G1 X112.1290 Y140.3660 F4000 ; custom feedrate
G1 X112.1290 Y140.6290
G1 X115.3500 Y141.1560
G1 X116.5500 Y141.4500
G1 Z9.600 F1200
G1 E0 F2400 ; custom un-retraction/prime
G92 E0.0000
G1 X116.5500 Y138.5500 E0.1953 F1920 ; custom feedrate
G1 X118.4940 Y138.5500 E0.3263
G1 X118.4940 Y141.4500 E0.5216
G1 X116.5500 Y141.4500 E0.6525
G1 X115.9500 Y142.0500 F4000 ; custom feedrate
G92 E0.0000
G1 X115.9500 Y137.9500 E0.2761 F1920 ; custom feedrate
G1 X119.0940 Y137.9500 E0.4879
G1 X119.0940 Y142.0500 E0.7640
G1 X115.9500 Y142.0500 E0.9758
G1 X115.3500 Y142.6500 F4000 ; custom feedrate
G92 E0.0000
G1 X115.3500 Y137.3500 E0.3570 F1440 ; custom feedrate
G1 X119.6940 Y137.3500 E0.6495
G1 X119.6940 Y142.6500 E1.0065
G1 X115.3500 Y142.6500 E1.2991
G92 E0.0000
G1 E-2 F2400 ; custom retraction
G91;
G1 Z1 F1200; custom z hop
G90;
G1 X119.6940 Y142.5320 F4000 ; custom feedrate
G1 X158.3060 Y142.6500
G1 X158.3060 Y141.4830
G1 X159.5060 Y141.4500
G1 Z9.600 F1200
G1 E0 F2400 ; custom un-retraction/prime
G92 E0.0000
G1 X159.5060 Y138.5500 E0.1953 F1920 ; custom feedrate
G1 X166.4500 Y138.5500 E0.6630
G1 X166.4500 Y141.4500 E0.8583
G1 X159.5060 Y141.4500 E1.3260
G1 X158.9060 Y142.0500 F4000 ; custom feedrate
G92 E0.0000
G1 X158.9060 Y137.9500 E0.2761 F1920 ; custom feedrate
G1 X167.0500 Y137.9500 E0.8247
G1 X167.0500 Y142.0500 E1.1008
G1 X158.9060 Y142.0500 E1.6493
G1 X158.3060 Y142.6500 F4000 ; custom feedrate
G92 E0.0000
G1 X158.3060 Y137.3500 E0.3570 F1440 ; custom feedrate
G1 X167.6500 Y137.3500 E0.9863
G1 X167.6500 Y142.6500 E1.3433
G1 X158.3060 Y142.6500 E1.9726
G1 X160.1980 Y141.0150 F4000 ; custom feedrate
G92 E0.0000
G1 X162.2280 Y138.9850 E0.2417 F2400 ; custom feedrate
G1 X166.0150 Y138.9850 E0.5605
G1 X166.0150 Y140.5020 E0.6882
G1 X165.5020 Y141.0150 E0.7493
G92 E0.0000
G1 E-2 F2400 ; custom retraction
;layer 33, Z = 9.900
;fan33;
G1 Z9.900 F1200
G1 X166.5000 Y141.5000 F4000 ; custom feedrate
G1 E0 F2400 ; custom un-retraction/prime
G92 E0.0000
G1 X159.4620 Y141.5000 E0.4740 F1920 ; custom feedrate
G1 X159.4620 Y138.5000 E0.6761
G1 X166.5000 Y138.5000 E1.1501
G1 X166.5000 Y141.5000 E1.3521
G1 X167.1000 Y142.1000 F4000 ; custom feedrate
G92 E0.0000
G1 X158.8620 Y142.1000 E0.5548 F1920 ; custom feedrate
G1 X158.8620 Y137.9000 E0.8377
G1 X167.1000 Y137.9000 E1.3925
G1 X167.1000 Y142.1000 E1.6754
G1 X167.7000 Y142.7000 F4000 ; custom feedrate
G92 E0.0000
G1 X158.2620 Y142.7000 E0.6357 F1440 ; custom feedrate
G1 X158.2620 Y137.3000 E0.9994
G1 X167.7000 Y137.3000 E1.6350
G1 X167.7000 Y142.7000 E1.9987
G1 X165.4520 Y138.9350 F4000 ; custom feedrate
G92 E0.0000
G1 X166.0650 Y139.5480 E0.0730 F2400 ; custom feedrate
G1 X166.0650 Y141.0650 E0.2007
G1 X162.2780 Y141.0650 E0.5195
G1 X160.1480 Y138.9350 E0.7731
G92 E0.0000
G1 E-2 F2400 ; custom retraction
G91;
G1 Z1 F1200; custom z hop
G90;
G1 X118.5380 Y138.5000 F4000 ; custom feedrate
G1 Z9.900 F1200
G1 E0 F2400 ; custom un-retraction/prime
G92 E0.0000
G1 X118.5380 Y141.5000 E0.2021 F1920 ; custom feedrate
G1 X116.5000 Y141.5000 E0.3393
G1 X116.5000 Y138.5000 E0.5414
G1 X118.5380 Y138.5000 E0.6786
G1 X119.1380 Y137.9000 F4000 ; custom feedrate
G92 E0.0000
G1 X119.1380 Y142.1000 E0.2829 F1920 ; custom feedrate
G1 X115.9000 Y142.1000 E0.5009
G1 X115.9000 Y137.9000 E0.7838
G1 X119.1380 Y137.9000 E1.0019
G1 X119.7380 Y137.3000 F4000 ; custom feedrate
G92 E0.0000
G1 X119.7380 Y142.7000 E0.3637 F1440 ; custom feedrate
G1 X115.3000 Y142.7000 E0.6626
G1 X115.3000 Y137.3000 E1.0263
G1 X119.7380 Y137.3000 E1.3252
G92 E0.0000
G1 E-2 F2400 ; custom retraction
G91;
G1 Z1 F1200; custom z hop
G90;
G1 X115.3000 Y138.5280 F4000 ; custom feedrate
G1 X112.0810 Y139.4190
G1 Z9.900 F1200
G1 E0 F2400 ; custom un-retraction/prime
G92 E0.0000
G1 X112.0810 Y140.5810 E0.0783 F1440 ; custom feedrate
G1 X110.9190 Y140.5810 E0.1566
G1 X110.9190 Y139.4190 E0.2349
G1 X112.0810 Y139.4190 E0.3132
G1 X111.3710 Y140.2210 F4000 ; custom feedrate
G92 E0.0000
G1 X111.2790 Y140.1290 E0.0088 F2400 ; custom feedrate
G92 E0.0000
G1 E-2 F2400 ; custom retraction
;layer 34, Z = 10.200
;fan34;
G1 Z10.200 F1200
G1 X110.9660 Y140.5340 F4000 ; custom feedrate
G1 E0 F2400 ; custom un-retraction/prime
G92 E0.0000
G1 X110.9660 Y139.4660 E0.0719 F1440 ; custom feedrate
G1 X112.0340 Y139.4660 E0.1438
G1 X112.0340 Y140.5340 E0.2157
G1 X110.9660 Y140.5340 E0.2876
G92 E0.0000
G1 E-2 F2400 ; custom retraction
G91;
G1 Z1 F1200; custom z hop
G90;
G1 X116.5000 Y141.5000 F4000 ; custom feedrate
G1 Z10.200 F1200
G1 E0 F2400 ; custom un-retraction/prime
G92 E0.0000
G1 X116.5000 Y138.5000 E0.2021 F1920 ; custom feedrate
G1 X118.5740 Y138.5000 E0.3417
G1 X118.5740 Y141.5000 E0.5438
G1 X116.5000 Y141.5000 E0.6835
G1 X115.9000 Y142.1000 F4000 ; custom feedrate
G92 E0.0000
G1 X115.9000 Y137.9000 E0.2829 F1920 ; custom feedrate
G1 X119.1740 Y137.9000 E0.5034
G1 X119.1740 Y142.1000 E0.7863
G1 X115.9000 Y142.1000 E1.0068
G1 X115.3000 Y142.7000 F4000 ; custom feedrate
G92 E0.0000
G1 X115.3000 Y137.3000 E0.3637 F1440 ; custom feedrate
G1 X119.7740 Y137.3000 E0.6650
G1 X119.7740 Y142.7000 E1.0287
G1 X115.3000 Y142.7000 E1.3301
G92 E0.0000
G1 E-2 F2400 ; custom retraction
G91;
G1 Z1 F1200; custom z hop
G90;
G1 X119.7740 Y142.5780 F4000 ; custom feedrate
G1 X158.2260 Y142.7000
G1 X158.2260 Y141.5330
G1 X159.4260 Y141.5000
G1 Z10.200 F1200
G1 E0 F2400 ; custom un-retraction/prime
G92 E0.0000
G1 X159.4260 Y138.5000 E0.2021 F1920 ; custom feedrate
G1 X166.5000 Y138.5000 E0.6785
G1 X166.5000 Y141.5000 E0.8806
G1 X159.4260 Y141.5000 E1.3570
G1 X158.8260 Y142.1000 F4000 ; custom feedrate
G92 E0.0000
G1 X158.8260 Y137.9000 E0.2829 F1920 ; custom feedrate
G1 X167.1000 Y137.9000 E0.8401
G1 X167.1000 Y142.1000 E1.1230
G1 X158.8260 Y142.1000 E1.6803
G1 X158.2260 Y142.7000 F4000 ; custom feedrate
G92 E0.0000
G1 X158.2260 Y137.3000 E0.3637 F1440 ; custom feedrate
G1 X167.7000 Y137.3000 E1.0018
G1 X167.7000 Y142.7000 E1.3655
G1 X158.2260 Y142.7000 E2.0036
G1 X160.1480 Y141.0650 F4000 ; custom feedrate
G92 E0.0000
G1 X162.2780 Y138.9350 E0.2536 F2400 ; custom feedrate
G1 X166.0650 Y138.9350 E0.5724
G1 X166.0650 Y140.4520 E0.7001
G1 X165.4520 Y141.0650 E0.7731
G92 E0.0000
G1 E-2 F2400 ; custom retraction
;layer 35, Z = 10.500
;fan35;
G1 Z10.500 F1200
G1 X166.5000 Y141.5000 F4000 ; custom feedrate
G1 E0 F2400 ; custom un-retraction/prime
G92 E0.0000
G1 X159.3780 Y141.5000 E0.4797 F1920 ; custom feedrate
G1 X159.3780 Y138.5000 E0.6817
G1 X166.5000 Y138.5000 E1.1614
G1 X166.5000 Y141.5000 E1.3635
G1 X167.1000 Y142.1000 F4000 ; custom feedrate
G92 E0.0000
G1 X158.7780 Y142.1000 E0.5605 F1920 ; custom feedrate
G1 X158.7780 Y137.9000 E0.8434
G1 X167.1000 Y137.9000 E1.4039
G1 X167.1000 Y142.1000 E1.6868
G1 X167.7000 Y142.7000 F4000 ; custom feedrate
G92 E0.0000
G1 X158.1780 Y142.7000 E0.6413 F1440 ; custom feedrate
G1 X158.1780 Y137.3000 E1.0050
G1 X167.7000 Y137.3000 E1.6464
G1 X167.7000 Y142.7000 E2.0101
G1 X165.4520 Y138.9350 F4000 ; custom feedrate
G92 E0.0000
G1 X166.0650 Y139.5480 E0.0730 F2400 ; custom feedrate
G1 X166.0650 Y141.0650 E0.2007
G1 X162.2780 Y141.0650 E0.5195
G1 X160.1480 Y138.9350 E0.7731
G92 E0.0000
G1 E-2 F2400 ; custom retraction
G91;
G1 Z1 F1200; custom z hop
G90;
G1 X118.6220 Y138.5000 F4000 ; custom feedrate
G1 Z10.500 F1200
G1 E0 F2400 ; custom un-retraction/prime
G92 E0.0000
G1 X118.6220 Y141.5000 E0.2021 F1920 ; custom feedrate
G1 X116.5000 Y141.5000 E0.3450
G1 X116.5000 Y138.5000 E0.5470
G1 X118.6220 Y138.5000 E0.6900
G1 X119.2220 Y137.9000 F4000 ; custom feedrate
G92 E0.0000
G1 X119.2220 Y142.1000 E0.2829 F1920 ; custom feedrate
G1 X115.9000 Y142.1000 E0.5066
G1 X115.9000 Y137.9000 E0.7895
G1 X119.2220 Y137.9000 E1.0132
G1 X119.8220 Y137.3000 F4000 ; custom feedrate
G92 E0.0000
G1 X119.8220 Y142.7000 E0.3637 F1440 ; custom feedrate
