; HEADER_BLOCK_START
; generated by OrcaSlicer 2.1.0-dev on 2024-05-04 at 13:11:52
; total layer number: 350
; filament_density: 1.24
; filament_diameter: 1.75
; max_z_height: 70.00
; HEADER_BLOCK_END

; THUMBNAIL_BLOCK_START

;
; THUMBNAIL_BLOCK_END

; external perimeters extrusion width = 0.40mm
; perimeters extrusion width = 0.45mm
; infill extrusion width = 0.45mm
; solid infill extrusion width = 0.40mm
; top infill extrusion width = 0.40mm
; first layer extrusion width = 0.40mm

; EXECUTABLE_BLOCK_START
EXCLUDE_OBJECT_DEFINE NAME=temperature_tower.stl_id_0_copy_0 CENTER=150,150 POLYGON=[[127.756,145.001],[167.786,145.001],[167.996,145.005],[168.146,145.015],[168.252,145.025],[168.338,145.035],[168.474,145.053],[168.504,145.057],[168.628,145.077],[168.848,145.121],[169.042,145.169],[169.134,145.195],[169.31,145.249],[169.322,145.253],[169.362,145.267],[169.512,145.321],[169.55,145.335],[169.684,145.389],[169.764,145.423],[169.786,145.433],[169.944,145.507],[169.988,145.529],[170.246,145.669],[170.376,145.745],[170.518,145.837],[170.746,145.999],[171.064,146.257],[171.334,146.515],[171.508,146.703],[171.566,146.773],[171.708,146.947],[171.76,147.017],[171.878,147.179],[172.01,147.383],[172.036,147.427],[172.11,147.555],[172.126,147.583],[172.186,147.695],[172.232,147.783],[172.244,147.811],[172.244,152.193],[172.222,152.237],[172.198,152.283],[172.124,152.419],[172.074,152.507],[172.022,152.597],[171.944,152.721],[171.896,152.795],[171.778,152.961],[171.744,153.005],[171.576,153.219],[171.566,153.231],[171.354,153.465],[171.336,153.483],[171.056,153.751],[170.878,153.901],[170.74,154.007],[170.37,154.259],[170.136,154.393],[169.94,154.495],[169.786,154.567],[169.764,154.577],[169.684,154.611],[169.55,154.665],[169.52,154.677],[169.444,154.705],[169.322,154.747],[169.114,154.811],[169.042,154.831],[168.858,154.875],[168.792,154.889],[168.628,154.923],[168.504,154.943],[168.474,154.947],[168.338,154.965],[168.252,154.975],[168.154,154.985],[167.996,154.995],[167.786,154.999],[127.758,154.999],[127.756,145.001]]
M73 P0 R91
;TYPE:Custom
PRINT_START EXTRUDER=240 BED=35
G90
G21
M83 ; use relative distances for extrusion
; filament start gcode
M106 S0
;LAYER_CHANGE
;Z:0.2
;HEIGHT:0.2
;BEFORE_LAYER_CHANGE
;0.2
G92 E0

G1 E-.4 F3600
;AFTER_LAYER_CHANGE
;0.2
;_SET_FAN_SPEED_CHANGING_LAYER
M104 S240 ; set nozzle temperature
SET_VELOCITY_LIMIT ACCEL=500 ACCEL_TO_DECEL=250
; printing object temperature_tower.stl id:0 copy 0
EXCLUDE_OBJECT_START NAME=temperature_tower.stl_id_0_copy_0
G1 Z.4 F21000
G1 X134.287 Y141.683
G1 Z.4
G1 Z.2
G1 E.4 F1800
;TYPE:Brim
;WIDTH:0.4
G1 F1200
G1 X134.829 Y141.27 E.02023
G1 X135.423 Y140.938 E.02023
G1 X136.059 Y140.692 E.02023
G1 X136.722 Y140.539 E.02021
G1 X137.48 Y140.48 E.02256
G1 X167.782 Y140.48 E.8997
G1 X168.375 Y140.5 E.01764
G1 X168.917 Y140.552 E.01615
G1 X169.34 Y140.618 E.01272
G1 X170.004 Y140.788 E.02034
G1 X170.633 Y141.049 E.02023
G1 X171.219 Y141.396 E.02023
G1 X171.751 Y141.822 E.02023
G1 X172.217 Y142.319 E.02023
G1 X172.609 Y142.877 E.02023
G1 X172.918 Y143.484 E.02023
G1 X173.138 Y144.128 E.02023
G1 X173.265 Y144.799 E.02026
G1 X173.298 Y145.366 E.01685
G1 X173.298 Y154.633 E.27517
G1 X173.25 Y155.319 E.02042
G1 X173.106 Y155.985 E.02023
G1 X172.87 Y156.624 E.02023
G1 X172.547 Y157.224 E.02023
G1 X172.142 Y157.772 E.02023
G1 X171.663 Y158.257 E.02023
G1 X171.122 Y158.67 E.02023
G1 X170.527 Y159.003 E.02023
G1 X169.89 Y159.248 E.02026
G1 X169.342 Y159.382 E.01675
G1 X168.724 Y159.47 E.01854
G1 X167.92 Y159.518 E.02391
G1 X137.479 Y159.52 E.90383
G1 X136.793 Y159.472 E.02042
G1 X136.127 Y159.328 E.02023
G1 X135.488 Y159.092 E.02023
G1 X134.888 Y158.768 E.02023
G1 X134.341 Y158.363 E.02023
G1 X133.855 Y157.885 E.02023
G1 X133.442 Y157.343 E.02023
G1 X133.11 Y156.749 E.02023
G1 X132.864 Y156.113 E.02023
G1 X132.711 Y155.45 E.02021
G1 X132.652 Y154.693 E.02256
G1 X132.652 Y145.307 E.27868
G1 X132.701 Y144.621 E.02042
G1 X132.844 Y143.955 E.02023
G1 X133.08 Y143.316 E.02023
G1 X133.404 Y142.716 E.02023
G1 X133.809 Y142.168 E.02023
G1 X134.259 Y141.712 E.01904
G1 X134.514 Y141.963 F21000
G1 F1200
G1 X134.53 Y141.947 E.00068
G1 X135.032 Y141.566 E.01872
G1 X135.583 Y141.259 E.01872
G1 X136.157 Y141.037 E.01828
G1 X136.769 Y140.895 E.01865
G1 X137.498 Y140.837 E.02171
G1 X167.774 Y140.838 E.89893
G1 X168.349 Y140.857 E.01708
G1 X168.875 Y140.907 E.0157
G1 X169.273 Y140.969 E.01196
G1 X169.883 Y141.126 E.01869
G1 X170.48 Y141.373 E.01917
G1 X171.022 Y141.695 E.01872
G1 X171.513 Y142.09 E.01872
G1 X171.934 Y142.539 E.01828
G1 X172.305 Y143.068 E.01917
G1 X172.584 Y143.616 E.01828
G1 X172.789 Y144.213 E.01872
G1 X172.909 Y144.836 E.01884
G1 X172.941 Y145.379 E.01615
G1 X172.941 Y154.617 E.27428
G1 X172.894 Y155.276 E.01963
G1 X172.76 Y155.892 E.01872
G1 X172.547 Y156.47 E.01828
G1 X172.248 Y157.025 E.01872
G1 X171.874 Y157.533 E.01872
G1 X171.421 Y157.993 E.01917
G1 X170.919 Y158.374 E.01872
G1 X170.368 Y158.681 E.01872
G1 X169.79 Y158.904 E.01839
G1 X169.279 Y159.03 E.0156
G1 X168.684 Y159.115 E.01787
G1 X167.906 Y159.161 E.02312
G1 X137.488 Y159.163 E.90316
G1 X136.851 Y159.118 E.01895
G1 X136.234 Y158.986 E.01872
G1 X135.642 Y158.769 E.01872
G1 X135.087 Y158.47 E.01872
G1 X134.579 Y158.096 E.01872
G1 X134.129 Y157.654 E.01872
G1 X133.746 Y157.153 E.01872
G1 X133.431 Y156.589 E.01917
G1 X133.209 Y156.015 E.01828
G1 X133.067 Y155.403 E.01865
G1 X133.009 Y154.674 E.02171
G1 X133.009 Y145.323 E.27765
G1 X133.054 Y144.679 E.01918
G1 X133.19 Y144.048 E.01917
G1 X133.41 Y143.456 E.01872
G1 X133.71 Y142.902 E.01872
G1 X134.086 Y142.396 E.01872
G1 X134.485 Y141.992 E.01686
G1 X134.74 Y142.244 F21000
G1 F1200
G1 X134.772 Y142.212 E.00136
G1 X135.234 Y141.862 E.01722
G1 X135.742 Y141.58 E.01723
G1 X136.27 Y141.378 E.01679
G1 X136.816 Y141.25 E.01666
G1 X137.516 Y141.194 E.02086
G1 X167.766 Y141.195 E.89815
G1 X168.322 Y141.213 E.01653
G1 X168.834 Y141.262 E.01526
G1 X169.206 Y141.321 E.01119
G1 X169.762 Y141.463 E.01704
G1 X170.312 Y141.69 E.01766
G1 X170.824 Y141.994 E.01766
G1 X171.264 Y142.348 E.01678
G1 X171.651 Y142.76 E.01678
G1 X172.002 Y143.259 E.01812
G1 X172.257 Y143.763 E.01678
G1 X172.441 Y144.298 E.01678
G1 X172.552 Y144.874 E.01742
G1 X172.584 Y145.393 E.01545
G1 X172.584 Y154.6 E.27337
G1 X172.538 Y155.233 E.01883
G1 X172.414 Y155.799 E.01722
G1 X172.217 Y156.329 E.01679
G1 X171.949 Y156.827 E.01678
G1 X171.606 Y157.294 E.01721
G1 X171.178 Y157.729 E.0181
G1 X170.716 Y158.078 E.01721
G1 X170.209 Y158.36 E.01723
G1 X169.689 Y158.561 E.01655
G1 X169.206 Y158.679 E.01476
G1 X168.643 Y158.76 E.01688
G1 X167.893 Y158.803 E.02232
G1 X137.497 Y158.805 E.9025
G1 X136.894 Y158.762 E.01794
G1 X136.327 Y158.639 E.01723
G1 X135.783 Y158.438 E.01722
G1 X135.272 Y158.163 E.01722
G1 X134.806 Y157.818 E.01722
G1 X134.393 Y157.411 E.01722
G1 X134.042 Y156.95 E.01721
G1 X133.752 Y156.43 E.01766
G1 X133.55 Y155.903 E.01678
G1 X133.423 Y155.356 E.01666
G1 X133.366 Y154.656 E.02086
G1 X133.366 Y145.339 E.27662
G1 X133.408 Y144.737 E.01794
G1 X133.537 Y144.141 E.01811
G1 X133.739 Y143.598 E.01721
G1 X134.017 Y143.088 E.01722
G1 X134.363 Y142.623 E.01722
G1 X134.711 Y142.272 E.01467
G1 X134.965 Y142.525 F21000
G1 F1200
G1 X135.013 Y142.476 E.00204
G1 X135.436 Y142.158 E.01572
G1 X135.9 Y141.902 E.01573
G1 X136.368 Y141.722 E.01487
G1 X136.863 Y141.606 E.01512
G1 X137.535 Y141.551 E.02
G1 X167.758 Y141.552 E.89737
G1 X168.305 Y141.57 E.01626
G1 X169.125 Y141.669 E.02452
G1 X169.642 Y141.801 E.01584
G1 X170.159 Y142.014 E.01659
G1 X170.625 Y142.293 E.01613
G1 X171.015 Y142.606 E.01485
G1 X171.369 Y142.98 E.01527
G1 X171.698 Y143.45 E.01705
G1 X171.93 Y143.909 E.01527
G1 X172.093 Y144.383 E.01487
G1 X172.196 Y144.912 E.016
G1 X172.227 Y145.407 E.01474
G1 X172.227 Y154.583 E.27245
G1 X172.182 Y155.189 E.01802
G1 X172.072 Y155.691 E.01527
G1 X171.893 Y156.175 E.01532
G1 X171.65 Y156.629 E.0153
G1 X171.338 Y157.056 E.01569
G1 X170.936 Y157.464 E.01702
G1 X170.514 Y157.782 E.01568
G1 X170.05 Y158.038 E.01574
G1 X169.588 Y158.217 E.01472
G1 X169.133 Y158.329 E.01391
G1 X168.603 Y158.404 E.01588
G1 X167.879 Y158.446 E.02153
G1 X137.506 Y158.448 E.90183
G1 X136.952 Y158.408 E.01648
G1 X136.434 Y158.297 E.01573
G1 X135.937 Y158.115 E.01572
G1 X135.471 Y157.864 E.01571
G1 X135.033 Y157.541 E.01616
G1 X134.657 Y157.168 E.01571
G1 X134.337 Y156.747 E.0157
G1 X134.074 Y156.272 E.01614
G1 X133.895 Y155.805 E.01485
G1 X133.778 Y155.309 E.01512
G1 X133.723 Y154.637 E.02
G1 X133.723 Y145.356 E.27559
G1 X133.762 Y144.795 E.01669
G1 X133.883 Y144.234 E.01704
G1 X134.069 Y143.74 E.01568
G1 X134.323 Y143.275 E.01572
G1 X134.64 Y142.851 E.01572
G1 X134.937 Y142.553 E.01249
G1 X135.19 Y142.807 F21000
G1 F1200
G1 X135.255 Y142.742 E.00272
G1 X135.638 Y142.455 E.01421
G1 X136.058 Y142.224 E.01424
G1 X136.48 Y142.063 E.01341
G1 X136.911 Y141.962 E.01315
G1 X137.554 Y141.908 E.01915
G1 X167.75 Y141.909 E.89657
G1 X168.282 Y141.927 E.01581
G1 X169.053 Y142.02 E.02303
G1 X169.522 Y142.139 E.01438
G1 X169.991 Y142.331 E.01505
G1 X170.427 Y142.591 E.01506
G1 X170.777 Y142.875 E.01338
G1 X171.086 Y143.201 E.01333
G1 X171.387 Y143.628 E.0155
G1 X171.597 Y144.042 E.01379
G1 X171.745 Y144.469 E.01341
G1 X171.84 Y144.951 E.01459
G1 X171.87 Y145.422 E.01402
G1 X171.87 Y154.566 E.2715
G1 X171.826 Y155.144 E.01722
G1 X171.726 Y155.598 E.01379
G1 X171.563 Y156.035 E.01385
G1 X171.343 Y156.445 E.01383
G1 X171.07 Y156.818 E.01371
G1 X170.694 Y157.2 E.01592
G1 X170.313 Y157.485 E.01414
G1 X169.892 Y157.717 E.01425
G1 X169.474 Y157.877 E.01331
G1 X169.059 Y157.979 E.01267
G1 X168.563 Y158.049 E.01487
G1 X167.866 Y158.089 E.02074
G1 X137.515 Y158.091 E.90116
G1 X137.01 Y158.054 E.01502
G1 X136.541 Y157.955 E.01424
G1 X136.077 Y157.785 E.01466
G1 X135.656 Y157.557 E.0142
G1 X135.261 Y157.263 E.01464
G1 X134.922 Y156.926 E.0142
G1 X134.634 Y156.545 E.01419
G1 X134.396 Y156.113 E.01463
G1 X134.235 Y155.692 E.01338
G1 X134.134 Y155.261 E.01315
G1 X134.08 Y154.618 E.01914
G1 X134.08 Y145.372 E.27454
G1 X134.116 Y144.853 E.01545
G1 X134.229 Y144.327 E.01595
G1 X134.398 Y143.882 E.01414
G1 X134.629 Y143.463 E.01421
G1 X134.916 Y143.08 E.01421
G1 X135.161 Y142.835 E.0103
G1 X135.414 Y143.089 F21000
G1 F1200
G1 X135.495 Y143.008 E.00341
G1 X135.838 Y142.752 E.01271
G1 X136.215 Y142.546 E.01275
G1 X136.578 Y142.408 E.01154
G1 X136.959 Y142.317 E.01164
G1 X137.573 Y142.265 E.01829
G1 X167.742 Y142.266 E.89576
G1 X168.259 Y142.284 E.01536
G1 X168.994 Y142.374 E.02197
G1 X169.417 Y142.482 E.01297
G1 X169.824 Y142.649 E.01305
G1 X170.228 Y142.89 E.01398
G1 X170.529 Y143.133 E.01148
G1 X170.804 Y143.422 E.01185
G1 X171.084 Y143.819 E.01443
G1 X171.264 Y144.175 E.01185
G1 X171.397 Y144.555 E.01195
G1 X171.484 Y144.99 E.01317
G1 X171.513 Y145.437 E.01329
G1 X171.513 Y154.548 E.27054
G1 X171.473 Y155.084 E.01596
G1 X171.384 Y155.489 E.0123
G1 X171.24 Y155.88 E.01238
G1 X171.043 Y156.248 E.01237
G1 X170.802 Y156.579 E.01218
G1 X170.452 Y156.935 E.01482
G1 X170.112 Y157.188 E.01258
G1 X169.735 Y157.394 E.01277
G1 X169.36 Y157.537 E.01191
G1 X168.986 Y157.629 E.01143
G1 X168.523 Y157.694 E.01387
G1 X167.852 Y157.732 E.01996
G1 X137.524 Y157.733 E.90049
G1 X137.067 Y157.7 E.01359
G1 X136.647 Y157.612 E.01274
G1 X136.232 Y157.461 E.01313
G1 X135.856 Y157.259 E.01268
G1 X135.5 Y156.997 E.01311
G1 X135.197 Y156.696 E.01268
G1 X134.93 Y156.343 E.01313
G1 X134.718 Y155.956 E.01313
G1 X134.58 Y155.594 E.01149
G1 X134.489 Y155.213 E.01164
G1 X134.437 Y154.599 E.01828
G1 X134.437 Y145.388 E.2735
G1 X134.47 Y144.911 E.0142
G1 X134.576 Y144.421 E.01486
G1 X134.727 Y144.025 E.01258
G1 X134.934 Y143.651 E.01271
G1 X135.192 Y143.309 E.01271
G1 X135.385 Y143.117 E.00811
G1 X135.637 Y143.371 F21000
G1 F1200
G1 X135.735 Y143.274 E.0041
G1 X136.038 Y143.05 E.0112
G1 X136.372 Y142.868 E.01127
G1 X136.677 Y142.752 E.0097
G1 X137.008 Y142.673 E.01012
G1 X137.593 Y142.622 E.01742
G1 X167.734 Y142.623 E.89494
G1 X168.236 Y142.641 E.01491
G1 X168.934 Y142.727 E.02089
G1 X169.297 Y142.82 E.01112
G1 X169.656 Y142.966 E.01151
G1 X170.029 Y143.188 E.01289
G1 X170.291 Y143.401 E.01001
G1 X170.521 Y143.643 E.00993
G1 X170.78 Y144.011 E.01334
G1 X170.937 Y144.322 E.01035
G1 X171.049 Y144.642 E.01007
G1 X171.129 Y145.044 E.01216
G1 X171.156 Y145.452 E.01214
G1 X171.156 Y154.531 E.26957
G1 X171.119 Y155.025 E.01471
G1 X171.042 Y155.381 E.01083
G1 X170.916 Y155.727 E.01092
G1 X170.743 Y156.051 E.01091
G1 X170.534 Y156.341 E.01064
G1 X170.21 Y156.67 E.01369
G1 X169.912 Y156.891 E.01101
G1 X169.578 Y157.072 E.01129
G1 X169.247 Y157.197 E.0105
G1 X168.913 Y157.278 E.01019
G1 X168.484 Y157.338 E.01288
G1 X167.839 Y157.375 E.01918
G1 X137.533 Y157.376 E.89983
G1 X137.124 Y157.346 E.01217
G1 X136.753 Y157.27 E.01126
G1 X136.385 Y157.137 E.0116
G1 X136.054 Y156.96 E.01115
G1 X135.739 Y156.729 E.01159
G1 X135.461 Y156.454 E.01161
G1 X135.227 Y156.142 E.01159
G1 X135.04 Y155.799 E.01161
G1 X134.92 Y155.482 E.01006
G1 X134.845 Y155.164 E.0097
G1 X134.795 Y154.58 E.01741
G1 X134.795 Y145.404 E.27244
G1 X134.824 Y144.968 E.01295
G1 X134.922 Y144.516 E.01376
G1 X135.055 Y144.17 E.01101
G1 X135.239 Y143.84 E.0112
G1 X135.467 Y143.54 E.0112
G1 X135.608 Y143.399 E.00592
G1 X135.85 Y143.679 F21000
G1 F1200
G1 X136.142 Y143.427 E.01146
G1 X136.5 Y143.222 E.01226
G1 X136.944 Y143.066 E.01398
G1 X137.435 Y142.989 E.01473
G1 X167.767 Y142.98 E.90059
G1 X168.513 Y143.03 E.02221
G1 X169.276 Y143.202 E.02322
G1 X169.533 Y143.317 E.00837
G1 X169.804 Y143.486 E.00948
G1 X170.347 Y144.011 E.02243
G1 X170.487 Y144.232 E.00776
G1 X170.596 Y144.454 E.00734
G1 X170.779 Y145.235 E.02382
G1 X170.799 Y154.583 E.27755
G1 X170.692 Y155.25 E.02006
G1 X170.634 Y155.448 E.00612
G1 X170.493 Y155.753 E.00997
G1 X170.262 Y156.095 E.01226
G1 X169.928 Y156.428 E.01402
G1 X169.649 Y156.624 E.01009
G1 X169.555 Y156.67 E.00313
G1 X168.711 Y156.949 E.02641
G1 X168.274 Y157 E.01305
G1 X167.852 Y157.018 E.01255
G1 X137.534 Y157.021 E.90018
G1 X136.648 Y156.844 E.0268
G1 X136.55 Y156.81 E.00311
G1 X136.266 Y156.662 E.00949
G1 X136.056 Y156.516 E.00758
G1 X135.764 Y156.24 E.01193
G1 X135.622 Y156.064 E.00672
G1 X135.262 Y155.336 E.02411
G1 X135.166 Y154.851 E.01468
G1 X135.152 Y145.366 E.28163
G1 X135.336 Y144.455 E.02757
G1 X135.557 Y144.027 E.01431
G1 X135.784 Y143.736 E.01095
G1 X135.82 Y143.705 E.00142
G1 X136.068 Y143.952 F21000
G1 F1200
G1 X136.32 Y143.736 E.00984
G1 X136.609 Y143.562 E.01003
G1 X137.072 Y143.4 E.01456
G1 X137.426 Y143.346 E.01065
G1 X167.77 Y143.337 E.90095
G1 X168.432 Y143.378 E.01967
G1 X169.125 Y143.526 E.02104
G1 X169.353 Y143.625 E.00739
G1 X169.553 Y143.74 E.00685
G1 X170.043 Y144.198 E.01989
G1 X170.164 Y144.382 E.00656
G1 X170.28 Y144.621 E.00787
G1 X170.433 Y145.321 E.02129
G1 X170.442 Y154.592 E.27525
G1 X170.339 Y155.195 E.01818
G1 X170.291 Y155.348 E.00475
G1 X170.168 Y155.605 E.00845
G1 X169.964 Y155.899 E.01063
G1 X169.675 Y156.176 E.01188
G1 X169.445 Y156.331 E.00824
G1 X168.679 Y156.594 E.02404
G1 X168.262 Y156.643 E.01248
G1 X167.834 Y156.662 E.01273
G1 X137.523 Y156.664 E.89996
M73 P0 R90
G1 X136.716 Y156.494 E.02449
G1 X136.476 Y156.373 E.00797
G1 X136.254 Y156.218 E.00802
G1 X136.009 Y155.98 E.01015
G1 X135.898 Y155.837 E.00536
G1 X135.61 Y155.256 E.01928
G1 X135.557 Y155.054 E.0062
G1 X135.519 Y154.791 E.00788
G1 X135.509 Y145.354 E.28019
G1 X135.657 Y144.611 E.02251
G1 X135.745 Y144.414 E.0064
G1 X135.869 Y144.201 E.00732
G1 X136.043 Y143.983 E.00827
G1 X136.293 Y144.23 F21000
G1 F1200
G1 X136.559 Y144.002 E.0104
G1 X136.794 Y143.867 E.00804
G1 X137.191 Y143.736 E.01243
G1 X137.418 Y143.703 E.00681
G1 X167.774 Y143.694 E.90129
G1 X168.355 Y143.727 E.0173
G1 X168.978 Y143.851 E.01886
G1 X169.171 Y143.932 E.00619
G1 X169.386 Y144.055 E.00737
G1 X169.74 Y144.388 E.01444
G1 X169.869 Y144.584 E.00695
G1 X169.961 Y144.781 E.00647
G1 X170.085 Y145.401 E.01876
G1 X170.085 Y154.601 E.27316
G1 X169.986 Y155.137 E.01618
G1 X169.952 Y155.238 E.00317
G1 X169.845 Y155.453 E.00713
G1 X169.669 Y155.698 E.00895
G1 X169.429 Y155.917 E.00966
G1 X169.249 Y156.033 E.00637
G1 X168.647 Y156.238 E.01888
